(Exported by FreeCAD)
(Post Processor: grbl_post)
(Output Time:2024-11-12 20:09:43.536943)
(Begin preamble)
G17 G90
G21
(Begin operation: G54)
(Path: G54)
G54
G0 Z5.000
(Finish operation: G54)
(Begin operation: 0,8mm_Endmill001)
(Path: 0,8mm_Endmill001)
(0,8mm_Endmill001)
(Begin toolchange)
( M6 T1 )
M3 S10000
(Finish operation: 0,8mm_Endmill001)
(Begin operation: Gesicht)
(Path: Gesicht)
(Gesicht)
(Compensated Tool Path. Diameter: 0.8)
G0 Z5.000
G0 X31.660 Y88.563
G0 Z3.000
G1 X31.660 Y88.563 Z-0.300 F30.000
G2 X31.677 Y88.559 Z-0.300 I-0.000 J-0.035 K0.000 F60.000
G2 X30.988 Y86.773 Z-0.300 I-3.170 J0.197 K0.000 F60.000
G2 X29.719 Y85.862 Z-0.300 I-1.812 J1.185 K0.000 F60.000
G2 X27.591 Y86.216 Z-0.300 I-0.647 J2.686 K0.000 F60.000
G2 X25.656 Y90.137 Z-0.300 I1.555 J3.205 K0.000 F60.000
G2 X25.680 Y90.165 Z-0.300 I0.023 J0.005 K0.000 F60.000
G3 X27.602 Y86.255 Z-0.300 I3.570 J-0.672 K0.000 F60.000
G3 X30.371 Y86.199 Z-0.300 I1.429 J2.155 K0.000 F60.000
G3 X31.639 Y88.500 Z-0.300 I-2.093 J2.653 K0.000 F60.000
G2 X31.660 Y88.563 Z-0.300 I0.021 J0.028 K0.000 F60.000
G1 X31.660 Y88.563 Z-0.600 F30.000
G2 X31.677 Y88.559 Z-0.600 I-0.000 J-0.035 K0.000 F60.000
G2 X30.988 Y86.773 Z-0.600 I-3.170 J0.197 K0.000 F60.000
G2 X29.719 Y85.862 Z-0.600 I-1.812 J1.185 K0.000 F60.000
G2 X27.591 Y86.216 Z-0.600 I-0.647 J2.686 K0.000 F60.000
G2 X25.656 Y90.137 Z-0.600 I1.555 J3.205 K0.000 F60.000
G2 X25.680 Y90.165 Z-0.600 I0.023 J0.005 K0.000 F60.000
G3 X27.602 Y86.255 Z-0.600 I3.570 J-0.672 K0.000 F60.000
G3 X30.371 Y86.199 Z-0.600 I1.429 J2.155 K0.000 F60.000
G3 X31.639 Y88.500 Z-0.600 I-2.093 J2.653 K0.000 F60.000
G2 X31.660 Y88.563 Z-0.600 I0.021 J0.028 K0.000 F60.000
G1 X31.660 Y88.563 Z-0.900 F30.000
G2 X31.677 Y88.559 Z-0.900 I-0.000 J-0.035 K0.000 F60.000
G2 X30.988 Y86.773 Z-0.900 I-3.170 J0.197 K0.000 F60.000
G2 X29.719 Y85.862 Z-0.900 I-1.812 J1.185 K0.000 F60.000
G2 X27.591 Y86.216 Z-0.900 I-0.647 J2.686 K0.000 F60.000
G2 X25.656 Y90.137 Z-0.900 I1.555 J3.205 K0.000 F60.000
G2 X25.680 Y90.165 Z-0.900 I0.023 J0.005 K0.000 F60.000
G3 X27.602 Y86.255 Z-0.900 I3.570 J-0.672 K0.000 F60.000
G3 X30.371 Y86.199 Z-0.900 I1.429 J2.155 K0.000 F60.000
G3 X31.639 Y88.500 Z-0.900 I-2.093 J2.653 K0.000 F60.000
G2 X31.660 Y88.563 Z-0.900 I0.021 J0.028 K0.000 F60.000
G1 X31.660 Y88.563 Z-1.200 F30.000
G2 X31.677 Y88.559 Z-1.200 I-0.000 J-0.035 K0.000 F60.000
G2 X30.988 Y86.773 Z-1.200 I-3.170 J0.197 K0.000 F60.000
G2 X29.719 Y85.862 Z-1.200 I-1.812 J1.185 K0.000 F60.000
G2 X27.591 Y86.216 Z-1.200 I-0.647 J2.686 K0.000 F60.000
G2 X25.656 Y90.137 Z-1.200 I1.555 J3.205 K0.000 F60.000
G2 X25.680 Y90.165 Z-1.200 I0.023 J0.005 K0.000 F60.000
G3 X27.602 Y86.255 Z-1.200 I3.570 J-0.672 K0.000 F60.000
G3 X30.371 Y86.199 Z-1.200 I1.429 J2.155 K0.000 F60.000
G3 X31.639 Y88.500 Z-1.200 I-2.093 J2.653 K0.000 F60.000
G2 X31.660 Y88.563 Z-1.200 I0.021 J0.028 K0.000 F60.000
G1 X31.660 Y88.563 Z-1.500 F30.000
G2 X31.677 Y88.559 Z-1.500 I-0.000 J-0.035 K0.000 F60.000
G2 X30.988 Y86.773 Z-1.500 I-3.170 J0.197 K0.000 F60.000
G2 X29.719 Y85.862 Z-1.500 I-1.812 J1.185 K0.000 F60.000
G2 X27.591 Y86.216 Z-1.500 I-0.647 J2.686 K0.000 F60.000
G2 X25.656 Y90.137 Z-1.500 I1.555 J3.205 K0.000 F60.000
G2 X25.680 Y90.165 Z-1.500 I0.023 J0.005 K0.000 F60.000
G3 X27.602 Y86.255 Z-1.500 I3.570 J-0.672 K0.000 F60.000
G3 X30.371 Y86.199 Z-1.500 I1.429 J2.155 K0.000 F60.000
G3 X31.639 Y88.500 Z-1.500 I-2.093 J2.653 K0.000 F60.000
G2 X31.660 Y88.563 Z-1.500 I0.021 J0.028 K0.000 F60.000
G1 X31.660 Y88.563 Z-1.800 F30.000
G2 X31.677 Y88.559 Z-1.800 I-0.000 J-0.035 K0.000 F60.000
G2 X30.988 Y86.773 Z-1.800 I-3.170 J0.197 K0.000 F60.000
G2 X29.719 Y85.862 Z-1.800 I-1.812 J1.185 K0.000 F60.000
G2 X27.591 Y86.216 Z-1.800 I-0.647 J2.686 K0.000 F60.000
G2 X25.656 Y90.137 Z-1.800 I1.555 J3.205 K0.000 F60.000
G2 X25.680 Y90.165 Z-1.800 I0.023 J0.005 K0.000 F60.000
G3 X27.602 Y86.255 Z-1.800 I3.570 J-0.672 K0.000 F60.000
G3 X30.371 Y86.199 Z-1.800 I1.429 J2.155 K0.000 F60.000
G3 X31.639 Y88.500 Z-1.800 I-2.093 J2.653 K0.000 F60.000
G2 X31.660 Y88.563 Z-1.800 I0.021 J0.028 K0.000 F60.000
G1 X31.660 Y88.563 Z-2.100 F30.000
G2 X31.677 Y88.559 Z-2.100 I-0.000 J-0.035 K0.000 F60.000
G2 X30.988 Y86.773 Z-2.100 I-3.170 J0.197 K0.000 F60.000
G2 X29.719 Y85.862 Z-2.100 I-1.812 J1.185 K0.000 F60.000
G2 X27.591 Y86.216 Z-2.100 I-0.647 J2.686 K0.000 F60.000
G2 X25.656 Y90.137 Z-2.100 I1.555 J3.205 K0.000 F60.000
G2 X25.680 Y90.165 Z-2.100 I0.023 J0.005 K0.000 F60.000
G3 X27.602 Y86.255 Z-2.100 I3.570 J-0.672 K0.000 F60.000
G3 X30.371 Y86.199 Z-2.100 I1.429 J2.155 K0.000 F60.000
G3 X31.639 Y88.500 Z-2.100 I-2.093 J2.653 K0.000 F60.000
G2 X31.660 Y88.563 Z-2.100 I0.021 J0.028 K0.000 F60.000
G1 X31.660 Y88.563 Z-2.400 F30.000
G2 X31.677 Y88.559 Z-2.400 I-0.000 J-0.035 K0.000 F60.000
G2 X30.988 Y86.773 Z-2.400 I-3.170 J0.197 K0.000 F60.000
G2 X29.719 Y85.862 Z-2.400 I-1.812 J1.185 K0.000 F60.000
G2 X27.591 Y86.216 Z-2.400 I-0.647 J2.686 K0.000 F60.000
G2 X25.656 Y90.137 Z-2.400 I1.555 J3.205 K0.000 F60.000
G2 X25.680 Y90.165 Z-2.400 I0.023 J0.005 K0.000 F60.000
G3 X27.602 Y86.255 Z-2.400 I3.570 J-0.672 K0.000 F60.000
G3 X30.371 Y86.199 Z-2.400 I1.429 J2.155 K0.000 F60.000
G3 X31.639 Y88.500 Z-2.400 I-2.093 J2.653 K0.000 F60.000
G2 X31.660 Y88.563 Z-2.400 I0.021 J0.028 K0.000 F60.000
G1 X31.660 Y88.563 Z-2.700 F30.000
G2 X31.677 Y88.559 Z-2.700 I-0.000 J-0.035 K0.000 F60.000
G2 X30.988 Y86.773 Z-2.700 I-3.170 J0.197 K0.000 F60.000
G2 X29.719 Y85.862 Z-2.700 I-1.812 J1.185 K0.000 F60.000
G2 X27.591 Y86.216 Z-2.700 I-0.647 J2.686 K0.000 F60.000
G2 X25.656 Y90.137 Z-2.700 I1.555 J3.205 K0.000 F60.000
G2 X25.680 Y90.165 Z-2.700 I0.023 J0.005 K0.000 F60.000
G3 X27.602 Y86.255 Z-2.700 I3.570 J-0.672 K0.000 F60.000
G3 X30.371 Y86.199 Z-2.700 I1.429 J2.155 K0.000 F60.000
G3 X31.639 Y88.500 Z-2.700 I-2.093 J2.653 K0.000 F60.000
G2 X31.660 Y88.563 Z-2.700 I0.021 J0.028 K0.000 F60.000
G1 X31.660 Y88.563 Z-3.000 F30.000
G2 X31.677 Y88.559 Z-3.000 I-0.000 J-0.035 K0.000 F60.000
G2 X30.988 Y86.773 Z-3.000 I-3.170 J0.197 K0.000 F60.000
G2 X29.719 Y85.862 Z-3.000 I-1.812 J1.185 K0.000 F60.000
G2 X27.591 Y86.216 Z-3.000 I-0.647 J2.686 K0.000 F60.000
G2 X25.656 Y90.137 Z-3.000 I1.555 J3.205 K0.000 F60.000
G2 X25.680 Y90.165 Z-3.000 I0.023 J0.005 K0.000 F60.000
G3 X27.602 Y86.255 Z-3.000 I3.570 J-0.672 K0.000 F60.000
G3 X30.371 Y86.199 Z-3.000 I1.429 J2.155 K0.000 F60.000
G3 X31.639 Y88.500 Z-3.000 I-2.093 J2.653 K0.000 F60.000
G2 X31.660 Y88.563 Z-3.000 I0.021 J0.028 K0.000 F60.000
G1 X31.660 Y88.563 Z-3.300 F30.000
G2 X31.677 Y88.559 Z-3.300 I-0.000 J-0.035 K0.000 F60.000
G2 X30.988 Y86.773 Z-3.300 I-3.170 J0.197 K0.000 F60.000
G2 X29.719 Y85.862 Z-3.300 I-1.812 J1.185 K0.000 F60.000
G2 X27.591 Y86.216 Z-3.300 I-0.647 J2.686 K0.000 F60.000
G2 X25.656 Y90.137 Z-3.300 I1.555 J3.205 K0.000 F60.000
G2 X25.680 Y90.165 Z-3.300 I0.023 J0.005 K0.000 F60.000
G3 X27.602 Y86.255 Z-3.300 I3.570 J-0.672 K0.000 F60.000
G3 X30.371 Y86.199 Z-3.300 I1.429 J2.155 K0.000 F60.000
G3 X31.639 Y88.500 Z-3.300 I-2.093 J2.653 K0.000 F60.000
G2 X31.660 Y88.563 Z-3.300 I0.021 J0.028 K0.000 F60.000
G1 X31.660 Y88.563 Z-3.600 F30.000
G2 X31.677 Y88.559 Z-3.600 I-0.000 J-0.035 K0.000 F60.000
G2 X30.988 Y86.773 Z-3.600 I-3.170 J0.197 K0.000 F60.000
G2 X29.719 Y85.862 Z-3.600 I-1.812 J1.185 K0.000 F60.000
G2 X27.591 Y86.216 Z-3.600 I-0.647 J2.686 K0.000 F60.000
G2 X25.656 Y90.137 Z-3.600 I1.555 J3.205 K0.000 F60.000
G2 X25.680 Y90.165 Z-3.600 I0.023 J0.005 K0.000 F60.000
G3 X27.602 Y86.255 Z-3.600 I3.570 J-0.672 K0.000 F60.000
G3 X30.371 Y86.199 Z-3.600 I1.429 J2.155 K0.000 F60.000
G3 X31.639 Y88.500 Z-3.600 I-2.093 J2.653 K0.000 F60.000
G2 X31.660 Y88.563 Z-3.600 I0.021 J0.028 K0.000 F60.000
G1 X31.660 Y88.563 Z-3.900 F30.000
G2 X31.677 Y88.559 Z-3.900 I-0.000 J-0.035 K0.000 F60.000
G2 X30.988 Y86.773 Z-3.900 I-3.170 J0.197 K0.000 F60.000
G2 X29.719 Y85.862 Z-3.900 I-1.812 J1.185 K0.000 F60.000
G2 X27.591 Y86.216 Z-3.900 I-0.647 J2.686 K0.000 F60.000
G2 X25.656 Y90.137 Z-3.900 I1.555 J3.205 K0.000 F60.000
G2 X25.680 Y90.165 Z-3.900 I0.023 J0.005 K0.000 F60.000
G3 X27.602 Y86.255 Z-3.900 I3.570 J-0.672 K0.000 F60.000
G3 X30.371 Y86.199 Z-3.900 I1.429 J2.155 K0.000 F60.000
G3 X31.639 Y88.500 Z-3.900 I-2.093 J2.653 K0.000 F60.000
G2 X31.660 Y88.563 Z-3.900 I0.021 J0.028 K0.000 F60.000
G1 X31.660 Y88.563 Z-4.100 F30.000
G2 X31.677 Y88.559 Z-4.100 I-0.000 J-0.035 K0.000 F60.000
G2 X30.988 Y86.773 Z-4.100 I-3.170 J0.197 K0.000 F60.000
G2 X29.719 Y85.862 Z-4.100 I-1.812 J1.185 K0.000 F60.000
G2 X27.591 Y86.216 Z-4.100 I-0.647 J2.686 K0.000 F60.000
G2 X25.656 Y90.137 Z-4.100 I1.555 J3.205 K0.000 F60.000
G2 X25.680 Y90.165 Z-4.100 I0.023 J0.005 K0.000 F60.000
G3 X27.602 Y86.255 Z-4.100 I3.570 J-0.672 K0.000 F60.000
G3 X30.371 Y86.199 Z-4.100 I1.429 J2.155 K0.000 F60.000
G3 X31.639 Y88.500 Z-4.100 I-2.093 J2.653 K0.000 F60.000
G2 X31.660 Y88.563 Z-4.100 I0.021 J0.028 K0.000 F60.000
G0 Z5.000
G0 Z5.000
G0 X31.660 Y88.563
G0 X32.397 Y89.467
G0 X32.397 Y89.467 Z3.000
G1 X32.397 Y89.467 Z-0.300 F30.000
G2 X32.395 Y89.477 Z-0.300 I0.007 J0.006 K0.000 F60.000
G2 X32.688 Y89.722 Z-0.300 I3.230 J-3.561 K0.000 F60.000
G3 X32.952 Y91.185 Z-0.300 I-1.159 J0.965 K0.000 F60.000
G3 X32.500 Y91.689 Z-0.300 I-0.525 J-0.016 K0.000 F60.000
G2 X32.406 Y91.708 Z-0.300 I-0.042 J0.032 K0.000 F60.000
G2 X32.948 Y91.341 Z-0.300 I0.090 J-0.450 K0.000 F60.000
G2 X32.943 Y90.083 Z-0.300 I-1.759 J-0.622 K0.000 F60.000
G2 X32.397 Y89.467 Z-0.300 I-0.905 J0.252 K0.000 F60.000
G1 X32.397 Y89.467 Z-0.600 F30.000
G2 X32.395 Y89.477 Z-0.600 I0.007 J0.006 K0.000 F60.000
G2 X32.688 Y89.722 Z-0.600 I3.230 J-3.561 K0.000 F60.000
G3 X32.952 Y91.185 Z-0.600 I-1.159 J0.965 K0.000 F60.000
G3 X32.500 Y91.689 Z-0.600 I-0.525 J-0.016 K0.000 F60.000
G2 X32.406 Y91.708 Z-0.600 I-0.042 J0.032 K0.000 F60.000
G2 X32.948 Y91.341 Z-0.600 I0.090 J-0.450 K0.000 F60.000
G2 X32.943 Y90.083 Z-0.600 I-1.759 J-0.622 K0.000 F60.000
G2 X32.397 Y89.467 Z-0.600 I-0.905 J0.252 K0.000 F60.000
G1 X32.397 Y89.467 Z-0.900 F30.000
G2 X32.395 Y89.477 Z-0.900 I0.007 J0.006 K0.000 F60.000
G2 X32.688 Y89.722 Z-0.900 I3.230 J-3.561 K0.000 F60.000
G3 X32.952 Y91.185 Z-0.900 I-1.159 J0.965 K0.000 F60.000
G3 X32.500 Y91.689 Z-0.900 I-0.525 J-0.016 K0.000 F60.000
G2 X32.406 Y91.708 Z-0.900 I-0.042 J0.032 K0.000 F60.000
G2 X32.948 Y91.341 Z-0.900 I0.090 J-0.450 K0.000 F60.000
G2 X32.943 Y90.083 Z-0.900 I-1.759 J-0.622 K0.000 F60.000
G2 X32.397 Y89.467 Z-0.900 I-0.905 J0.252 K0.000 F60.000
G1 X32.397 Y89.467 Z-1.200 F30.000
G2 X32.395 Y89.477 Z-1.200 I0.007 J0.006 K0.000 F60.000
G2 X32.688 Y89.722 Z-1.200 I3.230 J-3.561 K0.000 F60.000
G3 X32.952 Y91.185 Z-1.200 I-1.159 J0.965 K0.000 F60.000
G3 X32.500 Y91.689 Z-1.200 I-0.525 J-0.016 K0.000 F60.000
G2 X32.406 Y91.708 Z-1.200 I-0.042 J0.032 K0.000 F60.000
G2 X32.948 Y91.341 Z-1.200 I0.090 J-0.450 K0.000 F60.000
G2 X32.943 Y90.083 Z-1.200 I-1.759 J-0.622 K0.000 F60.000
G2 X32.397 Y89.467 Z-1.200 I-0.905 J0.252 K0.000 F60.000
G1 X32.397 Y89.467 Z-1.500 F30.000
G2 X32.395 Y89.477 Z-1.500 I0.007 J0.006 K0.000 F60.000
G2 X32.688 Y89.722 Z-1.500 I3.230 J-3.561 K0.000 F60.000
G3 X32.952 Y91.185 Z-1.500 I-1.159 J0.965 K0.000 F60.000
G3 X32.500 Y91.689 Z-1.500 I-0.525 J-0.016 K0.000 F60.000
G2 X32.406 Y91.708 Z-1.500 I-0.042 J0.032 K0.000 F60.000
G2 X32.948 Y91.341 Z-1.500 I0.090 J-0.450 K0.000 F60.000
G2 X32.943 Y90.083 Z-1.500 I-1.759 J-0.622 K0.000 F60.000
G2 X32.397 Y89.467 Z-1.500 I-0.905 J0.252 K0.000 F60.000
G1 X32.397 Y89.467 Z-1.800 F30.000
G2 X32.395 Y89.477 Z-1.800 I0.007 J0.006 K0.000 F60.000
G2 X32.688 Y89.722 Z-1.800 I3.230 J-3.561 K0.000 F60.000
G3 X32.952 Y91.185 Z-1.800 I-1.159 J0.965 K0.000 F60.000
G3 X32.500 Y91.689 Z-1.800 I-0.525 J-0.016 K0.000 F60.000
G2 X32.406 Y91.708 Z-1.800 I-0.042 J0.032 K0.000 F60.000
G2 X32.948 Y91.341 Z-1.800 I0.090 J-0.450 K0.000 F60.000
G2 X32.943 Y90.083 Z-1.800 I-1.759 J-0.622 K0.000 F60.000
G2 X32.397 Y89.467 Z-1.800 I-0.905 J0.252 K0.000 F60.000
G1 X32.397 Y89.467 Z-2.100 F30.000
G2 X32.395 Y89.477 Z-2.100 I0.007 J0.006 K0.000 F60.000
G2 X32.688 Y89.722 Z-2.100 I3.230 J-3.561 K0.000 F60.000
G3 X32.952 Y91.185 Z-2.100 I-1.159 J0.965 K0.000 F60.000
G3 X32.500 Y91.689 Z-2.100 I-0.525 J-0.016 K0.000 F60.000
G2 X32.406 Y91.708 Z-2.100 I-0.042 J0.032 K0.000 F60.000
G2 X32.948 Y91.341 Z-2.100 I0.090 J-0.450 K0.000 F60.000
G2 X32.943 Y90.083 Z-2.100 I-1.759 J-0.622 K0.000 F60.000
G2 X32.397 Y89.467 Z-2.100 I-0.905 J0.252 K0.000 F60.000
G1 X32.397 Y89.467 Z-2.400 F30.000
G2 X32.395 Y89.477 Z-2.400 I0.007 J0.006 K0.000 F60.000
G2 X32.688 Y89.722 Z-2.400 I3.230 J-3.561 K0.000 F60.000
G3 X32.952 Y91.185 Z-2.400 I-1.159 J0.965 K0.000 F60.000
G3 X32.500 Y91.689 Z-2.400 I-0.525 J-0.016 K0.000 F60.000
G2 X32.406 Y91.708 Z-2.400 I-0.042 J0.032 K0.000 F60.000
G2 X32.948 Y91.341 Z-2.400 I0.090 J-0.450 K0.000 F60.000
G2 X32.943 Y90.083 Z-2.400 I-1.759 J-0.622 K0.000 F60.000
G2 X32.397 Y89.467 Z-2.400 I-0.905 J0.252 K0.000 F60.000
G1 X32.397 Y89.467 Z-2.700 F30.000
G2 X32.395 Y89.477 Z-2.700 I0.007 J0.006 K0.000 F60.000
G2 X32.688 Y89.722 Z-2.700 I3.230 J-3.561 K0.000 F60.000
G3 X32.952 Y91.185 Z-2.700 I-1.159 J0.965 K0.000 F60.000
G3 X32.500 Y91.689 Z-2.700 I-0.525 J-0.016 K0.000 F60.000
G2 X32.406 Y91.708 Z-2.700 I-0.042 J0.032 K0.000 F60.000
G2 X32.948 Y91.341 Z-2.700 I0.090 J-0.450 K0.000 F60.000
G2 X32.943 Y90.083 Z-2.700 I-1.759 J-0.622 K0.000 F60.000
G2 X32.397 Y89.467 Z-2.700 I-0.905 J0.252 K0.000 F60.000
G1 X32.397 Y89.467 Z-3.000 F30.000
G2 X32.395 Y89.477 Z-3.000 I0.007 J0.006 K0.000 F60.000
G2 X32.688 Y89.722 Z-3.000 I3.230 J-3.561 K0.000 F60.000
G3 X32.952 Y91.185 Z-3.000 I-1.159 J0.965 K0.000 F60.000
G3 X32.500 Y91.689 Z-3.000 I-0.525 J-0.016 K0.000 F60.000
G2 X32.406 Y91.708 Z-3.000 I-0.042 J0.032 K0.000 F60.000
G2 X32.948 Y91.341 Z-3.000 I0.090 J-0.450 K0.000 F60.000
G2 X32.943 Y90.083 Z-3.000 I-1.759 J-0.622 K0.000 F60.000
G2 X32.397 Y89.467 Z-3.000 I-0.905 J0.252 K0.000 F60.000
G1 X32.397 Y89.467 Z-3.300 F30.000
G2 X32.395 Y89.477 Z-3.300 I0.007 J0.006 K0.000 F60.000
G2 X32.688 Y89.722 Z-3.300 I3.230 J-3.561 K0.000 F60.000
G3 X32.952 Y91.185 Z-3.300 I-1.159 J0.965 K0.000 F60.000
G3 X32.500 Y91.689 Z-3.300 I-0.525 J-0.016 K0.000 F60.000
G2 X32.406 Y91.708 Z-3.300 I-0.042 J0.032 K0.000 F60.000
G2 X32.948 Y91.341 Z-3.300 I0.090 J-0.450 K0.000 F60.000
G2 X32.943 Y90.083 Z-3.300 I-1.759 J-0.622 K0.000 F60.000
G2 X32.397 Y89.467 Z-3.300 I-0.905 J0.252 K0.000 F60.000
G1 X32.397 Y89.467 Z-3.600 F30.000
G2 X32.395 Y89.477 Z-3.600 I0.007 J0.006 K0.000 F60.000
G2 X32.688 Y89.722 Z-3.600 I3.230 J-3.561 K0.000 F60.000
G3 X32.952 Y91.185 Z-3.600 I-1.159 J0.965 K0.000 F60.000
G3 X32.500 Y91.689 Z-3.600 I-0.525 J-0.016 K0.000 F60.000
G2 X32.406 Y91.708 Z-3.600 I-0.042 J0.032 K0.000 F60.000
G2 X32.948 Y91.341 Z-3.600 I0.090 J-0.450 K0.000 F60.000
G2 X32.943 Y90.083 Z-3.600 I-1.759 J-0.622 K0.000 F60.000
G2 X32.397 Y89.467 Z-3.600 I-0.905 J0.252 K0.000 F60.000
G1 X32.397 Y89.467 Z-3.900 F30.000
G2 X32.395 Y89.477 Z-3.900 I0.007 J0.006 K0.000 F60.000
G2 X32.688 Y89.722 Z-3.900 I3.230 J-3.561 K0.000 F60.000
G3 X32.952 Y91.185 Z-3.900 I-1.159 J0.965 K0.000 F60.000
G3 X32.500 Y91.689 Z-3.900 I-0.525 J-0.016 K0.000 F60.000
G2 X32.406 Y91.708 Z-3.900 I-0.042 J0.032 K0.000 F60.000
G2 X32.948 Y91.341 Z-3.900 I0.090 J-0.450 K0.000 F60.000
G2 X32.943 Y90.083 Z-3.900 I-1.759 J-0.622 K0.000 F60.000
G2 X32.397 Y89.467 Z-3.900 I-0.905 J0.252 K0.000 F60.000
G1 X32.397 Y89.467 Z-4.100 F30.000
G2 X32.395 Y89.477 Z-4.100 I0.007 J0.006 K0.000 F60.000
G2 X32.688 Y89.722 Z-4.100 I3.230 J-3.561 K0.000 F60.000
G3 X32.952 Y91.185 Z-4.100 I-1.159 J0.965 K0.000 F60.000
G3 X32.500 Y91.689 Z-4.100 I-0.525 J-0.016 K0.000 F60.000
G2 X32.406 Y91.708 Z-4.100 I-0.042 J0.032 K0.000 F60.000
G2 X32.948 Y91.341 Z-4.100 I0.090 J-0.450 K0.000 F60.000
G2 X32.943 Y90.083 Z-4.100 I-1.759 J-0.622 K0.000 F60.000
G2 X32.397 Y89.467 Z-4.100 I-0.905 J0.252 K0.000 F60.000
G0 Z5.000
G0 Z5.000
G0 X32.397 Y89.467
G0 X31.954 Y90.652
G0 X31.954 Y90.652 Z3.000
G1 X31.954 Y90.652 Z-0.300 F30.000
G2 X31.351 Y91.052 Z-0.300 I0.643 J1.622 K0.000 F60.000
G2 X30.006 Y92.974 Z-0.300 I20.339 J15.664 K0.000 F60.000
G3 X28.464 Y93.760 Z-0.300 I-1.539 J-1.116 K0.000 F60.000
G3 X26.294 Y92.910 Z-0.300 I0.531 J-4.553 K0.000 F60.000
G2 X26.280 Y92.929 Z-0.300 I-0.003 J0.012 K0.000 F60.000
G2 X27.603 Y93.632 Z-0.300 I2.594 J-3.285 K0.000 F60.000
G2 X29.622 Y93.410 Z-0.300 I0.819 J-1.849 K0.000 F60.000
G2 X30.577 Y92.210 Z-0.300 I-3.983 J-4.149 K0.000 F60.000
G3 X31.954 Y90.652 Z-0.300 I3.397 J1.616 K0.000 F60.000
G1 X31.954 Y90.652 Z-0.600 F30.000
G2 X31.351 Y91.052 Z-0.600 I0.643 J1.622 K0.000 F60.000
G2 X30.006 Y92.974 Z-0.600 I20.339 J15.664 K0.000 F60.000
G3 X28.464 Y93.760 Z-0.600 I-1.539 J-1.116 K0.000 F60.000
G3 X26.294 Y92.910 Z-0.600 I0.531 J-4.553 K0.000 F60.000
G2 X26.280 Y92.929 Z-0.600 I-0.003 J0.012 K0.000 F60.000
G2 X27.603 Y93.632 Z-0.600 I2.594 J-3.285 K0.000 F60.000
G2 X29.622 Y93.410 Z-0.600 I0.819 J-1.849 K0.000 F60.000
G2 X30.577 Y92.210 Z-0.600 I-3.983 J-4.149 K0.000 F60.000
G3 X31.954 Y90.652 Z-0.600 I3.397 J1.616 K0.000 F60.000
G1 X31.954 Y90.652 Z-0.900 F30.000
G2 X31.351 Y91.052 Z-0.900 I0.643 J1.622 K0.000 F60.000
G2 X30.006 Y92.974 Z-0.900 I20.339 J15.664 K0.000 F60.000
G3 X28.464 Y93.760 Z-0.900 I-1.539 J-1.116 K0.000 F60.000
G3 X26.294 Y92.910 Z-0.900 I0.531 J-4.553 K0.000 F60.000
G2 X26.280 Y92.929 Z-0.900 I-0.003 J0.012 K0.000 F60.000
G2 X27.603 Y93.632 Z-0.900 I2.594 J-3.285 K0.000 F60.000
G2 X29.622 Y93.410 Z-0.900 I0.819 J-1.849 K0.000 F60.000
G2 X30.577 Y92.210 Z-0.900 I-3.983 J-4.149 K0.000 F60.000
G3 X31.954 Y90.652 Z-0.900 I3.397 J1.616 K0.000 F60.000
G1 X31.954 Y90.652 Z-1.200 F30.000
G2 X31.351 Y91.052 Z-1.200 I0.643 J1.622 K0.000 F60.000
G2 X30.006 Y92.974 Z-1.200 I20.339 J15.664 K0.000 F60.000
G3 X28.464 Y93.760 Z-1.200 I-1.539 J-1.116 K0.000 F60.000
G3 X26.294 Y92.910 Z-1.200 I0.531 J-4.553 K0.000 F60.000
G2 X26.280 Y92.929 Z-1.200 I-0.003 J0.012 K0.000 F60.000
G2 X27.603 Y93.632 Z-1.200 I2.594 J-3.285 K0.000 F60.000
G2 X29.622 Y93.410 Z-1.200 I0.819 J-1.849 K0.000 F60.000
G2 X30.577 Y92.210 Z-1.200 I-3.983 J-4.149 K0.000 F60.000
G3 X31.954 Y90.652 Z-1.200 I3.397 J1.616 K0.000 F60.000
G1 X31.954 Y90.652 Z-1.500 F30.000
G2 X31.351 Y91.052 Z-1.500 I0.643 J1.622 K0.000 F60.000
G2 X30.006 Y92.974 Z-1.500 I20.339 J15.664 K0.000 F60.000
G3 X28.464 Y93.760 Z-1.500 I-1.539 J-1.116 K0.000 F60.000
G3 X26.294 Y92.910 Z-1.500 I0.531 J-4.553 K0.000 F60.000
G2 X26.280 Y92.929 Z-1.500 I-0.003 J0.012 K0.000 F60.000
G2 X27.603 Y93.632 Z-1.500 I2.594 J-3.285 K0.000 F60.000
G2 X29.622 Y93.410 Z-1.500 I0.819 J-1.849 K0.000 F60.000
G2 X30.577 Y92.210 Z-1.500 I-3.983 J-4.149 K0.000 F60.000
G3 X31.954 Y90.652 Z-1.500 I3.397 J1.616 K0.000 F60.000
G1 X31.954 Y90.652 Z-1.800 F30.000
G2 X31.351 Y91.052 Z-1.800 I0.643 J1.622 K0.000 F60.000
G2 X30.006 Y92.974 Z-1.800 I20.339 J15.664 K0.000 F60.000
G3 X28.464 Y93.760 Z-1.800 I-1.539 J-1.116 K0.000 F60.000
G3 X26.294 Y92.910 Z-1.800 I0.531 J-4.553 K0.000 F60.000
G2 X26.280 Y92.929 Z-1.800 I-0.003 J0.012 K0.000 F60.000
G2 X27.603 Y93.632 Z-1.800 I2.594 J-3.285 K0.000 F60.000
G2 X29.622 Y93.410 Z-1.800 I0.819 J-1.849 K0.000 F60.000
G2 X30.577 Y92.210 Z-1.800 I-3.983 J-4.149 K0.000 F60.000
G3 X31.954 Y90.652 Z-1.800 I3.397 J1.616 K0.000 F60.000
G1 X31.954 Y90.652 Z-2.100 F30.000
G2 X31.351 Y91.052 Z-2.100 I0.643 J1.622 K0.000 F60.000
G2 X30.006 Y92.974 Z-2.100 I20.339 J15.664 K0.000 F60.000
G3 X28.464 Y93.760 Z-2.100 I-1.539 J-1.116 K0.000 F60.000
G3 X26.294 Y92.910 Z-2.100 I0.531 J-4.553 K0.000 F60.000
G2 X26.280 Y92.929 Z-2.100 I-0.003 J0.012 K0.000 F60.000
G2 X27.603 Y93.632 Z-2.100 I2.594 J-3.285 K0.000 F60.000
G2 X29.622 Y93.410 Z-2.100 I0.819 J-1.849 K0.000 F60.000
G2 X30.577 Y92.210 Z-2.100 I-3.983 J-4.149 K0.000 F60.000
G3 X31.954 Y90.652 Z-2.100 I3.397 J1.616 K0.000 F60.000
G1 X31.954 Y90.652 Z-2.400 F30.000
G2 X31.351 Y91.052 Z-2.400 I0.643 J1.622 K0.000 F60.000
G2 X30.006 Y92.974 Z-2.400 I20.339 J15.664 K0.000 F60.000
G3 X28.464 Y93.760 Z-2.400 I-1.539 J-1.116 K0.000 F60.000
G3 X26.294 Y92.910 Z-2.400 I0.531 J-4.553 K0.000 F60.000
G2 X26.280 Y92.929 Z-2.400 I-0.003 J0.012 K0.000 F60.000
G2 X27.603 Y93.632 Z-2.400 I2.594 J-3.285 K0.000 F60.000
G2 X29.622 Y93.410 Z-2.400 I0.819 J-1.849 K0.000 F60.000
G2 X30.577 Y92.210 Z-2.400 I-3.983 J-4.149 K0.000 F60.000
G3 X31.954 Y90.652 Z-2.400 I3.397 J1.616 K0.000 F60.000
G1 X31.954 Y90.652 Z-2.700 F30.000
G2 X31.351 Y91.052 Z-2.700 I0.643 J1.622 K0.000 F60.000
G2 X30.006 Y92.974 Z-2.700 I20.339 J15.664 K0.000 F60.000
G3 X28.464 Y93.760 Z-2.700 I-1.539 J-1.116 K0.000 F60.000
G3 X26.294 Y92.910 Z-2.700 I0.531 J-4.553 K0.000 F60.000
G2 X26.280 Y92.929 Z-2.700 I-0.003 J0.012 K0.000 F60.000
G2 X27.603 Y93.632 Z-2.700 I2.594 J-3.285 K0.000 F60.000
G2 X29.622 Y93.410 Z-2.700 I0.819 J-1.849 K0.000 F60.000
G2 X30.577 Y92.210 Z-2.700 I-3.983 J-4.149 K0.000 F60.000
G3 X31.954 Y90.652 Z-2.700 I3.397 J1.616 K0.000 F60.000
G1 X31.954 Y90.652 Z-3.000 F30.000
G2 X31.351 Y91.052 Z-3.000 I0.643 J1.622 K0.000 F60.000
G2 X30.006 Y92.974 Z-3.000 I20.339 J15.664 K0.000 F60.000
G3 X28.464 Y93.760 Z-3.000 I-1.539 J-1.116 K0.000 F60.000
G3 X26.294 Y92.910 Z-3.000 I0.531 J-4.553 K0.000 F60.000
G2 X26.280 Y92.929 Z-3.000 I-0.003 J0.012 K0.000 F60.000
G2 X27.603 Y93.632 Z-3.000 I2.594 J-3.285 K0.000 F60.000
G2 X29.622 Y93.410 Z-3.000 I0.819 J-1.849 K0.000 F60.000
G2 X30.577 Y92.210 Z-3.000 I-3.983 J-4.149 K0.000 F60.000
G3 X31.954 Y90.652 Z-3.000 I3.397 J1.616 K0.000 F60.000
G1 X31.954 Y90.652 Z-3.300 F30.000
G2 X31.351 Y91.052 Z-3.300 I0.643 J1.622 K0.000 F60.000
G2 X30.006 Y92.974 Z-3.300 I20.339 J15.664 K0.000 F60.000
G3 X28.464 Y93.760 Z-3.300 I-1.539 J-1.116 K0.000 F60.000
G3 X26.294 Y92.910 Z-3.300 I0.531 J-4.553 K0.000 F60.000
G2 X26.280 Y92.929 Z-3.300 I-0.003 J0.012 K0.000 F60.000
G2 X27.603 Y93.632 Z-3.300 I2.594 J-3.285 K0.000 F60.000
G2 X29.622 Y93.410 Z-3.300 I0.819 J-1.849 K0.000 F60.000
G2 X30.577 Y92.210 Z-3.300 I-3.983 J-4.149 K0.000 F60.000
G3 X31.954 Y90.652 Z-3.300 I3.397 J1.616 K0.000 F60.000
G1 X31.954 Y90.652 Z-3.600 F30.000
G2 X31.351 Y91.052 Z-3.600 I0.643 J1.622 K0.000 F60.000
G2 X30.006 Y92.974 Z-3.600 I20.339 J15.664 K0.000 F60.000
G3 X28.464 Y93.760 Z-3.600 I-1.539 J-1.116 K0.000 F60.000
G3 X26.294 Y92.910 Z-3.600 I0.531 J-4.553 K0.000 F60.000
G2 X26.280 Y92.929 Z-3.600 I-0.003 J0.012 K0.000 F60.000
G2 X27.603 Y93.632 Z-3.600 I2.594 J-3.285 K0.000 F60.000
G2 X29.622 Y93.410 Z-3.600 I0.819 J-1.849 K0.000 F60.000
G2 X30.577 Y92.210 Z-3.600 I-3.983 J-4.149 K0.000 F60.000
G3 X31.954 Y90.652 Z-3.600 I3.397 J1.616 K0.000 F60.000
G1 X31.954 Y90.652 Z-3.900 F30.000
G2 X31.351 Y91.052 Z-3.900 I0.643 J1.622 K0.000 F60.000
G2 X30.006 Y92.974 Z-3.900 I20.339 J15.664 K0.000 F60.000
G3 X28.464 Y93.760 Z-3.900 I-1.539 J-1.116 K0.000 F60.000
G3 X26.294 Y92.910 Z-3.900 I0.531 J-4.553 K0.000 F60.000
G2 X26.280 Y92.929 Z-3.900 I-0.003 J0.012 K0.000 F60.000
G2 X27.603 Y93.632 Z-3.900 I2.594 J-3.285 K0.000 F60.000
G2 X29.622 Y93.410 Z-3.900 I0.819 J-1.849 K0.000 F60.000
G2 X30.577 Y92.210 Z-3.900 I-3.983 J-4.149 K0.000 F60.000
G3 X31.954 Y90.652 Z-3.900 I3.397 J1.616 K0.000 F60.000
G1 X31.954 Y90.652 Z-4.100 F30.000
G2 X31.351 Y91.052 Z-4.100 I0.643 J1.622 K0.000 F60.000
G2 X30.006 Y92.974 Z-4.100 I20.339 J15.664 K0.000 F60.000
G3 X28.464 Y93.760 Z-4.100 I-1.539 J-1.116 K0.000 F60.000
G3 X26.294 Y92.910 Z-4.100 I0.531 J-4.553 K0.000 F60.000
G2 X26.280 Y92.929 Z-4.100 I-0.003 J0.012 K0.000 F60.000
G2 X27.603 Y93.632 Z-4.100 I2.594 J-3.285 K0.000 F60.000
G2 X29.622 Y93.410 Z-4.100 I0.819 J-1.849 K0.000 F60.000
G2 X30.577 Y92.210 Z-4.100 I-3.983 J-4.149 K0.000 F60.000
G3 X31.954 Y90.652 Z-4.100 I3.397 J1.616 K0.000 F60.000
G0 Z5.000
G0 Z5.000
G0 X31.954 Y90.652
G0 X32.541 Y92.765
G0 X32.541 Y92.765 Z3.000
G1 X32.541 Y92.765 Z-0.300 F30.000
G3 X31.672 Y94.639 Z-0.300 I-4.270 J-0.841 K0.000 F60.000
G3 X30.699 Y95.649 Z-0.300 I-2.772 J-1.695 K0.000 F60.000
G3 X28.830 Y96.076 Z-0.300 I-1.403 J-1.839 K0.000 F60.000
G2 X28.829 Y96.082 Z-0.300 I0.007 J0.004 K0.000 F60.000
G2 X30.572 Y95.804 Z-0.300 I0.547 J-2.176 K0.000 F60.000
G2 X31.569 Y94.862 Z-0.300 I-1.720 J-2.819 K0.000 F60.000
G2 X32.563 Y92.800 Z-0.300 I-3.736 J-3.071 K0.000 F60.000
G2 X32.541 Y92.765 Z-0.300 I-0.013 J-0.016 K0.000 F60.000
G1 X32.541 Y92.765 Z-0.600 F30.000
G3 X31.672 Y94.639 Z-0.600 I-4.270 J-0.841 K0.000 F60.000
G3 X30.699 Y95.649 Z-0.600 I-2.772 J-1.695 K0.000 F60.000
G3 X28.830 Y96.076 Z-0.600 I-1.403 J-1.839 K0.000 F60.000
G2 X28.829 Y96.082 Z-0.600 I0.007 J0.004 K0.000 F60.000
G2 X30.572 Y95.804 Z-0.600 I0.547 J-2.176 K0.000 F60.000
G2 X31.569 Y94.862 Z-0.600 I-1.720 J-2.819 K0.000 F60.000
G2 X32.563 Y92.800 Z-0.600 I-3.736 J-3.071 K0.000 F60.000
G2 X32.541 Y92.765 Z-0.600 I-0.013 J-0.016 K0.000 F60.000
G1 X32.541 Y92.765 Z-0.900 F30.000
G3 X31.672 Y94.639 Z-0.900 I-4.270 J-0.841 K0.000 F60.000
G3 X30.699 Y95.649 Z-0.900 I-2.772 J-1.695 K0.000 F60.000
G3 X28.830 Y96.076 Z-0.900 I-1.403 J-1.839 K0.000 F60.000
G2 X28.829 Y96.082 Z-0.900 I0.007 J0.004 K0.000 F60.000
G2 X30.572 Y95.804 Z-0.900 I0.547 J-2.176 K0.000 F60.000
G2 X31.569 Y94.862 Z-0.900 I-1.720 J-2.819 K0.000 F60.000
G2 X32.563 Y92.800 Z-0.900 I-3.736 J-3.071 K0.000 F60.000
G2 X32.541 Y92.765 Z-0.900 I-0.013 J-0.016 K0.000 F60.000
G1 X32.541 Y92.765 Z-1.200 F30.000
G3 X31.672 Y94.639 Z-1.200 I-4.270 J-0.841 K0.000 F60.000
G3 X30.699 Y95.649 Z-1.200 I-2.772 J-1.695 K0.000 F60.000
G3 X28.830 Y96.076 Z-1.200 I-1.403 J-1.839 K0.000 F60.000
G2 X28.829 Y96.082 Z-1.200 I0.007 J0.004 K0.000 F60.000
G2 X30.572 Y95.804 Z-1.200 I0.547 J-2.176 K0.000 F60.000
G2 X31.569 Y94.862 Z-1.200 I-1.720 J-2.819 K0.000 F60.000
G2 X32.563 Y92.800 Z-1.200 I-3.736 J-3.071 K0.000 F60.000
G2 X32.541 Y92.765 Z-1.200 I-0.013 J-0.016 K0.000 F60.000
G1 X32.541 Y92.765 Z-1.500 F30.000
G3 X31.672 Y94.639 Z-1.500 I-4.270 J-0.841 K0.000 F60.000
G3 X30.699 Y95.649 Z-1.500 I-2.772 J-1.695 K0.000 F60.000
G3 X28.830 Y96.076 Z-1.500 I-1.403 J-1.839 K0.000 F60.000
G2 X28.829 Y96.082 Z-1.500 I0.007 J0.004 K0.000 F60.000
G2 X30.572 Y95.804 Z-1.500 I0.547 J-2.176 K0.000 F60.000
G2 X31.569 Y94.862 Z-1.500 I-1.720 J-2.819 K0.000 F60.000
G2 X32.563 Y92.800 Z-1.500 I-3.736 J-3.071 K0.000 F60.000
G2 X32.541 Y92.765 Z-1.500 I-0.013 J-0.016 K0.000 F60.000
G1 X32.541 Y92.765 Z-1.800 F30.000
G3 X31.672 Y94.639 Z-1.800 I-4.270 J-0.841 K0.000 F60.000
G3 X30.699 Y95.649 Z-1.800 I-2.772 J-1.695 K0.000 F60.000
G3 X28.830 Y96.076 Z-1.800 I-1.403 J-1.839 K0.000 F60.000
G2 X28.829 Y96.082 Z-1.800 I0.007 J0.004 K0.000 F60.000
G2 X30.572 Y95.804 Z-1.800 I0.547 J-2.176 K0.000 F60.000
G2 X31.569 Y94.862 Z-1.800 I-1.720 J-2.819 K0.000 F60.000
G2 X32.563 Y92.800 Z-1.800 I-3.736 J-3.071 K0.000 F60.000
G2 X32.541 Y92.765 Z-1.800 I-0.013 J-0.016 K0.000 F60.000
G1 X32.541 Y92.765 Z-2.100 F30.000
G3 X31.672 Y94.639 Z-2.100 I-4.270 J-0.841 K0.000 F60.000
G3 X30.699 Y95.649 Z-2.100 I-2.772 J-1.695 K0.000 F60.000
G3 X28.830 Y96.076 Z-2.100 I-1.403 J-1.839 K0.000 F60.000
G2 X28.829 Y96.082 Z-2.100 I0.007 J0.004 K0.000 F60.000
G2 X30.572 Y95.804 Z-2.100 I0.547 J-2.176 K0.000 F60.000
G2 X31.569 Y94.862 Z-2.100 I-1.720 J-2.819 K0.000 F60.000
G2 X32.563 Y92.800 Z-2.100 I-3.736 J-3.071 K0.000 F60.000
G2 X32.541 Y92.765 Z-2.100 I-0.013 J-0.016 K0.000 F60.000
G1 X32.541 Y92.765 Z-2.400 F30.000
G3 X31.672 Y94.639 Z-2.400 I-4.270 J-0.841 K0.000 F60.000
G3 X30.699 Y95.649 Z-2.400 I-2.772 J-1.695 K0.000 F60.000
G3 X28.830 Y96.076 Z-2.400 I-1.403 J-1.839 K0.000 F60.000
G2 X28.829 Y96.082 Z-2.400 I0.007 J0.004 K0.000 F60.000
G2 X30.572 Y95.804 Z-2.400 I0.547 J-2.176 K0.000 F60.000
G2 X31.569 Y94.862 Z-2.400 I-1.720 J-2.819 K0.000 F60.000
G2 X32.563 Y92.800 Z-2.400 I-3.736 J-3.071 K0.000 F60.000
G2 X32.541 Y92.765 Z-2.400 I-0.013 J-0.016 K0.000 F60.000
G1 X32.541 Y92.765 Z-2.700 F30.000
G3 X31.672 Y94.639 Z-2.700 I-4.270 J-0.841 K0.000 F60.000
G3 X30.699 Y95.649 Z-2.700 I-2.772 J-1.695 K0.000 F60.000
G3 X28.830 Y96.076 Z-2.700 I-1.403 J-1.839 K0.000 F60.000
G2 X28.829 Y96.082 Z-2.700 I0.007 J0.004 K0.000 F60.000
G2 X30.572 Y95.804 Z-2.700 I0.547 J-2.176 K0.000 F60.000
G2 X31.569 Y94.862 Z-2.700 I-1.720 J-2.819 K0.000 F60.000
G2 X32.563 Y92.800 Z-2.700 I-3.736 J-3.071 K0.000 F60.000
G2 X32.541 Y92.765 Z-2.700 I-0.013 J-0.016 K0.000 F60.000
G1 X32.541 Y92.765 Z-3.000 F30.000
G3 X31.672 Y94.639 Z-3.000 I-4.270 J-0.841 K0.000 F60.000
G3 X30.699 Y95.649 Z-3.000 I-2.772 J-1.695 K0.000 F60.000
G3 X28.830 Y96.076 Z-3.000 I-1.403 J-1.839 K0.000 F60.000
G2 X28.829 Y96.082 Z-3.000 I0.007 J0.004 K0.000 F60.000
G2 X30.572 Y95.804 Z-3.000 I0.547 J-2.176 K0.000 F60.000
G2 X31.569 Y94.862 Z-3.000 I-1.720 J-2.819 K0.000 F60.000
G2 X32.563 Y92.800 Z-3.000 I-3.736 J-3.071 K0.000 F60.000
G2 X32.541 Y92.765 Z-3.000 I-0.013 J-0.016 K0.000 F60.000
G1 X32.541 Y92.765 Z-3.300 F30.000
G3 X31.672 Y94.639 Z-3.300 I-4.270 J-0.841 K0.000 F60.000
G3 X30.699 Y95.649 Z-3.300 I-2.772 J-1.695 K0.000 F60.000
G3 X28.830 Y96.076 Z-3.300 I-1.403 J-1.839 K0.000 F60.000
G2 X28.829 Y96.082 Z-3.300 I0.007 J0.004 K0.000 F60.000
G2 X30.572 Y95.804 Z-3.300 I0.547 J-2.176 K0.000 F60.000
G2 X31.569 Y94.862 Z-3.300 I-1.720 J-2.819 K0.000 F60.000
G2 X32.563 Y92.800 Z-3.300 I-3.736 J-3.071 K0.000 F60.000
G2 X32.541 Y92.765 Z-3.300 I-0.013 J-0.016 K0.000 F60.000
G1 X32.541 Y92.765 Z-3.600 F30.000
G3 X31.672 Y94.639 Z-3.600 I-4.270 J-0.841 K0.000 F60.000
G3 X30.699 Y95.649 Z-3.600 I-2.772 J-1.695 K0.000 F60.000
G3 X28.830 Y96.076 Z-3.600 I-1.403 J-1.839 K0.000 F60.000
G2 X28.829 Y96.082 Z-3.600 I0.007 J0.004 K0.000 F60.000
G2 X30.572 Y95.804 Z-3.600 I0.547 J-2.176 K0.000 F60.000
G2 X31.569 Y94.862 Z-3.600 I-1.720 J-2.819 K0.000 F60.000
G2 X32.563 Y92.800 Z-3.600 I-3.736 J-3.071 K0.000 F60.000
G2 X32.541 Y92.765 Z-3.600 I-0.013 J-0.016 K0.000 F60.000
G1 X32.541 Y92.765 Z-3.900 F30.000
G3 X31.672 Y94.639 Z-3.900 I-4.270 J-0.841 K0.000 F60.000
G3 X30.699 Y95.649 Z-3.900 I-2.772 J-1.695 K0.000 F60.000
G3 X28.830 Y96.076 Z-3.900 I-1.403 J-1.839 K0.000 F60.000
G2 X28.829 Y96.082 Z-3.900 I0.007 J0.004 K0.000 F60.000
G2 X30.572 Y95.804 Z-3.900 I0.547 J-2.176 K0.000 F60.000
G2 X31.569 Y94.862 Z-3.900 I-1.720 J-2.819 K0.000 F60.000
G2 X32.563 Y92.800 Z-3.900 I-3.736 J-3.071 K0.000 F60.000
G2 X32.541 Y92.765 Z-3.900 I-0.013 J-0.016 K0.000 F60.000
G1 X32.541 Y92.765 Z-4.100 F30.000
G3 X31.672 Y94.639 Z-4.100 I-4.270 J-0.841 K0.000 F60.000
G3 X30.699 Y95.649 Z-4.100 I-2.772 J-1.695 K0.000 F60.000
G3 X28.830 Y96.076 Z-4.100 I-1.403 J-1.839 K0.000 F60.000
G2 X28.829 Y96.082 Z-4.100 I0.007 J0.004 K0.000 F60.000
G2 X30.572 Y95.804 Z-4.100 I0.547 J-2.176 K0.000 F60.000
G2 X31.569 Y94.862 Z-4.100 I-1.720 J-2.819 K0.000 F60.000
G2 X32.563 Y92.800 Z-4.100 I-3.736 J-3.071 K0.000 F60.000
G2 X32.541 Y92.765 Z-4.100 I-0.013 J-0.016 K0.000 F60.000
G0 Z5.000
G0 Z5.000
G0 X32.541 Y92.765
G0 X27.700 Y96.083
G0 X27.700 Y96.083 Z3.000
G1 X27.700 Y96.083 Z-0.300 F30.000
G2 X27.632 Y96.081 Z-0.300 I-0.035 J0.024 K0.000 F60.000
G3 X26.925 Y95.952 Z-0.300 I0.057 J-2.327 K0.000 F60.000
G3 X25.024 Y94.589 Z-0.300 I2.457 J-5.433 K0.000 F60.000
G3 X24.374 Y90.977 Z-0.300 I4.347 J-2.648 K0.000 F60.000
G2 X24.362 Y90.919 Z-0.300 I-0.026 J-0.025 K0.000 F60.000
G2 X24.892 Y94.480 Z-0.300 I4.709 J1.119 K0.000 F60.000
G2 X26.599 Y95.829 Z-0.300 I3.729 J-2.964 K0.000 F60.000
G2 X27.707 Y96.105 Z-0.300 I0.913 J-1.309 K0.000 F60.000
G2 X27.700 Y96.083 Z-0.300 I-0.042 J0.002 K0.000 F60.000
G1 X27.700 Y96.083 Z-0.600 F30.000
G2 X27.632 Y96.081 Z-0.600 I-0.035 J0.024 K0.000 F60.000
G3 X26.925 Y95.952 Z-0.600 I0.057 J-2.327 K0.000 F60.000
G3 X25.024 Y94.589 Z-0.600 I2.457 J-5.433 K0.000 F60.000
G3 X24.374 Y90.977 Z-0.600 I4.347 J-2.648 K0.000 F60.000
G2 X24.362 Y90.919 Z-0.600 I-0.026 J-0.025 K0.000 F60.000
G2 X24.892 Y94.480 Z-0.600 I4.709 J1.119 K0.000 F60.000
G2 X26.599 Y95.829 Z-0.600 I3.729 J-2.964 K0.000 F60.000
G2 X27.707 Y96.105 Z-0.600 I0.913 J-1.309 K0.000 F60.000
G2 X27.700 Y96.083 Z-0.600 I-0.042 J0.002 K0.000 F60.000
G1 X27.700 Y96.083 Z-0.900 F30.000
G2 X27.632 Y96.081 Z-0.900 I-0.035 J0.024 K0.000 F60.000
G3 X26.925 Y95.952 Z-0.900 I0.057 J-2.327 K0.000 F60.000
G3 X25.024 Y94.589 Z-0.900 I2.457 J-5.433 K0.000 F60.000
G3 X24.374 Y90.977 Z-0.900 I4.347 J-2.648 K0.000 F60.000
G2 X24.362 Y90.919 Z-0.900 I-0.026 J-0.025 K0.000 F60.000
G2 X24.892 Y94.480 Z-0.900 I4.709 J1.119 K0.000 F60.000
G2 X26.599 Y95.829 Z-0.900 I3.729 J-2.964 K0.000 F60.000
G2 X27.707 Y96.105 Z-0.900 I0.913 J-1.309 K0.000 F60.000
G2 X27.700 Y96.083 Z-0.900 I-0.042 J0.002 K0.000 F60.000
G1 X27.700 Y96.083 Z-1.200 F30.000
G2 X27.632 Y96.081 Z-1.200 I-0.035 J0.024 K0.000 F60.000
G3 X26.925 Y95.952 Z-1.200 I0.057 J-2.327 K0.000 F60.000
G3 X25.024 Y94.589 Z-1.200 I2.457 J-5.433 K0.000 F60.000
G3 X24.374 Y90.977 Z-1.200 I4.347 J-2.648 K0.000 F60.000
G2 X24.362 Y90.919 Z-1.200 I-0.026 J-0.025 K0.000 F60.000
G2 X24.892 Y94.480 Z-1.200 I4.709 J1.119 K0.000 F60.000
G2 X26.599 Y95.829 Z-1.200 I3.729 J-2.964 K0.000 F60.000
G2 X27.707 Y96.105 Z-1.200 I0.913 J-1.309 K0.000 F60.000
G2 X27.700 Y96.083 Z-1.200 I-0.042 J0.002 K0.000 F60.000
G1 X27.700 Y96.083 Z-1.500 F30.000
G2 X27.632 Y96.081 Z-1.500 I-0.035 J0.024 K0.000 F60.000
G3 X26.925 Y95.952 Z-1.500 I0.057 J-2.327 K0.000 F60.000
G3 X25.024 Y94.589 Z-1.500 I2.457 J-5.433 K0.000 F60.000
G3 X24.374 Y90.977 Z-1.500 I4.347 J-2.648 K0.000 F60.000
G2 X24.362 Y90.919 Z-1.500 I-0.026 J-0.025 K0.000 F60.000
G2 X24.892 Y94.480 Z-1.500 I4.709 J1.119 K0.000 F60.000
G2 X26.599 Y95.829 Z-1.500 I3.729 J-2.964 K0.000 F60.000
G2 X27.707 Y96.105 Z-1.500 I0.913 J-1.309 K0.000 F60.000
G2 X27.700 Y96.083 Z-1.500 I-0.042 J0.002 K0.000 F60.000
G1 X27.700 Y96.083 Z-1.800 F30.000
G2 X27.632 Y96.081 Z-1.800 I-0.035 J0.024 K0.000 F60.000
G3 X26.925 Y95.952 Z-1.800 I0.057 J-2.327 K0.000 F60.000
G3 X25.024 Y94.589 Z-1.800 I2.457 J-5.433 K0.000 F60.000
G3 X24.374 Y90.977 Z-1.800 I4.347 J-2.648 K0.000 F60.000
G2 X24.362 Y90.919 Z-1.800 I-0.026 J-0.025 K0.000 F60.000
G2 X24.892 Y94.480 Z-1.800 I4.709 J1.119 K0.000 F60.000
G2 X26.599 Y95.829 Z-1.800 I3.729 J-2.964 K0.000 F60.000
G2 X27.707 Y96.105 Z-1.800 I0.913 J-1.309 K0.000 F60.000
G2 X27.700 Y96.083 Z-1.800 I-0.042 J0.002 K0.000 F60.000
G1 X27.700 Y96.083 Z-2.100 F30.000
G2 X27.632 Y96.081 Z-2.100 I-0.035 J0.024 K0.000 F60.000
G3 X26.925 Y95.952 Z-2.100 I0.057 J-2.327 K0.000 F60.000
G3 X25.024 Y94.589 Z-2.100 I2.457 J-5.433 K0.000 F60.000
G3 X24.374 Y90.977 Z-2.100 I4.347 J-2.648 K0.000 F60.000
G2 X24.362 Y90.919 Z-2.100 I-0.026 J-0.025 K0.000 F60.000
G2 X24.892 Y94.480 Z-2.100 I4.709 J1.119 K0.000 F60.000
G2 X26.599 Y95.829 Z-2.100 I3.729 J-2.964 K0.000 F60.000
G2 X27.707 Y96.105 Z-2.100 I0.913 J-1.309 K0.000 F60.000
G2 X27.700 Y96.083 Z-2.100 I-0.042 J0.002 K0.000 F60.000
G1 X27.700 Y96.083 Z-2.400 F30.000
G2 X27.632 Y96.081 Z-2.400 I-0.035 J0.024 K0.000 F60.000
G3 X26.925 Y95.952 Z-2.400 I0.057 J-2.327 K0.000 F60.000
G3 X25.024 Y94.589 Z-2.400 I2.457 J-5.433 K0.000 F60.000
G3 X24.374 Y90.977 Z-2.400 I4.347 J-2.648 K0.000 F60.000
G2 X24.362 Y90.919 Z-2.400 I-0.026 J-0.025 K0.000 F60.000
G2 X24.892 Y94.480 Z-2.400 I4.709 J1.119 K0.000 F60.000
G2 X26.599 Y95.829 Z-2.400 I3.729 J-2.964 K0.000 F60.000
G2 X27.707 Y96.105 Z-2.400 I0.913 J-1.309 K0.000 F60.000
G2 X27.700 Y96.083 Z-2.400 I-0.042 J0.002 K0.000 F60.000
G1 X27.700 Y96.083 Z-2.700 F30.000
G2 X27.632 Y96.081 Z-2.700 I-0.035 J0.024 K0.000 F60.000
G3 X26.925 Y95.952 Z-2.700 I0.057 J-2.327 K0.000 F60.000
G3 X25.024 Y94.589 Z-2.700 I2.457 J-5.433 K0.000 F60.000
G3 X24.374 Y90.977 Z-2.700 I4.347 J-2.648 K0.000 F60.000
G2 X24.362 Y90.919 Z-2.700 I-0.026 J-0.025 K0.000 F60.000
G2 X24.892 Y94.480 Z-2.700 I4.709 J1.119 K0.000 F60.000
G2 X26.599 Y95.829 Z-2.700 I3.729 J-2.964 K0.000 F60.000
G2 X27.707 Y96.105 Z-2.700 I0.913 J-1.309 K0.000 F60.000
G2 X27.700 Y96.083 Z-2.700 I-0.042 J0.002 K0.000 F60.000
G1 X27.700 Y96.083 Z-3.000 F30.000
G2 X27.632 Y96.081 Z-3.000 I-0.035 J0.024 K0.000 F60.000
G3 X26.925 Y95.952 Z-3.000 I0.057 J-2.327 K0.000 F60.000
G3 X25.024 Y94.589 Z-3.000 I2.457 J-5.433 K0.000 F60.000
G3 X24.374 Y90.977 Z-3.000 I4.347 J-2.648 K0.000 F60.000
G2 X24.362 Y90.919 Z-3.000 I-0.026 J-0.025 K0.000 F60.000
G2 X24.892 Y94.480 Z-3.000 I4.709 J1.119 K0.000 F60.000
G2 X26.599 Y95.829 Z-3.000 I3.729 J-2.964 K0.000 F60.000
G2 X27.707 Y96.105 Z-3.000 I0.913 J-1.309 K0.000 F60.000
G2 X27.700 Y96.083 Z-3.000 I-0.042 J0.002 K0.000 F60.000
G1 X27.700 Y96.083 Z-3.300 F30.000
G2 X27.632 Y96.081 Z-3.300 I-0.035 J0.024 K0.000 F60.000
G3 X26.925 Y95.952 Z-3.300 I0.057 J-2.327 K0.000 F60.000
G3 X25.024 Y94.589 Z-3.300 I2.457 J-5.433 K0.000 F60.000
G3 X24.374 Y90.977 Z-3.300 I4.347 J-2.648 K0.000 F60.000
G2 X24.362 Y90.919 Z-3.300 I-0.026 J-0.025 K0.000 F60.000
G2 X24.892 Y94.480 Z-3.300 I4.709 J1.119 K0.000 F60.000
G2 X26.599 Y95.829 Z-3.300 I3.729 J-2.964 K0.000 F60.000
G2 X27.707 Y96.105 Z-3.300 I0.913 J-1.309 K0.000 F60.000
G2 X27.700 Y96.083 Z-3.300 I-0.042 J0.002 K0.000 F60.000
G1 X27.700 Y96.083 Z-3.600 F30.000
G2 X27.632 Y96.081 Z-3.600 I-0.035 J0.024 K0.000 F60.000
G3 X26.925 Y95.952 Z-3.600 I0.057 J-2.327 K0.000 F60.000
G3 X25.024 Y94.589 Z-3.600 I2.457 J-5.433 K0.000 F60.000
G3 X24.374 Y90.977 Z-3.600 I4.347 J-2.648 K0.000 F60.000
G2 X24.362 Y90.919 Z-3.600 I-0.026 J-0.025 K0.000 F60.000
G2 X24.892 Y94.480 Z-3.600 I4.709 J1.119 K0.000 F60.000
G2 X26.599 Y95.829 Z-3.600 I3.729 J-2.964 K0.000 F60.000
G2 X27.707 Y96.105 Z-3.600 I0.913 J-1.309 K0.000 F60.000
G2 X27.700 Y96.083 Z-3.600 I-0.042 J0.002 K0.000 F60.000
G1 X27.700 Y96.083 Z-3.900 F30.000
G2 X27.632 Y96.081 Z-3.900 I-0.035 J0.024 K0.000 F60.000
G3 X26.925 Y95.952 Z-3.900 I0.057 J-2.327 K0.000 F60.000
G3 X25.024 Y94.589 Z-3.900 I2.457 J-5.433 K0.000 F60.000
G3 X24.374 Y90.977 Z-3.900 I4.347 J-2.648 K0.000 F60.000
G2 X24.362 Y90.919 Z-3.900 I-0.026 J-0.025 K0.000 F60.000
G2 X24.892 Y94.480 Z-3.900 I4.709 J1.119 K0.000 F60.000
G2 X26.599 Y95.829 Z-3.900 I3.729 J-2.964 K0.000 F60.000
G2 X27.707 Y96.105 Z-3.900 I0.913 J-1.309 K0.000 F60.000
G2 X27.700 Y96.083 Z-3.900 I-0.042 J0.002 K0.000 F60.000
G1 X27.700 Y96.083 Z-4.100 F30.000
G2 X27.632 Y96.081 Z-4.100 I-0.035 J0.024 K0.000 F60.000
G3 X26.925 Y95.952 Z-4.100 I0.057 J-2.327 K0.000 F60.000
G3 X25.024 Y94.589 Z-4.100 I2.457 J-5.433 K0.000 F60.000
G3 X24.374 Y90.977 Z-4.100 I4.347 J-2.648 K0.000 F60.000
G2 X24.362 Y90.919 Z-4.100 I-0.026 J-0.025 K0.000 F60.000
G2 X24.892 Y94.480 Z-4.100 I4.709 J1.119 K0.000 F60.000
G2 X26.599 Y95.829 Z-4.100 I3.729 J-2.964 K0.000 F60.000
G2 X27.707 Y96.105 Z-4.100 I0.913 J-1.309 K0.000 F60.000
G2 X27.700 Y96.083 Z-4.100 I-0.042 J0.002 K0.000 F60.000
G0 Z5.000
G0 Z5.000
(Finish operation: Gesicht)
(Begin operation: Brust)
(Path: Brust)
(Brust)
(Compensated Tool Path. Diameter: 0.8)
G0 Z5.000
G0 X35.643 Y71.087
G0 Z3.000
G1 X35.643 Y71.087 Z-0.300 F30.000
G2 X35.676 Y71.079 Z-0.300 I-0.003 J-0.084 K0.000 F60.000
G2 X35.644 Y71.046 Z-0.300 I-0.018 J-0.015 K0.000 F60.000
G2 X31.652 Y71.137 Z-0.300 I-1.724 J11.988 K0.000 F60.000
G2 X29.998 Y72.012 Z-0.300 I0.429 J2.813 K0.000 F60.000
G2 X30.005 Y72.012 Z-0.300 I0.003 J-0.009 K0.000 F60.000
G3 X31.254 Y71.281 Z-0.300 I2.447 J2.749 K0.000 F60.000
G3 X35.611 Y71.082 Z-0.300 I2.698 J11.297 K0.000 F60.000
G2 X35.643 Y71.087 Z-0.300 I0.029 J-0.079 K0.000 F60.000
G1 X35.643 Y71.087 Z-0.600 F30.000
G2 X35.676 Y71.079 Z-0.600 I-0.003 J-0.084 K0.000 F60.000
G2 X35.644 Y71.046 Z-0.600 I-0.018 J-0.015 K0.000 F60.000
G2 X31.652 Y71.137 Z-0.600 I-1.724 J11.988 K0.000 F60.000
G2 X29.998 Y72.012 Z-0.600 I0.429 J2.813 K0.000 F60.000
G2 X30.005 Y72.012 Z-0.600 I0.003 J-0.009 K0.000 F60.000
G3 X31.254 Y71.281 Z-0.600 I2.447 J2.749 K0.000 F60.000
G3 X35.611 Y71.082 Z-0.600 I2.698 J11.297 K0.000 F60.000
G2 X35.643 Y71.087 Z-0.600 I0.029 J-0.079 K0.000 F60.000
G1 X35.643 Y71.087 Z-0.900 F30.000
G2 X35.676 Y71.079 Z-0.900 I-0.003 J-0.084 K0.000 F60.000
G2 X35.644 Y71.046 Z-0.900 I-0.018 J-0.015 K0.000 F60.000
G2 X31.652 Y71.137 Z-0.900 I-1.724 J11.988 K0.000 F60.000
G2 X29.998 Y72.012 Z-0.900 I0.429 J2.813 K0.000 F60.000
G2 X30.005 Y72.012 Z-0.900 I0.003 J-0.009 K0.000 F60.000
G3 X31.254 Y71.281 Z-0.900 I2.447 J2.749 K0.000 F60.000
G3 X35.611 Y71.082 Z-0.900 I2.698 J11.297 K0.000 F60.000
G2 X35.643 Y71.087 Z-0.900 I0.029 J-0.079 K0.000 F60.000
G1 X35.643 Y71.087 Z-1.200 F30.000
G2 X35.676 Y71.079 Z-1.200 I-0.003 J-0.084 K0.000 F60.000
G2 X35.644 Y71.046 Z-1.200 I-0.018 J-0.015 K0.000 F60.000
G2 X31.652 Y71.137 Z-1.200 I-1.724 J11.988 K0.000 F60.000
G2 X29.998 Y72.012 Z-1.200 I0.429 J2.813 K0.000 F60.000
G2 X30.005 Y72.012 Z-1.200 I0.003 J-0.009 K0.000 F60.000
G3 X31.254 Y71.281 Z-1.200 I2.447 J2.749 K0.000 F60.000
G3 X35.611 Y71.082 Z-1.200 I2.698 J11.297 K0.000 F60.000
G2 X35.643 Y71.087 Z-1.200 I0.029 J-0.079 K0.000 F60.000
G1 X35.643 Y71.087 Z-1.500 F30.000
G2 X35.676 Y71.079 Z-1.500 I-0.003 J-0.084 K0.000 F60.000
G2 X35.644 Y71.046 Z-1.500 I-0.018 J-0.015 K0.000 F60.000
G2 X31.652 Y71.137 Z-1.500 I-1.724 J11.988 K0.000 F60.000
G2 X29.998 Y72.012 Z-1.500 I0.429 J2.813 K0.000 F60.000
G2 X30.005 Y72.012 Z-1.500 I0.003 J-0.009 K0.000 F60.000
G3 X31.254 Y71.281 Z-1.500 I2.447 J2.749 K0.000 F60.000
G3 X35.611 Y71.082 Z-1.500 I2.698 J11.297 K0.000 F60.000
G2 X35.643 Y71.087 Z-1.500 I0.029 J-0.079 K0.000 F60.000
G1 X35.643 Y71.087 Z-1.800 F30.000
G2 X35.676 Y71.079 Z-1.800 I-0.003 J-0.084 K0.000 F60.000
G2 X35.644 Y71.046 Z-1.800 I-0.018 J-0.015 K0.000 F60.000
G2 X31.652 Y71.137 Z-1.800 I-1.724 J11.988 K0.000 F60.000
G2 X29.998 Y72.012 Z-1.800 I0.429 J2.813 K0.000 F60.000
G2 X30.005 Y72.012 Z-1.800 I0.003 J-0.009 K0.000 F60.000
G3 X31.254 Y71.281 Z-1.800 I2.447 J2.749 K0.000 F60.000
G3 X35.611 Y71.082 Z-1.800 I2.698 J11.297 K0.000 F60.000
G2 X35.643 Y71.087 Z-1.800 I0.029 J-0.079 K0.000 F60.000
G1 X35.643 Y71.087 Z-2.100 F30.000
G2 X35.676 Y71.079 Z-2.100 I-0.003 J-0.084 K0.000 F60.000
G2 X35.644 Y71.046 Z-2.100 I-0.018 J-0.015 K0.000 F60.000
G2 X31.652 Y71.137 Z-2.100 I-1.724 J11.988 K0.000 F60.000
G2 X29.998 Y72.012 Z-2.100 I0.429 J2.813 K0.000 F60.000
G2 X30.005 Y72.012 Z-2.100 I0.003 J-0.009 K0.000 F60.000
G3 X31.254 Y71.281 Z-2.100 I2.447 J2.749 K0.000 F60.000
G3 X35.611 Y71.082 Z-2.100 I2.698 J11.297 K0.000 F60.000
G2 X35.643 Y71.087 Z-2.100 I0.029 J-0.079 K0.000 F60.000
G1 X35.643 Y71.087 Z-2.400 F30.000
G2 X35.676 Y71.079 Z-2.400 I-0.003 J-0.084 K0.000 F60.000
G2 X35.644 Y71.046 Z-2.400 I-0.018 J-0.015 K0.000 F60.000
G2 X31.652 Y71.137 Z-2.400 I-1.724 J11.988 K0.000 F60.000
G2 X29.998 Y72.012 Z-2.400 I0.429 J2.813 K0.000 F60.000
G2 X30.005 Y72.012 Z-2.400 I0.003 J-0.009 K0.000 F60.000
G3 X31.254 Y71.281 Z-2.400 I2.447 J2.749 K0.000 F60.000
G3 X35.611 Y71.082 Z-2.400 I2.698 J11.297 K0.000 F60.000
G2 X35.643 Y71.087 Z-2.400 I0.029 J-0.079 K0.000 F60.000
G1 X35.643 Y71.087 Z-2.700 F30.000
G2 X35.676 Y71.079 Z-2.700 I-0.003 J-0.084 K0.000 F60.000
G2 X35.644 Y71.046 Z-2.700 I-0.018 J-0.015 K0.000 F60.000
G2 X31.652 Y71.137 Z-2.700 I-1.724 J11.988 K0.000 F60.000
G2 X29.998 Y72.012 Z-2.700 I0.429 J2.813 K0.000 F60.000
G2 X30.005 Y72.012 Z-2.700 I0.003 J-0.009 K0.000 F60.000
G3 X31.254 Y71.281 Z-2.700 I2.447 J2.749 K0.000 F60.000
G3 X35.611 Y71.082 Z-2.700 I2.698 J11.297 K0.000 F60.000
G2 X35.643 Y71.087 Z-2.700 I0.029 J-0.079 K0.000 F60.000
G1 X35.643 Y71.087 Z-3.000 F30.000
G2 X35.676 Y71.079 Z-3.000 I-0.003 J-0.084 K0.000 F60.000
G2 X35.644 Y71.046 Z-3.000 I-0.018 J-0.015 K0.000 F60.000
G2 X31.652 Y71.137 Z-3.000 I-1.724 J11.988 K0.000 F60.000
G2 X29.998 Y72.012 Z-3.000 I0.429 J2.813 K0.000 F60.000
G2 X30.005 Y72.012 Z-3.000 I0.003 J-0.009 K0.000 F60.000
G3 X31.254 Y71.281 Z-3.000 I2.447 J2.749 K0.000 F60.000
G3 X35.611 Y71.082 Z-3.000 I2.698 J11.297 K0.000 F60.000
G2 X35.643 Y71.087 Z-3.000 I0.029 J-0.079 K0.000 F60.000
G1 X35.643 Y71.087 Z-3.300 F30.000
G2 X35.676 Y71.079 Z-3.300 I-0.003 J-0.084 K0.000 F60.000
G2 X35.644 Y71.046 Z-3.300 I-0.018 J-0.015 K0.000 F60.000
G2 X31.652 Y71.137 Z-3.300 I-1.724 J11.988 K0.000 F60.000
G2 X29.998 Y72.012 Z-3.300 I0.429 J2.813 K0.000 F60.000
G2 X30.005 Y72.012 Z-3.300 I0.003 J-0.009 K0.000 F60.000
G3 X31.254 Y71.281 Z-3.300 I2.447 J2.749 K0.000 F60.000
G3 X35.611 Y71.082 Z-3.300 I2.698 J11.297 K0.000 F60.000
G2 X35.643 Y71.087 Z-3.300 I0.029 J-0.079 K0.000 F60.000
G1 X35.643 Y71.087 Z-3.600 F30.000
G2 X35.676 Y71.079 Z-3.600 I-0.003 J-0.084 K0.000 F60.000
G2 X35.644 Y71.046 Z-3.600 I-0.018 J-0.015 K0.000 F60.000
G2 X31.652 Y71.137 Z-3.600 I-1.724 J11.988 K0.000 F60.000
G2 X29.998 Y72.012 Z-3.600 I0.429 J2.813 K0.000 F60.000
G2 X30.005 Y72.012 Z-3.600 I0.003 J-0.009 K0.000 F60.000
G3 X31.254 Y71.281 Z-3.600 I2.447 J2.749 K0.000 F60.000
G3 X35.611 Y71.082 Z-3.600 I2.698 J11.297 K0.000 F60.000
G2 X35.643 Y71.087 Z-3.600 I0.029 J-0.079 K0.000 F60.000
G1 X35.643 Y71.087 Z-3.900 F30.000
G2 X35.676 Y71.079 Z-3.900 I-0.003 J-0.084 K0.000 F60.000
G2 X35.644 Y71.046 Z-3.900 I-0.018 J-0.015 K0.000 F60.000
G2 X31.652 Y71.137 Z-3.900 I-1.724 J11.988 K0.000 F60.000
G2 X29.998 Y72.012 Z-3.900 I0.429 J2.813 K0.000 F60.000
G2 X30.005 Y72.012 Z-3.900 I0.003 J-0.009 K0.000 F60.000
G3 X31.254 Y71.281 Z-3.900 I2.447 J2.749 K0.000 F60.000
G3 X35.611 Y71.082 Z-3.900 I2.698 J11.297 K0.000 F60.000
G2 X35.643 Y71.087 Z-3.900 I0.029 J-0.079 K0.000 F60.000
G1 X35.643 Y71.087 Z-4.100 F30.000
G2 X35.676 Y71.079 Z-4.100 I-0.003 J-0.084 K0.000 F60.000
G2 X35.644 Y71.046 Z-4.100 I-0.018 J-0.015 K0.000 F60.000
G2 X31.652 Y71.137 Z-4.100 I-1.724 J11.988 K0.000 F60.000
G2 X29.998 Y72.012 Z-4.100 I0.429 J2.813 K0.000 F60.000
G2 X30.005 Y72.012 Z-4.100 I0.003 J-0.009 K0.000 F60.000
G3 X31.254 Y71.281 Z-4.100 I2.447 J2.749 K0.000 F60.000
G3 X35.611 Y71.082 Z-4.100 I2.698 J11.297 K0.000 F60.000
G2 X35.643 Y71.087 Z-4.100 I0.029 J-0.079 K0.000 F60.000
G0 Z5.000
G0 Z5.000
G0 X35.643 Y71.087
G0 X36.810 Y72.822
G0 X36.810 Y72.822 Z3.000
G1 X36.810 Y72.822 Z-0.300 F30.000
G2 X37.193 Y76.044 Z-0.300 I9.490 J0.507 K0.000 F60.000
G3 X37.442 Y77.613 Z-0.300 I-4.199 J1.473 K0.000 F60.000
G3 X37.349 Y78.338 Z-0.300 I-1.986 J0.111 K0.000 F60.000
G2 X37.372 Y78.364 Z-0.300 I0.023 J0.003 K0.000 F60.000
G2 X37.502 Y77.769 Z-0.300 I-1.434 J-0.625 K0.000 F60.000
G2 X37.261 Y76.071 Z-0.300 I-7.003 J0.129 K0.000 F60.000
G3 X36.838 Y72.880 Z-0.300 I8.907 J-2.805 K0.000 F60.000
G2 X36.828 Y72.823 Z-0.300 I-0.074 J-0.016 K0.000 F60.000
G2 X36.810 Y72.822 Z-0.300 I-0.009 J0.008 K0.000 F60.000
G1 X36.810 Y72.822 Z-0.600 F30.000
G2 X37.193 Y76.044 Z-0.600 I9.490 J0.507 K0.000 F60.000
G3 X37.442 Y77.613 Z-0.600 I-4.199 J1.473 K0.000 F60.000
G3 X37.349 Y78.338 Z-0.600 I-1.986 J0.111 K0.000 F60.000
G2 X37.372 Y78.364 Z-0.600 I0.023 J0.003 K0.000 F60.000
G2 X37.502 Y77.769 Z-0.600 I-1.434 J-0.625 K0.000 F60.000
G2 X37.261 Y76.071 Z-0.600 I-7.003 J0.129 K0.000 F60.000
G3 X36.838 Y72.880 Z-0.600 I8.907 J-2.805 K0.000 F60.000
G2 X36.828 Y72.823 Z-0.600 I-0.074 J-0.016 K0.000 F60.000
G2 X36.810 Y72.822 Z-0.600 I-0.009 J0.008 K0.000 F60.000
G1 X36.810 Y72.822 Z-0.900 F30.000
G2 X37.193 Y76.044 Z-0.900 I9.490 J0.507 K0.000 F60.000
G3 X37.442 Y77.613 Z-0.900 I-4.199 J1.473 K0.000 F60.000
G3 X37.349 Y78.338 Z-0.900 I-1.986 J0.111 K0.000 F60.000
G2 X37.372 Y78.364 Z-0.900 I0.023 J0.003 K0.000 F60.000
G2 X37.502 Y77.769 Z-0.900 I-1.434 J-0.625 K0.000 F60.000
G2 X37.261 Y76.071 Z-0.900 I-7.003 J0.129 K0.000 F60.000
G3 X36.838 Y72.880 Z-0.900 I8.907 J-2.805 K0.000 F60.000
G2 X36.828 Y72.823 Z-0.900 I-0.074 J-0.016 K0.000 F60.000
G2 X36.810 Y72.822 Z-0.900 I-0.009 J0.008 K0.000 F60.000
G1 X36.810 Y72.822 Z-1.200 F30.000
G2 X37.193 Y76.044 Z-1.200 I9.490 J0.507 K0.000 F60.000
G3 X37.442 Y77.613 Z-1.200 I-4.199 J1.473 K0.000 F60.000
G3 X37.349 Y78.338 Z-1.200 I-1.986 J0.111 K0.000 F60.000
G2 X37.372 Y78.364 Z-1.200 I0.023 J0.003 K0.000 F60.000
G2 X37.502 Y77.769 Z-1.200 I-1.434 J-0.625 K0.000 F60.000
G2 X37.261 Y76.071 Z-1.200 I-7.003 J0.129 K0.000 F60.000
G3 X36.838 Y72.880 Z-1.200 I8.907 J-2.805 K0.000 F60.000
G2 X36.828 Y72.823 Z-1.200 I-0.074 J-0.016 K0.000 F60.000
G2 X36.810 Y72.822 Z-1.200 I-0.009 J0.008 K0.000 F60.000
G1 X36.810 Y72.822 Z-1.500 F30.000
G2 X37.193 Y76.044 Z-1.500 I9.490 J0.507 K0.000 F60.000
G3 X37.442 Y77.613 Z-1.500 I-4.199 J1.473 K0.000 F60.000
G3 X37.349 Y78.338 Z-1.500 I-1.986 J0.111 K0.000 F60.000
G2 X37.372 Y78.364 Z-1.500 I0.023 J0.003 K0.000 F60.000
G2 X37.502 Y77.769 Z-1.500 I-1.434 J-0.625 K0.000 F60.000
G2 X37.261 Y76.071 Z-1.500 I-7.003 J0.129 K0.000 F60.000
G3 X36.838 Y72.880 Z-1.500 I8.907 J-2.805 K0.000 F60.000
G2 X36.828 Y72.823 Z-1.500 I-0.074 J-0.016 K0.000 F60.000
G2 X36.810 Y72.822 Z-1.500 I-0.009 J0.008 K0.000 F60.000
G1 X36.810 Y72.822 Z-1.800 F30.000
G2 X37.193 Y76.044 Z-1.800 I9.490 J0.507 K0.000 F60.000
G3 X37.442 Y77.613 Z-1.800 I-4.199 J1.473 K0.000 F60.000
G3 X37.349 Y78.338 Z-1.800 I-1.986 J0.111 K0.000 F60.000
G2 X37.372 Y78.364 Z-1.800 I0.023 J0.003 K0.000 F60.000
G2 X37.502 Y77.769 Z-1.800 I-1.434 J-0.625 K0.000 F60.000
G2 X37.261 Y76.071 Z-1.800 I-7.003 J0.129 K0.000 F60.000
G3 X36.838 Y72.880 Z-1.800 I8.907 J-2.805 K0.000 F60.000
G2 X36.828 Y72.823 Z-1.800 I-0.074 J-0.016 K0.000 F60.000
G2 X36.810 Y72.822 Z-1.800 I-0.009 J0.008 K0.000 F60.000
G1 X36.810 Y72.822 Z-2.100 F30.000
G2 X37.193 Y76.044 Z-2.100 I9.490 J0.507 K0.000 F60.000
G3 X37.442 Y77.613 Z-2.100 I-4.199 J1.473 K0.000 F60.000
G3 X37.349 Y78.338 Z-2.100 I-1.986 J0.111 K0.000 F60.000
G2 X37.372 Y78.364 Z-2.100 I0.023 J0.003 K0.000 F60.000
G2 X37.502 Y77.769 Z-2.100 I-1.434 J-0.625 K0.000 F60.000
G2 X37.261 Y76.071 Z-2.100 I-7.003 J0.129 K0.000 F60.000
G3 X36.838 Y72.880 Z-2.100 I8.907 J-2.805 K0.000 F60.000
G2 X36.828 Y72.823 Z-2.100 I-0.074 J-0.016 K0.000 F60.000
G2 X36.810 Y72.822 Z-2.100 I-0.009 J0.008 K0.000 F60.000
G1 X36.810 Y72.822 Z-2.400 F30.000
G2 X37.193 Y76.044 Z-2.400 I9.490 J0.507 K0.000 F60.000
G3 X37.442 Y77.613 Z-2.400 I-4.199 J1.473 K0.000 F60.000
G3 X37.349 Y78.338 Z-2.400 I-1.986 J0.111 K0.000 F60.000
G2 X37.372 Y78.364 Z-2.400 I0.023 J0.003 K0.000 F60.000
G2 X37.502 Y77.769 Z-2.400 I-1.434 J-0.625 K0.000 F60.000
G2 X37.261 Y76.071 Z-2.400 I-7.003 J0.129 K0.000 F60.000
G3 X36.838 Y72.880 Z-2.400 I8.907 J-2.805 K0.000 F60.000
G2 X36.828 Y72.823 Z-2.400 I-0.074 J-0.016 K0.000 F60.000
G2 X36.810 Y72.822 Z-2.400 I-0.009 J0.008 K0.000 F60.000
G1 X36.810 Y72.822 Z-2.700 F30.000
G2 X37.193 Y76.044 Z-2.700 I9.490 J0.507 K0.000 F60.000
G3 X37.442 Y77.613 Z-2.700 I-4.199 J1.473 K0.000 F60.000
G3 X37.349 Y78.338 Z-2.700 I-1.986 J0.111 K0.000 F60.000
G2 X37.372 Y78.364 Z-2.700 I0.023 J0.003 K0.000 F60.000
G2 X37.502 Y77.769 Z-2.700 I-1.434 J-0.625 K0.000 F60.000
G2 X37.261 Y76.071 Z-2.700 I-7.003 J0.129 K0.000 F60.000
G3 X36.838 Y72.880 Z-2.700 I8.907 J-2.805 K0.000 F60.000
G2 X36.828 Y72.823 Z-2.700 I-0.074 J-0.016 K0.000 F60.000
G2 X36.810 Y72.822 Z-2.700 I-0.009 J0.008 K0.000 F60.000
G1 X36.810 Y72.822 Z-3.000 F30.000
G2 X37.193 Y76.044 Z-3.000 I9.490 J0.507 K0.000 F60.000
G3 X37.442 Y77.613 Z-3.000 I-4.199 J1.473 K0.000 F60.000
G3 X37.349 Y78.338 Z-3.000 I-1.986 J0.111 K0.000 F60.000
G2 X37.372 Y78.364 Z-3.000 I0.023 J0.003 K0.000 F60.000
G2 X37.502 Y77.769 Z-3.000 I-1.434 J-0.625 K0.000 F60.000
G2 X37.261 Y76.071 Z-3.000 I-7.003 J0.129 K0.000 F60.000
G3 X36.838 Y72.880 Z-3.000 I8.907 J-2.805 K0.000 F60.000
G2 X36.828 Y72.823 Z-3.000 I-0.074 J-0.016 K0.000 F60.000
G2 X36.810 Y72.822 Z-3.000 I-0.009 J0.008 K0.000 F60.000
G1 X36.810 Y72.822 Z-3.300 F30.000
G2 X37.193 Y76.044 Z-3.300 I9.490 J0.507 K0.000 F60.000
G3 X37.442 Y77.613 Z-3.300 I-4.199 J1.473 K0.000 F60.000
G3 X37.349 Y78.338 Z-3.300 I-1.986 J0.111 K0.000 F60.000
G2 X37.372 Y78.364 Z-3.300 I0.023 J0.003 K0.000 F60.000
G2 X37.502 Y77.769 Z-3.300 I-1.434 J-0.625 K0.000 F60.000
G2 X37.261 Y76.071 Z-3.300 I-7.003 J0.129 K0.000 F60.000
G3 X36.838 Y72.880 Z-3.300 I8.907 J-2.805 K0.000 F60.000
G2 X36.828 Y72.823 Z-3.300 I-0.074 J-0.016 K0.000 F60.000
G2 X36.810 Y72.822 Z-3.300 I-0.009 J0.008 K0.000 F60.000
G1 X36.810 Y72.822 Z-3.600 F30.000
G2 X37.193 Y76.044 Z-3.600 I9.490 J0.507 K0.000 F60.000
G3 X37.442 Y77.613 Z-3.600 I-4.199 J1.473 K0.000 F60.000
G3 X37.349 Y78.338 Z-3.600 I-1.986 J0.111 K0.000 F60.000
G2 X37.372 Y78.364 Z-3.600 I0.023 J0.003 K0.000 F60.000
G2 X37.502 Y77.769 Z-3.600 I-1.434 J-0.625 K0.000 F60.000
G2 X37.261 Y76.071 Z-3.600 I-7.003 J0.129 K0.000 F60.000
G3 X36.838 Y72.880 Z-3.600 I8.907 J-2.805 K0.000 F60.000
G2 X36.828 Y72.823 Z-3.600 I-0.074 J-0.016 K0.000 F60.000
G2 X36.810 Y72.822 Z-3.600 I-0.009 J0.008 K0.000 F60.000
G1 X36.810 Y72.822 Z-3.900 F30.000
G2 X37.193 Y76.044 Z-3.900 I9.490 J0.507 K0.000 F60.000
G3 X37.442 Y77.613 Z-3.900 I-4.199 J1.473 K0.000 F60.000
G3 X37.349 Y78.338 Z-3.900 I-1.986 J0.111 K0.000 F60.000
G2 X37.372 Y78.364 Z-3.900 I0.023 J0.003 K0.000 F60.000
G2 X37.502 Y77.769 Z-3.900 I-1.434 J-0.625 K0.000 F60.000
G2 X37.261 Y76.071 Z-3.900 I-7.003 J0.129 K0.000 F60.000
G3 X36.838 Y72.880 Z-3.900 I8.907 J-2.805 K0.000 F60.000
G2 X36.828 Y72.823 Z-3.900 I-0.074 J-0.016 K0.000 F60.000
G2 X36.810 Y72.822 Z-3.900 I-0.009 J0.008 K0.000 F60.000
G1 X36.810 Y72.822 Z-4.100 F30.000
G2 X37.193 Y76.044 Z-4.100 I9.490 J0.507 K0.000 F60.000
G3 X37.442 Y77.613 Z-4.100 I-4.199 J1.473 K0.000 F60.000
G3 X37.349 Y78.338 Z-4.100 I-1.986 J0.111 K0.000 F60.000
G2 X37.372 Y78.364 Z-4.100 I0.023 J0.003 K0.000 F60.000
G2 X37.502 Y77.769 Z-4.100 I-1.434 J-0.625 K0.000 F60.000
G2 X37.261 Y76.071 Z-4.100 I-7.003 J0.129 K0.000 F60.000
G3 X36.838 Y72.880 Z-4.100 I8.907 J-2.805 K0.000 F60.000
G2 X36.828 Y72.823 Z-4.100 I-0.074 J-0.016 K0.000 F60.000
G2 X36.810 Y72.822 Z-4.100 I-0.009 J0.008 K0.000 F60.000
G0 Z5.000
G0 Z5.000
G0 X36.810 Y72.822
G0 X34.739 Y81.260
G0 X34.739 Y81.260 Z3.000
G1 X34.739 Y81.260 Z-0.300 F30.000
G2 X34.710 Y81.266 Z-0.300 I-0.008 J0.032 K0.000 F60.000
G2 X35.802 Y82.182 Z-0.300 I1.553 J-0.745 K0.000 F60.000
G1 X35.801 Y82.177 Z-0.300 F60.000
G3 X34.763 Y81.301 Z-0.300 I0.964 J-2.195 K0.000 F60.000
G2 X34.739 Y81.260 Z-0.300 I-0.032 J-0.008 K0.000 F60.000
G1 X34.739 Y81.260 Z-0.600 F30.000
G2 X34.710 Y81.266 Z-0.600 I-0.008 J0.032 K0.000 F60.000
G2 X35.802 Y82.182 Z-0.600 I1.553 J-0.745 K0.000 F60.000
G1 X35.801 Y82.177 Z-0.600 F60.000
G3 X34.763 Y81.301 Z-0.600 I0.964 J-2.195 K0.000 F60.000
G2 X34.739 Y81.260 Z-0.600 I-0.032 J-0.008 K0.000 F60.000
G1 X34.739 Y81.260 Z-0.900 F30.000
G2 X34.710 Y81.266 Z-0.900 I-0.008 J0.032 K0.000 F60.000
G2 X35.802 Y82.182 Z-0.900 I1.553 J-0.745 K0.000 F60.000
G1 X35.801 Y82.177 Z-0.900 F60.000
G3 X34.763 Y81.301 Z-0.900 I0.964 J-2.195 K0.000 F60.000
G2 X34.739 Y81.260 Z-0.900 I-0.032 J-0.008 K0.000 F60.000
G1 X34.739 Y81.260 Z-1.200 F30.000
G2 X34.710 Y81.266 Z-1.200 I-0.008 J0.032 K0.000 F60.000
G2 X35.802 Y82.182 Z-1.200 I1.553 J-0.745 K0.000 F60.000
G1 X35.801 Y82.177 Z-1.200 F60.000
G3 X34.763 Y81.301 Z-1.200 I0.964 J-2.195 K0.000 F60.000
G2 X34.739 Y81.260 Z-1.200 I-0.032 J-0.008 K0.000 F60.000
G1 X34.739 Y81.260 Z-1.500 F30.000
G2 X34.710 Y81.266 Z-1.500 I-0.008 J0.032 K0.000 F60.000
G2 X35.802 Y82.182 Z-1.500 I1.553 J-0.745 K0.000 F60.000
G1 X35.801 Y82.177 Z-1.500 F60.000
G3 X34.763 Y81.301 Z-1.500 I0.964 J-2.195 K0.000 F60.000
G2 X34.739 Y81.260 Z-1.500 I-0.032 J-0.008 K0.000 F60.000
G1 X34.739 Y81.260 Z-1.800 F30.000
G2 X34.710 Y81.266 Z-1.800 I-0.008 J0.032 K0.000 F60.000
G2 X35.802 Y82.182 Z-1.800 I1.553 J-0.745 K0.000 F60.000
G1 X35.801 Y82.177 Z-1.800 F60.000
G3 X34.763 Y81.301 Z-1.800 I0.964 J-2.195 K0.000 F60.000
G2 X34.739 Y81.260 Z-1.800 I-0.032 J-0.008 K0.000 F60.000
G1 X34.739 Y81.260 Z-2.100 F30.000
G2 X34.710 Y81.266 Z-2.100 I-0.008 J0.032 K0.000 F60.000
G2 X35.802 Y82.182 Z-2.100 I1.553 J-0.745 K0.000 F60.000
G1 X35.801 Y82.177 Z-2.100 F60.000
G3 X34.763 Y81.301 Z-2.100 I0.964 J-2.195 K0.000 F60.000
G2 X34.739 Y81.260 Z-2.100 I-0.032 J-0.008 K0.000 F60.000
G1 X34.739 Y81.260 Z-2.400 F30.000
G2 X34.710 Y81.266 Z-2.400 I-0.008 J0.032 K0.000 F60.000
G2 X35.802 Y82.182 Z-2.400 I1.553 J-0.745 K0.000 F60.000
G1 X35.801 Y82.177 Z-2.400 F60.000
G3 X34.763 Y81.301 Z-2.400 I0.964 J-2.195 K0.000 F60.000
G2 X34.739 Y81.260 Z-2.400 I-0.032 J-0.008 K0.000 F60.000
G1 X34.739 Y81.260 Z-2.700 F30.000
G2 X34.710 Y81.266 Z-2.700 I-0.008 J0.032 K0.000 F60.000
G2 X35.802 Y82.182 Z-2.700 I1.553 J-0.745 K0.000 F60.000
G1 X35.801 Y82.177 Z-2.700 F60.000
G3 X34.763 Y81.301 Z-2.700 I0.964 J-2.195 K0.000 F60.000
G2 X34.739 Y81.260 Z-2.700 I-0.032 J-0.008 K0.000 F60.000
G1 X34.739 Y81.260 Z-3.000 F30.000
G2 X34.710 Y81.266 Z-3.000 I-0.008 J0.032 K0.000 F60.000
G2 X35.802 Y82.182 Z-3.000 I1.553 J-0.745 K0.000 F60.000
G1 X35.801 Y82.177 Z-3.000 F60.000
G3 X34.763 Y81.301 Z-3.000 I0.964 J-2.195 K0.000 F60.000
G2 X34.739 Y81.260 Z-3.000 I-0.032 J-0.008 K0.000 F60.000
G1 X34.739 Y81.260 Z-3.300 F30.000
G2 X34.710 Y81.266 Z-3.300 I-0.008 J0.032 K0.000 F60.000
G2 X35.802 Y82.182 Z-3.300 I1.553 J-0.745 K0.000 F60.000
G1 X35.801 Y82.177 Z-3.300 F60.000
G3 X34.763 Y81.301 Z-3.300 I0.964 J-2.195 K0.000 F60.000
G2 X34.739 Y81.260 Z-3.300 I-0.032 J-0.008 K0.000 F60.000
G1 X34.739 Y81.260 Z-3.600 F30.000
G2 X34.710 Y81.266 Z-3.600 I-0.008 J0.032 K0.000 F60.000
G2 X35.802 Y82.182 Z-3.600 I1.553 J-0.745 K0.000 F60.000
G1 X35.801 Y82.177 Z-3.600 F60.000
G3 X34.763 Y81.301 Z-3.600 I0.964 J-2.195 K0.000 F60.000
G2 X34.739 Y81.260 Z-3.600 I-0.032 J-0.008 K0.000 F60.000
G1 X34.739 Y81.260 Z-3.900 F30.000
G2 X34.710 Y81.266 Z-3.900 I-0.008 J0.032 K0.000 F60.000
G2 X35.802 Y82.182 Z-3.900 I1.553 J-0.745 K0.000 F60.000
G1 X35.801 Y82.177 Z-3.900 F60.000
G3 X34.763 Y81.301 Z-3.900 I0.964 J-2.195 K0.000 F60.000
G2 X34.739 Y81.260 Z-3.900 I-0.032 J-0.008 K0.000 F60.000
G1 X34.739 Y81.260 Z-4.100 F30.000
G2 X34.710 Y81.266 Z-4.100 I-0.008 J0.032 K0.000 F60.000
G2 X35.802 Y82.182 Z-4.100 I1.553 J-0.745 K0.000 F60.000
G1 X35.801 Y82.177 Z-4.100 F60.000
G3 X34.763 Y81.301 Z-4.100 I0.964 J-2.195 K0.000 F60.000
G2 X34.739 Y81.260 Z-4.100 I-0.032 J-0.008 K0.000 F60.000
G0 Z5.000
G0 Z5.000
G0 X34.739 Y81.260
G0 X33.087 Y81.101
G0 X33.087 Y81.101 Z3.000
G1 X33.087 Y81.101 Z-0.300 F30.000
G3 X31.582 Y81.412 Z-0.300 I-3.088 J-11.131 K0.000 F60.000
G2 X30.961 Y81.465 Z-0.300 I-0.125 J2.224 K0.000 F60.000
G2 X30.958 Y81.485 Z-0.300 I0.006 J0.011 K0.000 F60.000
G2 X33.087 Y81.101 Z-0.300 I0.143 J-5.304 K0.000 F60.000
G1 X33.087 Y81.101 Z-0.600 F30.000
G3 X31.582 Y81.412 Z-0.600 I-3.088 J-11.131 K0.000 F60.000
G2 X30.961 Y81.465 Z-0.600 I-0.125 J2.224 K0.000 F60.000
G2 X30.958 Y81.485 Z-0.600 I0.006 J0.011 K0.000 F60.000
G2 X33.087 Y81.101 Z-0.600 I0.143 J-5.304 K0.000 F60.000
G1 X33.087 Y81.101 Z-0.900 F30.000
G3 X31.582 Y81.412 Z-0.900 I-3.088 J-11.131 K0.000 F60.000
G2 X30.961 Y81.465 Z-0.900 I-0.125 J2.224 K0.000 F60.000
G2 X30.958 Y81.485 Z-0.900 I0.006 J0.011 K0.000 F60.000
G2 X33.087 Y81.101 Z-0.900 I0.143 J-5.304 K0.000 F60.000
G1 X33.087 Y81.101 Z-1.200 F30.000
G3 X31.582 Y81.412 Z-1.200 I-3.088 J-11.131 K0.000 F60.000
G2 X30.961 Y81.465 Z-1.200 I-0.125 J2.224 K0.000 F60.000
G2 X30.958 Y81.485 Z-1.200 I0.006 J0.011 K0.000 F60.000
G2 X33.087 Y81.101 Z-1.200 I0.143 J-5.304 K0.000 F60.000
G1 X33.087 Y81.101 Z-1.500 F30.000
G3 X31.582 Y81.412 Z-1.500 I-3.088 J-11.131 K0.000 F60.000
G2 X30.961 Y81.465 Z-1.500 I-0.125 J2.224 K0.000 F60.000
G2 X30.958 Y81.485 Z-1.500 I0.006 J0.011 K0.000 F60.000
G2 X33.087 Y81.101 Z-1.500 I0.143 J-5.304 K0.000 F60.000
G1 X33.087 Y81.101 Z-1.800 F30.000
G3 X31.582 Y81.412 Z-1.800 I-3.088 J-11.131 K0.000 F60.000
G2 X30.961 Y81.465 Z-1.800 I-0.125 J2.224 K0.000 F60.000
G2 X30.958 Y81.485 Z-1.800 I0.006 J0.011 K0.000 F60.000
G2 X33.087 Y81.101 Z-1.800 I0.143 J-5.304 K0.000 F60.000
G1 X33.087 Y81.101 Z-2.100 F30.000
G3 X31.582 Y81.412 Z-2.100 I-3.088 J-11.131 K0.000 F60.000
G2 X30.961 Y81.465 Z-2.100 I-0.125 J2.224 K0.000 F60.000
G2 X30.958 Y81.485 Z-2.100 I0.006 J0.011 K0.000 F60.000
G2 X33.087 Y81.101 Z-2.100 I0.143 J-5.304 K0.000 F60.000
G1 X33.087 Y81.101 Z-2.400 F30.000
G3 X31.582 Y81.412 Z-2.400 I-3.088 J-11.131 K0.000 F60.000
G2 X30.961 Y81.465 Z-2.400 I-0.125 J2.224 K0.000 F60.000
G2 X30.958 Y81.485 Z-2.400 I0.006 J0.011 K0.000 F60.000
G2 X33.087 Y81.101 Z-2.400 I0.143 J-5.304 K0.000 F60.000
G1 X33.087 Y81.101 Z-2.700 F30.000
G3 X31.582 Y81.412 Z-2.700 I-3.088 J-11.131 K0.000 F60.000
G2 X30.961 Y81.465 Z-2.700 I-0.125 J2.224 K0.000 F60.000
G2 X30.958 Y81.485 Z-2.700 I0.006 J0.011 K0.000 F60.000
G2 X33.087 Y81.101 Z-2.700 I0.143 J-5.304 K0.000 F60.000
G1 X33.087 Y81.101 Z-3.000 F30.000
G3 X31.582 Y81.412 Z-3.000 I-3.088 J-11.131 K0.000 F60.000
G2 X30.961 Y81.465 Z-3.000 I-0.125 J2.224 K0.000 F60.000
G2 X30.958 Y81.485 Z-3.000 I0.006 J0.011 K0.000 F60.000
G2 X33.087 Y81.101 Z-3.000 I0.143 J-5.304 K0.000 F60.000
G1 X33.087 Y81.101 Z-3.300 F30.000
G3 X31.582 Y81.412 Z-3.300 I-3.088 J-11.131 K0.000 F60.000
G2 X30.961 Y81.465 Z-3.300 I-0.125 J2.224 K0.000 F60.000
G2 X30.958 Y81.485 Z-3.300 I0.006 J0.011 K0.000 F60.000
G2 X33.087 Y81.101 Z-3.300 I0.143 J-5.304 K0.000 F60.000
G1 X33.087 Y81.101 Z-3.600 F30.000
G3 X31.582 Y81.412 Z-3.600 I-3.088 J-11.131 K0.000 F60.000
G2 X30.961 Y81.465 Z-3.600 I-0.125 J2.224 K0.000 F60.000
G2 X30.958 Y81.485 Z-3.600 I0.006 J0.011 K0.000 F60.000
G2 X33.087 Y81.101 Z-3.600 I0.143 J-5.304 K0.000 F60.000
G1 X33.087 Y81.101 Z-3.900 F30.000
G3 X31.582 Y81.412 Z-3.900 I-3.088 J-11.131 K0.000 F60.000
G2 X30.961 Y81.465 Z-3.900 I-0.125 J2.224 K0.000 F60.000
G2 X30.958 Y81.485 Z-3.900 I0.006 J0.011 K0.000 F60.000
G2 X33.087 Y81.101 Z-3.900 I0.143 J-5.304 K0.000 F60.000
G1 X33.087 Y81.101 Z-4.100 F30.000
G3 X31.582 Y81.412 Z-4.100 I-3.088 J-11.131 K0.000 F60.000
G2 X30.961 Y81.465 Z-4.100 I-0.125 J2.224 K0.000 F60.000
G2 X30.958 Y81.485 Z-4.100 I0.006 J0.011 K0.000 F60.000
G2 X33.087 Y81.101 Z-4.100 I0.143 J-5.304 K0.000 F60.000
G0 Z5.000
G0 Z5.000
G0 X33.087 Y81.101
G0 X30.081 Y80.367
G0 X30.081 Y80.367 Z3.000
G1 X30.081 Y80.367 Z-0.300 F30.000
G2 X29.251 Y78.016 Z-0.300 I-2.566 J-0.416 K0.000 F60.000
G3 X30.058 Y80.363 Z-0.300 I-2.024 J2.008 K0.000 F60.000
G2 X30.081 Y80.367 Z-0.300 I0.012 J-0.003 K0.000 F60.000
G1 X30.081 Y80.367 Z-0.600 F30.000
G2 X29.251 Y78.016 Z-0.600 I-2.566 J-0.416 K0.000 F60.000
G3 X30.058 Y80.363 Z-0.600 I-2.024 J2.008 K0.000 F60.000
G2 X30.081 Y80.367 Z-0.600 I0.012 J-0.003 K0.000 F60.000
G1 X30.081 Y80.367 Z-0.900 F30.000
G2 X29.251 Y78.016 Z-0.900 I-2.566 J-0.416 K0.000 F60.000
G3 X30.058 Y80.363 Z-0.900 I-2.024 J2.008 K0.000 F60.000
G2 X30.081 Y80.367 Z-0.900 I0.012 J-0.003 K0.000 F60.000
G1 X30.081 Y80.367 Z-1.200 F30.000
G2 X29.251 Y78.016 Z-1.200 I-2.566 J-0.416 K0.000 F60.000
G3 X30.058 Y80.363 Z-1.200 I-2.024 J2.008 K0.000 F60.000
G2 X30.081 Y80.367 Z-1.200 I0.012 J-0.003 K0.000 F60.000
G1 X30.081 Y80.367 Z-1.500 F30.000
G2 X29.251 Y78.016 Z-1.500 I-2.566 J-0.416 K0.000 F60.000
G3 X30.058 Y80.363 Z-1.500 I-2.024 J2.008 K0.000 F60.000
G2 X30.081 Y80.367 Z-1.500 I0.012 J-0.003 K0.000 F60.000
G1 X30.081 Y80.367 Z-1.800 F30.000
G2 X29.251 Y78.016 Z-1.800 I-2.566 J-0.416 K0.000 F60.000
G3 X30.058 Y80.363 Z-1.800 I-2.024 J2.008 K0.000 F60.000
G2 X30.081 Y80.367 Z-1.800 I0.012 J-0.003 K0.000 F60.000
G1 X30.081 Y80.367 Z-2.100 F30.000
G2 X29.251 Y78.016 Z-2.100 I-2.566 J-0.416 K0.000 F60.000
G3 X30.058 Y80.363 Z-2.100 I-2.024 J2.008 K0.000 F60.000
G2 X30.081 Y80.367 Z-2.100 I0.012 J-0.003 K0.000 F60.000
G1 X30.081 Y80.367 Z-2.400 F30.000
G2 X29.251 Y78.016 Z-2.400 I-2.566 J-0.416 K0.000 F60.000
G3 X30.058 Y80.363 Z-2.400 I-2.024 J2.008 K0.000 F60.000
G2 X30.081 Y80.367 Z-2.400 I0.012 J-0.003 K0.000 F60.000
G1 X30.081 Y80.367 Z-2.700 F30.000
G2 X29.251 Y78.016 Z-2.700 I-2.566 J-0.416 K0.000 F60.000
G3 X30.058 Y80.363 Z-2.700 I-2.024 J2.008 K0.000 F60.000
G2 X30.081 Y80.367 Z-2.700 I0.012 J-0.003 K0.000 F60.000
G1 X30.081 Y80.367 Z-3.000 F30.000
G2 X29.251 Y78.016 Z-3.000 I-2.566 J-0.416 K0.000 F60.000
G3 X30.058 Y80.363 Z-3.000 I-2.024 J2.008 K0.000 F60.000
G2 X30.081 Y80.367 Z-3.000 I0.012 J-0.003 K0.000 F60.000
G1 X30.081 Y80.367 Z-3.300 F30.000
G2 X29.251 Y78.016 Z-3.300 I-2.566 J-0.416 K0.000 F60.000
G3 X30.058 Y80.363 Z-3.300 I-2.024 J2.008 K0.000 F60.000
G2 X30.081 Y80.367 Z-3.300 I0.012 J-0.003 K0.000 F60.000
G1 X30.081 Y80.367 Z-3.600 F30.000
G2 X29.251 Y78.016 Z-3.600 I-2.566 J-0.416 K0.000 F60.000
G3 X30.058 Y80.363 Z-3.600 I-2.024 J2.008 K0.000 F60.000
G2 X30.081 Y80.367 Z-3.600 I0.012 J-0.003 K0.000 F60.000
G1 X30.081 Y80.367 Z-3.900 F30.000
G2 X29.251 Y78.016 Z-3.900 I-2.566 J-0.416 K0.000 F60.000
G3 X30.058 Y80.363 Z-3.900 I-2.024 J2.008 K0.000 F60.000
G2 X30.081 Y80.367 Z-3.900 I0.012 J-0.003 K0.000 F60.000
G1 X30.081 Y80.367 Z-4.100 F30.000
G2 X29.251 Y78.016 Z-4.100 I-2.566 J-0.416 K0.000 F60.000
G3 X30.058 Y80.363 Z-4.100 I-2.024 J2.008 K0.000 F60.000
G2 X30.081 Y80.367 Z-4.100 I0.012 J-0.003 K0.000 F60.000
G0 Z5.000
G0 Z5.000
G0 X30.081 Y80.367
G0 X28.010 Y78.008
G0 X28.010 Y78.008 Z3.000
G1 X28.010 Y78.008 Z-0.300 F30.000
G3 X28.646 Y76.659 Z-0.300 I11.711 J4.698 K0.000 F60.000
G2 X29.617 Y74.098 Z-0.300 I-4.585 J-3.203 K0.000 F60.000
G2 X29.267 Y73.262 Z-0.300 I-0.903 J-0.113 K0.000 F60.000
G1 X29.267 Y73.262 Z-0.300 F60.000
G3 X29.564 Y73.830 Z-0.300 I-0.974 J0.872 K0.000 F60.000
G3 X29.410 Y75.004 Z-0.300 I-2.513 J0.268 K0.000 F60.000
G3 X28.427 Y77.025 Z-0.300 I-20.896 J-8.913 K0.000 F60.000
G2 X27.991 Y77.970 Z-0.300 I3.557 J2.216 K0.000 F60.000
G1 X27.988 Y78.001 Z-0.300 F60.000
G2 X28.010 Y78.008 Z-0.300 I0.012 J-0.001 K0.000 F60.000
G1 X28.010 Y78.008 Z-0.600 F30.000
G3 X28.646 Y76.659 Z-0.600 I11.711 J4.698 K0.000 F60.000
G2 X29.617 Y74.098 Z-0.600 I-4.585 J-3.203 K0.000 F60.000
G2 X29.267 Y73.262 Z-0.600 I-0.903 J-0.113 K0.000 F60.000
G1 X29.267 Y73.262 Z-0.600 F60.000
G3 X29.564 Y73.830 Z-0.600 I-0.974 J0.872 K0.000 F60.000
G3 X29.410 Y75.004 Z-0.600 I-2.513 J0.268 K0.000 F60.000
G3 X28.427 Y77.025 Z-0.600 I-20.896 J-8.913 K0.000 F60.000
G2 X27.991 Y77.970 Z-0.600 I3.557 J2.216 K0.000 F60.000
G1 X27.988 Y78.001 Z-0.600 F60.000
G2 X28.010 Y78.008 Z-0.600 I0.012 J-0.001 K0.000 F60.000
G1 X28.010 Y78.008 Z-0.900 F30.000
G3 X28.646 Y76.659 Z-0.900 I11.711 J4.698 K0.000 F60.000
G2 X29.617 Y74.098 Z-0.900 I-4.585 J-3.203 K0.000 F60.000
G2 X29.267 Y73.262 Z-0.900 I-0.903 J-0.113 K0.000 F60.000
G1 X29.267 Y73.262 Z-0.900 F60.000
G3 X29.564 Y73.830 Z-0.900 I-0.974 J0.872 K0.000 F60.000
G3 X29.410 Y75.004 Z-0.900 I-2.513 J0.268 K0.000 F60.000
G3 X28.427 Y77.025 Z-0.900 I-20.896 J-8.913 K0.000 F60.000
G2 X27.991 Y77.970 Z-0.900 I3.557 J2.216 K0.000 F60.000
G1 X27.988 Y78.001 Z-0.900 F60.000
G2 X28.010 Y78.008 Z-0.900 I0.012 J-0.001 K0.000 F60.000
G1 X28.010 Y78.008 Z-1.200 F30.000
G3 X28.646 Y76.659 Z-1.200 I11.711 J4.698 K0.000 F60.000
G2 X29.617 Y74.098 Z-1.200 I-4.585 J-3.203 K0.000 F60.000
G2 X29.267 Y73.262 Z-1.200 I-0.903 J-0.113 K0.000 F60.000
G1 X29.267 Y73.262 Z-1.200 F60.000
G3 X29.564 Y73.830 Z-1.200 I-0.974 J0.872 K0.000 F60.000
G3 X29.410 Y75.004 Z-1.200 I-2.513 J0.268 K0.000 F60.000
G3 X28.427 Y77.025 Z-1.200 I-20.896 J-8.913 K0.000 F60.000
G2 X27.991 Y77.970 Z-1.200 I3.557 J2.216 K0.000 F60.000
G1 X27.988 Y78.001 Z-1.200 F60.000
G2 X28.010 Y78.008 Z-1.200 I0.012 J-0.001 K0.000 F60.000
G1 X28.010 Y78.008 Z-1.500 F30.000
G3 X28.646 Y76.659 Z-1.500 I11.711 J4.698 K0.000 F60.000
G2 X29.617 Y74.098 Z-1.500 I-4.585 J-3.203 K0.000 F60.000
G2 X29.267 Y73.262 Z-1.500 I-0.903 J-0.113 K0.000 F60.000
G1 X29.267 Y73.262 Z-1.500 F60.000
G3 X29.564 Y73.830 Z-1.500 I-0.974 J0.872 K0.000 F60.000
G3 X29.410 Y75.004 Z-1.500 I-2.513 J0.268 K0.000 F60.000
G3 X28.427 Y77.025 Z-1.500 I-20.896 J-8.913 K0.000 F60.000
G2 X27.991 Y77.970 Z-1.500 I3.557 J2.216 K0.000 F60.000
G1 X27.988 Y78.001 Z-1.500 F60.000
G2 X28.010 Y78.008 Z-1.500 I0.012 J-0.001 K0.000 F60.000
G1 X28.010 Y78.008 Z-1.800 F30.000
G3 X28.646 Y76.659 Z-1.800 I11.711 J4.698 K0.000 F60.000
G2 X29.617 Y74.098 Z-1.800 I-4.585 J-3.203 K0.000 F60.000
G2 X29.267 Y73.262 Z-1.800 I-0.903 J-0.113 K0.000 F60.000
G1 X29.267 Y73.262 Z-1.800 F60.000
G3 X29.564 Y73.830 Z-1.800 I-0.974 J0.872 K0.000 F60.000
G3 X29.410 Y75.004 Z-1.800 I-2.513 J0.268 K0.000 F60.000
G3 X28.427 Y77.025 Z-1.800 I-20.896 J-8.913 K0.000 F60.000
G2 X27.991 Y77.970 Z-1.800 I3.557 J2.216 K0.000 F60.000
G1 X27.988 Y78.001 Z-1.800 F60.000
G2 X28.010 Y78.008 Z-1.800 I0.012 J-0.001 K0.000 F60.000
G1 X28.010 Y78.008 Z-2.100 F30.000
G3 X28.646 Y76.659 Z-2.100 I11.711 J4.698 K0.000 F60.000
G2 X29.617 Y74.098 Z-2.100 I-4.585 J-3.203 K0.000 F60.000
G2 X29.267 Y73.262 Z-2.100 I-0.903 J-0.113 K0.000 F60.000
G1 X29.267 Y73.262 Z-2.100 F60.000
G3 X29.564 Y73.830 Z-2.100 I-0.974 J0.872 K0.000 F60.000
G3 X29.410 Y75.004 Z-2.100 I-2.513 J0.268 K0.000 F60.000
G3 X28.427 Y77.025 Z-2.100 I-20.896 J-8.913 K0.000 F60.000
G2 X27.991 Y77.970 Z-2.100 I3.557 J2.216 K0.000 F60.000
G1 X27.988 Y78.001 Z-2.100 F60.000
G2 X28.010 Y78.008 Z-2.100 I0.012 J-0.001 K0.000 F60.000
G1 X28.010 Y78.008 Z-2.400 F30.000
G3 X28.646 Y76.659 Z-2.400 I11.711 J4.698 K0.000 F60.000
G2 X29.617 Y74.098 Z-2.400 I-4.585 J-3.203 K0.000 F60.000
G2 X29.267 Y73.262 Z-2.400 I-0.903 J-0.113 K0.000 F60.000
G1 X29.267 Y73.262 Z-2.400 F60.000
G3 X29.564 Y73.830 Z-2.400 I-0.974 J0.872 K0.000 F60.000
G3 X29.410 Y75.004 Z-2.400 I-2.513 J0.268 K0.000 F60.000
G3 X28.427 Y77.025 Z-2.400 I-20.896 J-8.913 K0.000 F60.000
G2 X27.991 Y77.970 Z-2.400 I3.557 J2.216 K0.000 F60.000
G1 X27.988 Y78.001 Z-2.400 F60.000
G2 X28.010 Y78.008 Z-2.400 I0.012 J-0.001 K0.000 F60.000
G1 X28.010 Y78.008 Z-2.700 F30.000
G3 X28.646 Y76.659 Z-2.700 I11.711 J4.698 K0.000 F60.000
G2 X29.617 Y74.098 Z-2.700 I-4.585 J-3.203 K0.000 F60.000
G2 X29.267 Y73.262 Z-2.700 I-0.903 J-0.113 K0.000 F60.000
G1 X29.267 Y73.262 Z-2.700 F60.000
G3 X29.564 Y73.830 Z-2.700 I-0.974 J0.872 K0.000 F60.000
G3 X29.410 Y75.004 Z-2.700 I-2.513 J0.268 K0.000 F60.000
G3 X28.427 Y77.025 Z-2.700 I-20.896 J-8.913 K0.000 F60.000
G2 X27.991 Y77.970 Z-2.700 I3.557 J2.216 K0.000 F60.000
G1 X27.988 Y78.001 Z-2.700 F60.000
G2 X28.010 Y78.008 Z-2.700 I0.012 J-0.001 K0.000 F60.000
G1 X28.010 Y78.008 Z-3.000 F30.000
G3 X28.646 Y76.659 Z-3.000 I11.711 J4.698 K0.000 F60.000
G2 X29.617 Y74.098 Z-3.000 I-4.585 J-3.203 K0.000 F60.000
G2 X29.267 Y73.262 Z-3.000 I-0.903 J-0.113 K0.000 F60.000
G1 X29.267 Y73.262 Z-3.000 F60.000
G3 X29.564 Y73.830 Z-3.000 I-0.974 J0.872 K0.000 F60.000
G3 X29.410 Y75.004 Z-3.000 I-2.513 J0.268 K0.000 F60.000
G3 X28.427 Y77.025 Z-3.000 I-20.896 J-8.913 K0.000 F60.000
G2 X27.991 Y77.970 Z-3.000 I3.557 J2.216 K0.000 F60.000
G1 X27.988 Y78.001 Z-3.000 F60.000
G2 X28.010 Y78.008 Z-3.000 I0.012 J-0.001 K0.000 F60.000
G1 X28.010 Y78.008 Z-3.300 F30.000
G3 X28.646 Y76.659 Z-3.300 I11.711 J4.698 K0.000 F60.000
G2 X29.617 Y74.098 Z-3.300 I-4.585 J-3.203 K0.000 F60.000
G2 X29.267 Y73.262 Z-3.300 I-0.903 J-0.113 K0.000 F60.000
G1 X29.267 Y73.262 Z-3.300 F60.000
G3 X29.564 Y73.830 Z-3.300 I-0.974 J0.872 K0.000 F60.000
G3 X29.410 Y75.004 Z-3.300 I-2.513 J0.268 K0.000 F60.000
G3 X28.427 Y77.025 Z-3.300 I-20.896 J-8.913 K0.000 F60.000
G2 X27.991 Y77.970 Z-3.300 I3.557 J2.216 K0.000 F60.000
G1 X27.988 Y78.001 Z-3.300 F60.000
G2 X28.010 Y78.008 Z-3.300 I0.012 J-0.001 K0.000 F60.000
G1 X28.010 Y78.008 Z-3.600 F30.000
G3 X28.646 Y76.659 Z-3.600 I11.711 J4.698 K0.000 F60.000
G2 X29.617 Y74.098 Z-3.600 I-4.585 J-3.203 K0.000 F60.000
G2 X29.267 Y73.262 Z-3.600 I-0.903 J-0.113 K0.000 F60.000
G1 X29.267 Y73.262 Z-3.600 F60.000
G3 X29.564 Y73.830 Z-3.600 I-0.974 J0.872 K0.000 F60.000
G3 X29.410 Y75.004 Z-3.600 I-2.513 J0.268 K0.000 F60.000
G3 X28.427 Y77.025 Z-3.600 I-20.896 J-8.913 K0.000 F60.000
G2 X27.991 Y77.970 Z-3.600 I3.557 J2.216 K0.000 F60.000
G1 X27.988 Y78.001 Z-3.600 F60.000
G2 X28.010 Y78.008 Z-3.600 I0.012 J-0.001 K0.000 F60.000
G1 X28.010 Y78.008 Z-3.900 F30.000
G3 X28.646 Y76.659 Z-3.900 I11.711 J4.698 K0.000 F60.000
G2 X29.617 Y74.098 Z-3.900 I-4.585 J-3.203 K0.000 F60.000
G2 X29.267 Y73.262 Z-3.900 I-0.903 J-0.113 K0.000 F60.000
G1 X29.267 Y73.262 Z-3.900 F60.000
G3 X29.564 Y73.830 Z-3.900 I-0.974 J0.872 K0.000 F60.000
G3 X29.410 Y75.004 Z-3.900 I-2.513 J0.268 K0.000 F60.000
G3 X28.427 Y77.025 Z-3.900 I-20.896 J-8.913 K0.000 F60.000
G2 X27.991 Y77.970 Z-3.900 I3.557 J2.216 K0.000 F60.000
G1 X27.988 Y78.001 Z-3.900 F60.000
G2 X28.010 Y78.008 Z-3.900 I0.012 J-0.001 K0.000 F60.000
G1 X28.010 Y78.008 Z-4.100 F30.000
G3 X28.646 Y76.659 Z-4.100 I11.711 J4.698 K0.000 F60.000
G2 X29.617 Y74.098 Z-4.100 I-4.585 J-3.203 K0.000 F60.000
G2 X29.267 Y73.262 Z-4.100 I-0.903 J-0.113 K0.000 F60.000
G1 X29.267 Y73.262 Z-4.100 F60.000
G3 X29.564 Y73.830 Z-4.100 I-0.974 J0.872 K0.000 F60.000
G3 X29.410 Y75.004 Z-4.100 I-2.513 J0.268 K0.000 F60.000
G3 X28.427 Y77.025 Z-4.100 I-20.896 J-8.913 K0.000 F60.000
G2 X27.991 Y77.970 Z-4.100 I3.557 J2.216 K0.000 F60.000
G1 X27.988 Y78.001 Z-4.100 F60.000
G2 X28.010 Y78.008 Z-4.100 I0.012 J-0.001 K0.000 F60.000
G0 Z5.000
G0 Z5.000
G0 X28.010 Y78.008
G0 X29.546 Y82.269
G0 X29.546 Y82.269 Z3.000
G1 X29.546 Y82.269 Z-0.300 F30.000
G3 X28.493 Y83.507 Z-0.300 I-2.920 J-1.416 K0.000 F60.000
G2 X28.457 Y83.565 Z-0.300 I-0.005 J0.037 K0.000 F60.000
G2 X29.553 Y82.270 Z-0.300 I-1.157 J-2.091 K0.000 F60.000
G2 X29.546 Y82.269 Z-0.300 I-0.004 J0.005 K0.000 F60.000
G1 X29.546 Y82.269 Z-0.600 F30.000
G3 X28.493 Y83.507 Z-0.600 I-2.920 J-1.416 K0.000 F60.000
G2 X28.457 Y83.565 Z-0.600 I-0.005 J0.037 K0.000 F60.000
G2 X29.553 Y82.270 Z-0.600 I-1.157 J-2.091 K0.000 F60.000
G2 X29.546 Y82.269 Z-0.600 I-0.004 J0.005 K0.000 F60.000
G1 X29.546 Y82.269 Z-0.900 F30.000
G3 X28.493 Y83.507 Z-0.900 I-2.920 J-1.416 K0.000 F60.000
G2 X28.457 Y83.565 Z-0.900 I-0.005 J0.037 K0.000 F60.000
G2 X29.553 Y82.270 Z-0.900 I-1.157 J-2.091 K0.000 F60.000
G2 X29.546 Y82.269 Z-0.900 I-0.004 J0.005 K0.000 F60.000
G1 X29.546 Y82.269 Z-1.200 F30.000
G3 X28.493 Y83.507 Z-1.200 I-2.920 J-1.416 K0.000 F60.000
G2 X28.457 Y83.565 Z-1.200 I-0.005 J0.037 K0.000 F60.000
G2 X29.553 Y82.270 Z-1.200 I-1.157 J-2.091 K0.000 F60.000
G2 X29.546 Y82.269 Z-1.200 I-0.004 J0.005 K0.000 F60.000
G1 X29.546 Y82.269 Z-1.500 F30.000
G3 X28.493 Y83.507 Z-1.500 I-2.920 J-1.416 K0.000 F60.000
G2 X28.457 Y83.565 Z-1.500 I-0.005 J0.037 K0.000 F60.000
G2 X29.553 Y82.270 Z-1.500 I-1.157 J-2.091 K0.000 F60.000
G2 X29.546 Y82.269 Z-1.500 I-0.004 J0.005 K0.000 F60.000
G1 X29.546 Y82.269 Z-1.800 F30.000
G3 X28.493 Y83.507 Z-1.800 I-2.920 J-1.416 K0.000 F60.000
G2 X28.457 Y83.565 Z-1.800 I-0.005 J0.037 K0.000 F60.000
G2 X29.553 Y82.270 Z-1.800 I-1.157 J-2.091 K0.000 F60.000
G2 X29.546 Y82.269 Z-1.800 I-0.004 J0.005 K0.000 F60.000
G1 X29.546 Y82.269 Z-2.100 F30.000
G3 X28.493 Y83.507 Z-2.100 I-2.920 J-1.416 K0.000 F60.000
G2 X28.457 Y83.565 Z-2.100 I-0.005 J0.037 K0.000 F60.000
G2 X29.553 Y82.270 Z-2.100 I-1.157 J-2.091 K0.000 F60.000
G2 X29.546 Y82.269 Z-2.100 I-0.004 J0.005 K0.000 F60.000
G1 X29.546 Y82.269 Z-2.400 F30.000
G3 X28.493 Y83.507 Z-2.400 I-2.920 J-1.416 K0.000 F60.000
G2 X28.457 Y83.565 Z-2.400 I-0.005 J0.037 K0.000 F60.000
G2 X29.553 Y82.270 Z-2.400 I-1.157 J-2.091 K0.000 F60.000
G2 X29.546 Y82.269 Z-2.400 I-0.004 J0.005 K0.000 F60.000
G1 X29.546 Y82.269 Z-2.700 F30.000
G3 X28.493 Y83.507 Z-2.700 I-2.920 J-1.416 K0.000 F60.000
G2 X28.457 Y83.565 Z-2.700 I-0.005 J0.037 K0.000 F60.000
G2 X29.553 Y82.270 Z-2.700 I-1.157 J-2.091 K0.000 F60.000
G2 X29.546 Y82.269 Z-2.700 I-0.004 J0.005 K0.000 F60.000
G1 X29.546 Y82.269 Z-3.000 F30.000
G3 X28.493 Y83.507 Z-3.000 I-2.920 J-1.416 K0.000 F60.000
G2 X28.457 Y83.565 Z-3.000 I-0.005 J0.037 K0.000 F60.000
G2 X29.553 Y82.270 Z-3.000 I-1.157 J-2.091 K0.000 F60.000
G2 X29.546 Y82.269 Z-3.000 I-0.004 J0.005 K0.000 F60.000
G1 X29.546 Y82.269 Z-3.300 F30.000
G3 X28.493 Y83.507 Z-3.300 I-2.920 J-1.416 K0.000 F60.000
G2 X28.457 Y83.565 Z-3.300 I-0.005 J0.037 K0.000 F60.000
G2 X29.553 Y82.270 Z-3.300 I-1.157 J-2.091 K0.000 F60.000
G2 X29.546 Y82.269 Z-3.300 I-0.004 J0.005 K0.000 F60.000
G1 X29.546 Y82.269 Z-3.600 F30.000
G3 X28.493 Y83.507 Z-3.600 I-2.920 J-1.416 K0.000 F60.000
G2 X28.457 Y83.565 Z-3.600 I-0.005 J0.037 K0.000 F60.000
G2 X29.553 Y82.270 Z-3.600 I-1.157 J-2.091 K0.000 F60.000
G2 X29.546 Y82.269 Z-3.600 I-0.004 J0.005 K0.000 F60.000
G1 X29.546 Y82.269 Z-3.900 F30.000
G3 X28.493 Y83.507 Z-3.900 I-2.920 J-1.416 K0.000 F60.000
G2 X28.457 Y83.565 Z-3.900 I-0.005 J0.037 K0.000 F60.000
G2 X29.553 Y82.270 Z-3.900 I-1.157 J-2.091 K0.000 F60.000
G2 X29.546 Y82.269 Z-3.900 I-0.004 J0.005 K0.000 F60.000
G1 X29.546 Y82.269 Z-4.100 F30.000
G3 X28.493 Y83.507 Z-4.100 I-2.920 J-1.416 K0.000 F60.000
G2 X28.457 Y83.565 Z-4.100 I-0.005 J0.037 K0.000 F60.000
G2 X29.553 Y82.270 Z-4.100 I-1.157 J-2.091 K0.000 F60.000
G2 X29.546 Y82.269 Z-4.100 I-0.004 J0.005 K0.000 F60.000
G0 Z5.000
G0 Z5.000
G0 X29.546 Y82.269
G0 X35.556 Y83.958
G0 X35.556 Y83.958 Z3.000
G1 X35.556 Y83.958 Z-0.300 F30.000
G2 X35.561 Y83.988 Z-0.300 I0.037 J0.010 K0.000 F60.000
G2 X36.995 Y81.987 Z-0.300 I-1.350 J-2.483 K0.000 F60.000
G1 X36.991 Y81.987 Z-0.300 F60.000
G3 X35.601 Y83.930 Z-0.300 I-3.231 J-0.843 K0.000 F60.000
G2 X35.556 Y83.958 Z-0.300 I-0.007 J0.038 K0.000 F60.000
G1 X35.556 Y83.958 Z-0.600 F30.000
G2 X35.561 Y83.988 Z-0.600 I0.037 J0.010 K0.000 F60.000
G2 X36.995 Y81.987 Z-0.600 I-1.350 J-2.483 K0.000 F60.000
G1 X36.991 Y81.987 Z-0.600 F60.000
G3 X35.601 Y83.930 Z-0.600 I-3.231 J-0.843 K0.000 F60.000
G2 X35.556 Y83.958 Z-0.600 I-0.007 J0.038 K0.000 F60.000
G1 X35.556 Y83.958 Z-0.900 F30.000
G2 X35.561 Y83.988 Z-0.900 I0.037 J0.010 K0.000 F60.000
G2 X36.995 Y81.987 Z-0.900 I-1.350 J-2.483 K0.000 F60.000
G1 X36.991 Y81.987 Z-0.900 F60.000
G3 X35.601 Y83.930 Z-0.900 I-3.231 J-0.843 K0.000 F60.000
G2 X35.556 Y83.958 Z-0.900 I-0.007 J0.038 K0.000 F60.000
G1 X35.556 Y83.958 Z-1.200 F30.000
G2 X35.561 Y83.988 Z-1.200 I0.037 J0.010 K0.000 F60.000
G2 X36.995 Y81.987 Z-1.200 I-1.350 J-2.483 K0.000 F60.000
G1 X36.991 Y81.987 Z-1.200 F60.000
G3 X35.601 Y83.930 Z-1.200 I-3.231 J-0.843 K0.000 F60.000
G2 X35.556 Y83.958 Z-1.200 I-0.007 J0.038 K0.000 F60.000
G1 X35.556 Y83.958 Z-1.500 F30.000
G2 X35.561 Y83.988 Z-1.500 I0.037 J0.010 K0.000 F60.000
G2 X36.995 Y81.987 Z-1.500 I-1.350 J-2.483 K0.000 F60.000
G1 X36.991 Y81.987 Z-1.500 F60.000
G3 X35.601 Y83.930 Z-1.500 I-3.231 J-0.843 K0.000 F60.000
G2 X35.556 Y83.958 Z-1.500 I-0.007 J0.038 K0.000 F60.000
G1 X35.556 Y83.958 Z-1.800 F30.000
G2 X35.561 Y83.988 Z-1.800 I0.037 J0.010 K0.000 F60.000
G2 X36.995 Y81.987 Z-1.800 I-1.350 J-2.483 K0.000 F60.000
G1 X36.991 Y81.987 Z-1.800 F60.000
G3 X35.601 Y83.930 Z-1.800 I-3.231 J-0.843 K0.000 F60.000
G2 X35.556 Y83.958 Z-1.800 I-0.007 J0.038 K0.000 F60.000
G1 X35.556 Y83.958 Z-2.100 F30.000
G2 X35.561 Y83.988 Z-2.100 I0.037 J0.010 K0.000 F60.000
G2 X36.995 Y81.987 Z-2.100 I-1.350 J-2.483 K0.000 F60.000
G1 X36.991 Y81.987 Z-2.100 F60.000
G3 X35.601 Y83.930 Z-2.100 I-3.231 J-0.843 K0.000 F60.000
G2 X35.556 Y83.958 Z-2.100 I-0.007 J0.038 K0.000 F60.000
G1 X35.556 Y83.958 Z-2.400 F30.000
G2 X35.561 Y83.988 Z-2.400 I0.037 J0.010 K0.000 F60.000
G2 X36.995 Y81.987 Z-2.400 I-1.350 J-2.483 K0.000 F60.000
G1 X36.991 Y81.987 Z-2.400 F60.000
G3 X35.601 Y83.930 Z-2.400 I-3.231 J-0.843 K0.000 F60.000
G2 X35.556 Y83.958 Z-2.400 I-0.007 J0.038 K0.000 F60.000
G1 X35.556 Y83.958 Z-2.700 F30.000
G2 X35.561 Y83.988 Z-2.700 I0.037 J0.010 K0.000 F60.000
G2 X36.995 Y81.987 Z-2.700 I-1.350 J-2.483 K0.000 F60.000
G1 X36.991 Y81.987 Z-2.700 F60.000
G3 X35.601 Y83.930 Z-2.700 I-3.231 J-0.843 K0.000 F60.000
G2 X35.556 Y83.958 Z-2.700 I-0.007 J0.038 K0.000 F60.000
G1 X35.556 Y83.958 Z-3.000 F30.000
G2 X35.561 Y83.988 Z-3.000 I0.037 J0.010 K0.000 F60.000
G2 X36.995 Y81.987 Z-3.000 I-1.350 J-2.483 K0.000 F60.000
G1 X36.991 Y81.987 Z-3.000 F60.000
G3 X35.601 Y83.930 Z-3.000 I-3.231 J-0.843 K0.000 F60.000
G2 X35.556 Y83.958 Z-3.000 I-0.007 J0.038 K0.000 F60.000
G1 X35.556 Y83.958 Z-3.300 F30.000
G2 X35.561 Y83.988 Z-3.300 I0.037 J0.010 K0.000 F60.000
G2 X36.995 Y81.987 Z-3.300 I-1.350 J-2.483 K0.000 F60.000
G1 X36.991 Y81.987 Z-3.300 F60.000
G3 X35.601 Y83.930 Z-3.300 I-3.231 J-0.843 K0.000 F60.000
G2 X35.556 Y83.958 Z-3.300 I-0.007 J0.038 K0.000 F60.000
G1 X35.556 Y83.958 Z-3.600 F30.000
G2 X35.561 Y83.988 Z-3.600 I0.037 J0.010 K0.000 F60.000
G2 X36.995 Y81.987 Z-3.600 I-1.350 J-2.483 K0.000 F60.000
G1 X36.991 Y81.987 Z-3.600 F60.000
G3 X35.601 Y83.930 Z-3.600 I-3.231 J-0.843 K0.000 F60.000
G2 X35.556 Y83.958 Z-3.600 I-0.007 J0.038 K0.000 F60.000
G1 X35.556 Y83.958 Z-3.900 F30.000
G2 X35.561 Y83.988 Z-3.900 I0.037 J0.010 K0.000 F60.000
G2 X36.995 Y81.987 Z-3.900 I-1.350 J-2.483 K0.000 F60.000
G1 X36.991 Y81.987 Z-3.900 F60.000
G3 X35.601 Y83.930 Z-3.900 I-3.231 J-0.843 K0.000 F60.000
G2 X35.556 Y83.958 Z-3.900 I-0.007 J0.038 K0.000 F60.000
G1 X35.556 Y83.958 Z-4.100 F30.000
G2 X35.561 Y83.988 Z-4.100 I0.037 J0.010 K0.000 F60.000
G2 X36.995 Y81.987 Z-4.100 I-1.350 J-2.483 K0.000 F60.000
G1 X36.991 Y81.987 Z-4.100 F60.000
G3 X35.601 Y83.930 Z-4.100 I-3.231 J-0.843 K0.000 F60.000
G2 X35.556 Y83.958 Z-4.100 I-0.007 J0.038 K0.000 F60.000
G0 Z5.000
G0 Z5.000
(Finish operation: Brust)
(Begin operation: Arme)
(Path: Arme)
(Arme)
(Compensated Tool Path. Diameter: 0.8)
G0 Z5.000
G0 X14.284 Y69.822
G0 Z3.000
G1 X14.284 Y69.822 Z-0.300 F30.000
G2 X14.262 Y69.803 Z-0.300 I-0.019 J-0.001 K0.000 F60.000
G3 X13.777 Y68.860 Z-0.300 I0.226 J-0.713 K0.000 F60.000
G3 X14.762 Y67.907 Z-0.300 I2.435 J1.532 K0.000 F60.000
G2 X14.794 Y67.864 Z-0.300 I-0.002 J-0.035 K0.000 F60.000
G2 X13.729 Y68.888 Z-0.300 I1.120 J2.230 K0.000 F60.000
G2 X13.692 Y69.217 Z-0.300 I0.574 J0.232 K0.000 F60.000
G2 X14.275 Y69.838 Z-0.300 I0.848 J-0.213 K0.000 F60.000
G2 X14.284 Y69.822 Z-0.300 I-0.009 J-0.016 K0.000 F60.000
G1 X14.284 Y69.822 Z-0.600 F30.000
G2 X14.262 Y69.803 Z-0.600 I-0.019 J-0.001 K0.000 F60.000
G3 X13.777 Y68.860 Z-0.600 I0.226 J-0.713 K0.000 F60.000
G3 X14.762 Y67.907 Z-0.600 I2.435 J1.532 K0.000 F60.000
G2 X14.794 Y67.864 Z-0.600 I-0.002 J-0.035 K0.000 F60.000
G2 X13.729 Y68.888 Z-0.600 I1.120 J2.230 K0.000 F60.000
G2 X13.692 Y69.217 Z-0.600 I0.574 J0.232 K0.000 F60.000
G2 X14.275 Y69.838 Z-0.600 I0.848 J-0.213 K0.000 F60.000
G2 X14.284 Y69.822 Z-0.600 I-0.009 J-0.016 K0.000 F60.000
G1 X14.284 Y69.822 Z-0.900 F30.000
G2 X14.262 Y69.803 Z-0.900 I-0.019 J-0.001 K0.000 F60.000
G3 X13.777 Y68.860 Z-0.900 I0.226 J-0.713 K0.000 F60.000
G3 X14.762 Y67.907 Z-0.900 I2.435 J1.532 K0.000 F60.000
G2 X14.794 Y67.864 Z-0.900 I-0.002 J-0.035 K0.000 F60.000
G2 X13.729 Y68.888 Z-0.900 I1.120 J2.230 K0.000 F60.000
G2 X13.692 Y69.217 Z-0.900 I0.574 J0.232 K0.000 F60.000
G2 X14.275 Y69.838 Z-0.900 I0.848 J-0.213 K0.000 F60.000
G2 X14.284 Y69.822 Z-0.900 I-0.009 J-0.016 K0.000 F60.000
G1 X14.284 Y69.822 Z-1.200 F30.000
G2 X14.262 Y69.803 Z-1.200 I-0.019 J-0.001 K0.000 F60.000
G3 X13.777 Y68.860 Z-1.200 I0.226 J-0.713 K0.000 F60.000
G3 X14.762 Y67.907 Z-1.200 I2.435 J1.532 K0.000 F60.000
G2 X14.794 Y67.864 Z-1.200 I-0.002 J-0.035 K0.000 F60.000
G2 X13.729 Y68.888 Z-1.200 I1.120 J2.230 K0.000 F60.000
G2 X13.692 Y69.217 Z-1.200 I0.574 J0.232 K0.000 F60.000
G2 X14.275 Y69.838 Z-1.200 I0.848 J-0.213 K0.000 F60.000
G2 X14.284 Y69.822 Z-1.200 I-0.009 J-0.016 K0.000 F60.000
G1 X14.284 Y69.822 Z-1.500 F30.000
G2 X14.262 Y69.803 Z-1.500 I-0.019 J-0.001 K0.000 F60.000
G3 X13.777 Y68.860 Z-1.500 I0.226 J-0.713 K0.000 F60.000
G3 X14.762 Y67.907 Z-1.500 I2.435 J1.532 K0.000 F60.000
G2 X14.794 Y67.864 Z-1.500 I-0.002 J-0.035 K0.000 F60.000
G2 X13.729 Y68.888 Z-1.500 I1.120 J2.230 K0.000 F60.000
G2 X13.692 Y69.217 Z-1.500 I0.574 J0.232 K0.000 F60.000
G2 X14.275 Y69.838 Z-1.500 I0.848 J-0.213 K0.000 F60.000
G2 X14.284 Y69.822 Z-1.500 I-0.009 J-0.016 K0.000 F60.000
G1 X14.284 Y69.822 Z-1.800 F30.000
G2 X14.262 Y69.803 Z-1.800 I-0.019 J-0.001 K0.000 F60.000
G3 X13.777 Y68.860 Z-1.800 I0.226 J-0.713 K0.000 F60.000
G3 X14.762 Y67.907 Z-1.800 I2.435 J1.532 K0.000 F60.000
G2 X14.794 Y67.864 Z-1.800 I-0.002 J-0.035 K0.000 F60.000
G2 X13.729 Y68.888 Z-1.800 I1.120 J2.230 K0.000 F60.000
G2 X13.692 Y69.217 Z-1.800 I0.574 J0.232 K0.000 F60.000
G2 X14.275 Y69.838 Z-1.800 I0.848 J-0.213 K0.000 F60.000
G2 X14.284 Y69.822 Z-1.800 I-0.009 J-0.016 K0.000 F60.000
G1 X14.284 Y69.822 Z-2.100 F30.000
G2 X14.262 Y69.803 Z-2.100 I-0.019 J-0.001 K0.000 F60.000
G3 X13.777 Y68.860 Z-2.100 I0.226 J-0.713 K0.000 F60.000
G3 X14.762 Y67.907 Z-2.100 I2.435 J1.532 K0.000 F60.000
G2 X14.794 Y67.864 Z-2.100 I-0.002 J-0.035 K0.000 F60.000
G2 X13.729 Y68.888 Z-2.100 I1.120 J2.230 K0.000 F60.000
G2 X13.692 Y69.217 Z-2.100 I0.574 J0.232 K0.000 F60.000
G2 X14.275 Y69.838 Z-2.100 I0.848 J-0.213 K0.000 F60.000
G2 X14.284 Y69.822 Z-2.100 I-0.009 J-0.016 K0.000 F60.000
G1 X14.284 Y69.822 Z-2.400 F30.000
G2 X14.262 Y69.803 Z-2.400 I-0.019 J-0.001 K0.000 F60.000
G3 X13.777 Y68.860 Z-2.400 I0.226 J-0.713 K0.000 F60.000
G3 X14.762 Y67.907 Z-2.400 I2.435 J1.532 K0.000 F60.000
G2 X14.794 Y67.864 Z-2.400 I-0.002 J-0.035 K0.000 F60.000
G2 X13.729 Y68.888 Z-2.400 I1.120 J2.230 K0.000 F60.000
G2 X13.692 Y69.217 Z-2.400 I0.574 J0.232 K0.000 F60.000
G2 X14.275 Y69.838 Z-2.400 I0.848 J-0.213 K0.000 F60.000
G2 X14.284 Y69.822 Z-2.400 I-0.009 J-0.016 K0.000 F60.000
G1 X14.284 Y69.822 Z-2.700 F30.000
G2 X14.262 Y69.803 Z-2.700 I-0.019 J-0.001 K0.000 F60.000
G3 X13.777 Y68.860 Z-2.700 I0.226 J-0.713 K0.000 F60.000
G3 X14.762 Y67.907 Z-2.700 I2.435 J1.532 K0.000 F60.000
G2 X14.794 Y67.864 Z-2.700 I-0.002 J-0.035 K0.000 F60.000
G2 X13.729 Y68.888 Z-2.700 I1.120 J2.230 K0.000 F60.000
G2 X13.692 Y69.217 Z-2.700 I0.574 J0.232 K0.000 F60.000
G2 X14.275 Y69.838 Z-2.700 I0.848 J-0.213 K0.000 F60.000
G2 X14.284 Y69.822 Z-2.700 I-0.009 J-0.016 K0.000 F60.000
G1 X14.284 Y69.822 Z-3.000 F30.000
G2 X14.262 Y69.803 Z-3.000 I-0.019 J-0.001 K0.000 F60.000
G3 X13.777 Y68.860 Z-3.000 I0.226 J-0.713 K0.000 F60.000
G3 X14.762 Y67.907 Z-3.000 I2.435 J1.532 K0.000 F60.000
G2 X14.794 Y67.864 Z-3.000 I-0.002 J-0.035 K0.000 F60.000
G2 X13.729 Y68.888 Z-3.000 I1.120 J2.230 K0.000 F60.000
G2 X13.692 Y69.217 Z-3.000 I0.574 J0.232 K0.000 F60.000
G2 X14.275 Y69.838 Z-3.000 I0.848 J-0.213 K0.000 F60.000
G2 X14.284 Y69.822 Z-3.000 I-0.009 J-0.016 K0.000 F60.000
G1 X14.284 Y69.822 Z-3.300 F30.000
G2 X14.262 Y69.803 Z-3.300 I-0.019 J-0.001 K0.000 F60.000
G3 X13.777 Y68.860 Z-3.300 I0.226 J-0.713 K0.000 F60.000
G3 X14.762 Y67.907 Z-3.300 I2.435 J1.532 K0.000 F60.000
G2 X14.794 Y67.864 Z-3.300 I-0.002 J-0.035 K0.000 F60.000
G2 X13.729 Y68.888 Z-3.300 I1.120 J2.230 K0.000 F60.000
G2 X13.692 Y69.217 Z-3.300 I0.574 J0.232 K0.000 F60.000
G2 X14.275 Y69.838 Z-3.300 I0.848 J-0.213 K0.000 F60.000
G2 X14.284 Y69.822 Z-3.300 I-0.009 J-0.016 K0.000 F60.000
G1 X14.284 Y69.822 Z-3.600 F30.000
G2 X14.262 Y69.803 Z-3.600 I-0.019 J-0.001 K0.000 F60.000
G3 X13.777 Y68.860 Z-3.600 I0.226 J-0.713 K0.000 F60.000
G3 X14.762 Y67.907 Z-3.600 I2.435 J1.532 K0.000 F60.000
G2 X14.794 Y67.864 Z-3.600 I-0.002 J-0.035 K0.000 F60.000
G2 X13.729 Y68.888 Z-3.600 I1.120 J2.230 K0.000 F60.000
G2 X13.692 Y69.217 Z-3.600 I0.574 J0.232 K0.000 F60.000
G2 X14.275 Y69.838 Z-3.600 I0.848 J-0.213 K0.000 F60.000
G2 X14.284 Y69.822 Z-3.600 I-0.009 J-0.016 K0.000 F60.000
G1 X14.284 Y69.822 Z-3.900 F30.000
G2 X14.262 Y69.803 Z-3.900 I-0.019 J-0.001 K0.000 F60.000
G3 X13.777 Y68.860 Z-3.900 I0.226 J-0.713 K0.000 F60.000
G3 X14.762 Y67.907 Z-3.900 I2.435 J1.532 K0.000 F60.000
G2 X14.794 Y67.864 Z-3.900 I-0.002 J-0.035 K0.000 F60.000
G2 X13.729 Y68.888 Z-3.900 I1.120 J2.230 K0.000 F60.000
G2 X13.692 Y69.217 Z-3.900 I0.574 J0.232 K0.000 F60.000
G2 X14.275 Y69.838 Z-3.900 I0.848 J-0.213 K0.000 F60.000
G2 X14.284 Y69.822 Z-3.900 I-0.009 J-0.016 K0.000 F60.000
G1 X14.284 Y69.822 Z-4.100 F30.000
G2 X14.262 Y69.803 Z-4.100 I-0.019 J-0.001 K0.000 F60.000
G3 X13.777 Y68.860 Z-4.100 I0.226 J-0.713 K0.000 F60.000
G3 X14.762 Y67.907 Z-4.100 I2.435 J1.532 K0.000 F60.000
G2 X14.794 Y67.864 Z-4.100 I-0.002 J-0.035 K0.000 F60.000
G2 X13.729 Y68.888 Z-4.100 I1.120 J2.230 K0.000 F60.000
G2 X13.692 Y69.217 Z-4.100 I0.574 J0.232 K0.000 F60.000
G2 X14.275 Y69.838 Z-4.100 I0.848 J-0.213 K0.000 F60.000
G2 X14.284 Y69.822 Z-4.100 I-0.009 J-0.016 K0.000 F60.000
G0 Z5.000
G0 Z5.000
G0 X14.284 Y69.822
G0 X16.905 Y70.058
G0 X16.905 Y70.058 Z3.000
G1 X16.905 Y70.058 Z-0.300 F30.000
G2 X17.502 Y71.698 Z-0.300 I2.042 J0.184 K0.000 F60.000
G3 X17.198 Y69.249 Z-0.300 I1.662 J-1.450 K0.000 F60.000
G2 X17.504 Y68.736 Z-0.300 I-2.349 J-1.748 K0.000 F60.000
G2 X17.479 Y68.720 Z-0.300 I-0.016 J-0.002 K0.000 F60.000
G2 X17.101 Y69.350 Z-0.300 I1.454 J1.302 K0.000 F60.000
G2 X16.905 Y70.058 Z-0.300 I1.845 J0.893 K0.000 F60.000
G1 X16.905 Y70.058 Z-0.600 F30.000
G2 X17.502 Y71.698 Z-0.600 I2.042 J0.184 K0.000 F60.000
G3 X17.198 Y69.249 Z-0.600 I1.662 J-1.450 K0.000 F60.000
G2 X17.504 Y68.736 Z-0.600 I-2.349 J-1.748 K0.000 F60.000
G2 X17.479 Y68.720 Z-0.600 I-0.016 J-0.002 K0.000 F60.000
G2 X17.101 Y69.350 Z-0.600 I1.454 J1.302 K0.000 F60.000
G2 X16.905 Y70.058 Z-0.600 I1.845 J0.893 K0.000 F60.000
G1 X16.905 Y70.058 Z-0.900 F30.000
G2 X17.502 Y71.698 Z-0.900 I2.042 J0.184 K0.000 F60.000
G3 X17.198 Y69.249 Z-0.900 I1.662 J-1.450 K0.000 F60.000
G2 X17.504 Y68.736 Z-0.900 I-2.349 J-1.748 K0.000 F60.000
G2 X17.479 Y68.720 Z-0.900 I-0.016 J-0.002 K0.000 F60.000
G2 X17.101 Y69.350 Z-0.900 I1.454 J1.302 K0.000 F60.000
G2 X16.905 Y70.058 Z-0.900 I1.845 J0.893 K0.000 F60.000
G1 X16.905 Y70.058 Z-1.200 F30.000
G2 X17.502 Y71.698 Z-1.200 I2.042 J0.184 K0.000 F60.000
G3 X17.198 Y69.249 Z-1.200 I1.662 J-1.450 K0.000 F60.000
G2 X17.504 Y68.736 Z-1.200 I-2.349 J-1.748 K0.000 F60.000
G2 X17.479 Y68.720 Z-1.200 I-0.016 J-0.002 K0.000 F60.000
G2 X17.101 Y69.350 Z-1.200 I1.454 J1.302 K0.000 F60.000
G2 X16.905 Y70.058 Z-1.200 I1.845 J0.893 K0.000 F60.000
G1 X16.905 Y70.058 Z-1.500 F30.000
G2 X17.502 Y71.698 Z-1.500 I2.042 J0.184 K0.000 F60.000
G3 X17.198 Y69.249 Z-1.500 I1.662 J-1.450 K0.000 F60.000
G2 X17.504 Y68.736 Z-1.500 I-2.349 J-1.748 K0.000 F60.000
G2 X17.479 Y68.720 Z-1.500 I-0.016 J-0.002 K0.000 F60.000
G2 X17.101 Y69.350 Z-1.500 I1.454 J1.302 K0.000 F60.000
G2 X16.905 Y70.058 Z-1.500 I1.845 J0.893 K0.000 F60.000
G1 X16.905 Y70.058 Z-1.800 F30.000
G2 X17.502 Y71.698 Z-1.800 I2.042 J0.184 K0.000 F60.000
G3 X17.198 Y69.249 Z-1.800 I1.662 J-1.450 K0.000 F60.000
G2 X17.504 Y68.736 Z-1.800 I-2.349 J-1.748 K0.000 F60.000
G2 X17.479 Y68.720 Z-1.800 I-0.016 J-0.002 K0.000 F60.000
G2 X17.101 Y69.350 Z-1.800 I1.454 J1.302 K0.000 F60.000
G2 X16.905 Y70.058 Z-1.800 I1.845 J0.893 K0.000 F60.000
G1 X16.905 Y70.058 Z-2.100 F30.000
G2 X17.502 Y71.698 Z-2.100 I2.042 J0.184 K0.000 F60.000
G3 X17.198 Y69.249 Z-2.100 I1.662 J-1.450 K0.000 F60.000
G2 X17.504 Y68.736 Z-2.100 I-2.349 J-1.748 K0.000 F60.000
G2 X17.479 Y68.720 Z-2.100 I-0.016 J-0.002 K0.000 F60.000
G2 X17.101 Y69.350 Z-2.100 I1.454 J1.302 K0.000 F60.000
G2 X16.905 Y70.058 Z-2.100 I1.845 J0.893 K0.000 F60.000
G1 X16.905 Y70.058 Z-2.400 F30.000
G2 X17.502 Y71.698 Z-2.400 I2.042 J0.184 K0.000 F60.000
G3 X17.198 Y69.249 Z-2.400 I1.662 J-1.450 K0.000 F60.000
G2 X17.504 Y68.736 Z-2.400 I-2.349 J-1.748 K0.000 F60.000
G2 X17.479 Y68.720 Z-2.400 I-0.016 J-0.002 K0.000 F60.000
G2 X17.101 Y69.350 Z-2.400 I1.454 J1.302 K0.000 F60.000
G2 X16.905 Y70.058 Z-2.400 I1.845 J0.893 K0.000 F60.000
G1 X16.905 Y70.058 Z-2.700 F30.000
G2 X17.502 Y71.698 Z-2.700 I2.042 J0.184 K0.000 F60.000
G3 X17.198 Y69.249 Z-2.700 I1.662 J-1.450 K0.000 F60.000
G2 X17.504 Y68.736 Z-2.700 I-2.349 J-1.748 K0.000 F60.000
G2 X17.479 Y68.720 Z-2.700 I-0.016 J-0.002 K0.000 F60.000
G2 X17.101 Y69.350 Z-2.700 I1.454 J1.302 K0.000 F60.000
G2 X16.905 Y70.058 Z-2.700 I1.845 J0.893 K0.000 F60.000
G1 X16.905 Y70.058 Z-3.000 F30.000
G2 X17.502 Y71.698 Z-3.000 I2.042 J0.184 K0.000 F60.000
G3 X17.198 Y69.249 Z-3.000 I1.662 J-1.450 K0.000 F60.000
G2 X17.504 Y68.736 Z-3.000 I-2.349 J-1.748 K0.000 F60.000
G2 X17.479 Y68.720 Z-3.000 I-0.016 J-0.002 K0.000 F60.000
G2 X17.101 Y69.350 Z-3.000 I1.454 J1.302 K0.000 F60.000
G2 X16.905 Y70.058 Z-3.000 I1.845 J0.893 K0.000 F60.000
G1 X16.905 Y70.058 Z-3.300 F30.000
G2 X17.502 Y71.698 Z-3.300 I2.042 J0.184 K0.000 F60.000
G3 X17.198 Y69.249 Z-3.300 I1.662 J-1.450 K0.000 F60.000
G2 X17.504 Y68.736 Z-3.300 I-2.349 J-1.748 K0.000 F60.000
G2 X17.479 Y68.720 Z-3.300 I-0.016 J-0.002 K0.000 F60.000
G2 X17.101 Y69.350 Z-3.300 I1.454 J1.302 K0.000 F60.000
G2 X16.905 Y70.058 Z-3.300 I1.845 J0.893 K0.000 F60.000
G1 X16.905 Y70.058 Z-3.600 F30.000
G2 X17.502 Y71.698 Z-3.600 I2.042 J0.184 K0.000 F60.000
G3 X17.198 Y69.249 Z-3.600 I1.662 J-1.450 K0.000 F60.000
G2 X17.504 Y68.736 Z-3.600 I-2.349 J-1.748 K0.000 F60.000
G2 X17.479 Y68.720 Z-3.600 I-0.016 J-0.002 K0.000 F60.000
G2 X17.101 Y69.350 Z-3.600 I1.454 J1.302 K0.000 F60.000
G2 X16.905 Y70.058 Z-3.600 I1.845 J0.893 K0.000 F60.000
G1 X16.905 Y70.058 Z-3.900 F30.000
G2 X17.502 Y71.698 Z-3.900 I2.042 J0.184 K0.000 F60.000
G3 X17.198 Y69.249 Z-3.900 I1.662 J-1.450 K0.000 F60.000
G2 X17.504 Y68.736 Z-3.900 I-2.349 J-1.748 K0.000 F60.000
G2 X17.479 Y68.720 Z-3.900 I-0.016 J-0.002 K0.000 F60.000
G2 X17.101 Y69.350 Z-3.900 I1.454 J1.302 K0.000 F60.000
G2 X16.905 Y70.058 Z-3.900 I1.845 J0.893 K0.000 F60.000
G1 X16.905 Y70.058 Z-4.100 F30.000
G2 X17.502 Y71.698 Z-4.100 I2.042 J0.184 K0.000 F60.000
G3 X17.198 Y69.249 Z-4.100 I1.662 J-1.450 K0.000 F60.000
G2 X17.504 Y68.736 Z-4.100 I-2.349 J-1.748 K0.000 F60.000
G2 X17.479 Y68.720 Z-4.100 I-0.016 J-0.002 K0.000 F60.000
G2 X17.101 Y69.350 Z-4.100 I1.454 J1.302 K0.000 F60.000
G2 X16.905 Y70.058 Z-4.100 I1.845 J0.893 K0.000 F60.000
G0 Z5.000
G0 Z5.000
G0 X16.905 Y70.058
G0 X14.987 Y71.621
G0 X14.987 Y71.621 Z3.000
G1 X14.987 Y71.621 Z-0.300 F30.000
G2 X14.088 Y71.022 Z-0.300 I-1.419 J1.156 K0.000 F60.000
G3 X13.288 Y70.841 Z-0.300 I0.771 J-5.243 K0.000 F60.000
G3 X12.467 Y70.066 Z-0.300 I0.288 J-1.127 K0.000 F60.000
G2 X12.426 Y70.027 Z-0.300 I-0.027 J-0.012 K0.000 F60.000
G2 X13.404 Y70.940 Z-0.300 I1.286 J-0.397 K0.000 F60.000
G3 X14.484 Y71.244 Z-0.300 I-0.235 J2.900 K0.000 F60.000
G3 X15.334 Y72.398 Z-0.300 I-1.073 J1.682 K0.000 F60.000
G1 X15.334 Y72.398 Z-0.300 F60.000
G2 X15.997 Y73.472 Z-0.300 I2.511 J-0.808 K0.000 F60.000
G2 X16.030 Y73.467 Z-0.300 I0.016 J-0.005 K0.000 F60.000
G3 X15.359 Y72.401 Z-0.300 I5.026 J-3.904 K0.000 F60.000
G2 X14.987 Y71.621 Z-0.300 I-1.791 J0.376 K0.000 F60.000
G1 X14.987 Y71.621 Z-0.600 F30.000
G2 X14.088 Y71.022 Z-0.600 I-1.419 J1.156 K0.000 F60.000
G3 X13.288 Y70.841 Z-0.600 I0.771 J-5.243 K0.000 F60.000
G3 X12.467 Y70.066 Z-0.600 I0.288 J-1.127 K0.000 F60.000
G2 X12.426 Y70.027 Z-0.600 I-0.027 J-0.012 K0.000 F60.000
G2 X13.404 Y70.940 Z-0.600 I1.286 J-0.397 K0.000 F60.000
G3 X14.484 Y71.244 Z-0.600 I-0.235 J2.900 K0.000 F60.000
G3 X15.334 Y72.398 Z-0.600 I-1.073 J1.682 K0.000 F60.000
G1 X15.334 Y72.398 Z-0.600 F60.000
G2 X15.997 Y73.472 Z-0.600 I2.511 J-0.808 K0.000 F60.000
G2 X16.030 Y73.467 Z-0.600 I0.016 J-0.005 K0.000 F60.000
G3 X15.359 Y72.401 Z-0.600 I5.026 J-3.904 K0.000 F60.000
G2 X14.987 Y71.621 Z-0.600 I-1.791 J0.376 K0.000 F60.000
G1 X14.987 Y71.621 Z-0.900 F30.000
G2 X14.088 Y71.022 Z-0.900 I-1.419 J1.156 K0.000 F60.000
G3 X13.288 Y70.841 Z-0.900 I0.771 J-5.243 K0.000 F60.000
G3 X12.467 Y70.066 Z-0.900 I0.288 J-1.127 K0.000 F60.000
G2 X12.426 Y70.027 Z-0.900 I-0.027 J-0.012 K0.000 F60.000
G2 X13.404 Y70.940 Z-0.900 I1.286 J-0.397 K0.000 F60.000
G3 X14.484 Y71.244 Z-0.900 I-0.235 J2.900 K0.000 F60.000
G3 X15.334 Y72.398 Z-0.900 I-1.073 J1.682 K0.000 F60.000
G1 X15.334 Y72.398 Z-0.900 F60.000
G2 X15.997 Y73.472 Z-0.900 I2.511 J-0.808 K0.000 F60.000
G2 X16.030 Y73.467 Z-0.900 I0.016 J-0.005 K0.000 F60.000
G3 X15.359 Y72.401 Z-0.900 I5.026 J-3.904 K0.000 F60.000
G2 X14.987 Y71.621 Z-0.900 I-1.791 J0.376 K0.000 F60.000
G1 X14.987 Y71.621 Z-1.200 F30.000
G2 X14.088 Y71.022 Z-1.200 I-1.419 J1.156 K0.000 F60.000
G3 X13.288 Y70.841 Z-1.200 I0.771 J-5.243 K0.000 F60.000
G3 X12.467 Y70.066 Z-1.200 I0.288 J-1.127 K0.000 F60.000
G2 X12.426 Y70.027 Z-1.200 I-0.027 J-0.012 K0.000 F60.000
G2 X13.404 Y70.940 Z-1.200 I1.286 J-0.397 K0.000 F60.000
G3 X14.484 Y71.244 Z-1.200 I-0.235 J2.900 K0.000 F60.000
G3 X15.334 Y72.398 Z-1.200 I-1.073 J1.682 K0.000 F60.000
G1 X15.334 Y72.398 Z-1.200 F60.000
G2 X15.997 Y73.472 Z-1.200 I2.511 J-0.808 K0.000 F60.000
G2 X16.030 Y73.467 Z-1.200 I0.016 J-0.005 K0.000 F60.000
G3 X15.359 Y72.401 Z-1.200 I5.026 J-3.904 K0.000 F60.000
G2 X14.987 Y71.621 Z-1.200 I-1.791 J0.376 K0.000 F60.000
G1 X14.987 Y71.621 Z-1.500 F30.000
G2 X14.088 Y71.022 Z-1.500 I-1.419 J1.156 K0.000 F60.000
G3 X13.288 Y70.841 Z-1.500 I0.771 J-5.243 K0.000 F60.000
G3 X12.467 Y70.066 Z-1.500 I0.288 J-1.127 K0.000 F60.000
G2 X12.426 Y70.027 Z-1.500 I-0.027 J-0.012 K0.000 F60.000
G2 X13.404 Y70.940 Z-1.500 I1.286 J-0.397 K0.000 F60.000
G3 X14.484 Y71.244 Z-1.500 I-0.235 J2.900 K0.000 F60.000
G3 X15.334 Y72.398 Z-1.500 I-1.073 J1.682 K0.000 F60.000
G1 X15.334 Y72.398 Z-1.500 F60.000
G2 X15.997 Y73.472 Z-1.500 I2.511 J-0.808 K0.000 F60.000
G2 X16.030 Y73.467 Z-1.500 I0.016 J-0.005 K0.000 F60.000
G3 X15.359 Y72.401 Z-1.500 I5.026 J-3.904 K0.000 F60.000
G2 X14.987 Y71.621 Z-1.500 I-1.791 J0.376 K0.000 F60.000
G1 X14.987 Y71.621 Z-1.800 F30.000
G2 X14.088 Y71.022 Z-1.800 I-1.419 J1.156 K0.000 F60.000
G3 X13.288 Y70.841 Z-1.800 I0.771 J-5.243 K0.000 F60.000
G3 X12.467 Y70.066 Z-1.800 I0.288 J-1.127 K0.000 F60.000
G2 X12.426 Y70.027 Z-1.800 I-0.027 J-0.012 K0.000 F60.000
G2 X13.404 Y70.940 Z-1.800 I1.286 J-0.397 K0.000 F60.000
G3 X14.484 Y71.244 Z-1.800 I-0.235 J2.900 K0.000 F60.000
G3 X15.334 Y72.398 Z-1.800 I-1.073 J1.682 K0.000 F60.000
G1 X15.334 Y72.398 Z-1.800 F60.000
G2 X15.997 Y73.472 Z-1.800 I2.511 J-0.808 K0.000 F60.000
G2 X16.030 Y73.467 Z-1.800 I0.016 J-0.005 K0.000 F60.000
G3 X15.359 Y72.401 Z-1.800 I5.026 J-3.904 K0.000 F60.000
G2 X14.987 Y71.621 Z-1.800 I-1.791 J0.376 K0.000 F60.000
G1 X14.987 Y71.621 Z-2.100 F30.000
G2 X14.088 Y71.022 Z-2.100 I-1.419 J1.156 K0.000 F60.000
G3 X13.288 Y70.841 Z-2.100 I0.771 J-5.243 K0.000 F60.000
G3 X12.467 Y70.066 Z-2.100 I0.288 J-1.127 K0.000 F60.000
G2 X12.426 Y70.027 Z-2.100 I-0.027 J-0.012 K0.000 F60.000
G2 X13.404 Y70.940 Z-2.100 I1.286 J-0.397 K0.000 F60.000
G3 X14.484 Y71.244 Z-2.100 I-0.235 J2.900 K0.000 F60.000
G3 X15.334 Y72.398 Z-2.100 I-1.073 J1.682 K0.000 F60.000
G1 X15.334 Y72.398 Z-2.100 F60.000
G2 X15.997 Y73.472 Z-2.100 I2.511 J-0.808 K0.000 F60.000
G2 X16.030 Y73.467 Z-2.100 I0.016 J-0.005 K0.000 F60.000
G3 X15.359 Y72.401 Z-2.100 I5.026 J-3.904 K0.000 F60.000
G2 X14.987 Y71.621 Z-2.100 I-1.791 J0.376 K0.000 F60.000
G1 X14.987 Y71.621 Z-2.400 F30.000
G2 X14.088 Y71.022 Z-2.400 I-1.419 J1.156 K0.000 F60.000
G3 X13.288 Y70.841 Z-2.400 I0.771 J-5.243 K0.000 F60.000
G3 X12.467 Y70.066 Z-2.400 I0.288 J-1.127 K0.000 F60.000
G2 X12.426 Y70.027 Z-2.400 I-0.027 J-0.012 K0.000 F60.000
G2 X13.404 Y70.940 Z-2.400 I1.286 J-0.397 K0.000 F60.000
G3 X14.484 Y71.244 Z-2.400 I-0.235 J2.900 K0.000 F60.000
G3 X15.334 Y72.398 Z-2.400 I-1.073 J1.682 K0.000 F60.000
G1 X15.334 Y72.398 Z-2.400 F60.000
G2 X15.997 Y73.472 Z-2.400 I2.511 J-0.808 K0.000 F60.000
G2 X16.030 Y73.467 Z-2.400 I0.016 J-0.005 K0.000 F60.000
G3 X15.359 Y72.401 Z-2.400 I5.026 J-3.904 K0.000 F60.000
G2 X14.987 Y71.621 Z-2.400 I-1.791 J0.376 K0.000 F60.000
G1 X14.987 Y71.621 Z-2.700 F30.000
G2 X14.088 Y71.022 Z-2.700 I-1.419 J1.156 K0.000 F60.000
G3 X13.288 Y70.841 Z-2.700 I0.771 J-5.243 K0.000 F60.000
G3 X12.467 Y70.066 Z-2.700 I0.288 J-1.127 K0.000 F60.000
G2 X12.426 Y70.027 Z-2.700 I-0.027 J-0.012 K0.000 F60.000
G2 X13.404 Y70.940 Z-2.700 I1.286 J-0.397 K0.000 F60.000
G3 X14.484 Y71.244 Z-2.700 I-0.235 J2.900 K0.000 F60.000
G3 X15.334 Y72.398 Z-2.700 I-1.073 J1.682 K0.000 F60.000
G1 X15.334 Y72.398 Z-2.700 F60.000
G2 X15.997 Y73.472 Z-2.700 I2.511 J-0.808 K0.000 F60.000
G2 X16.030 Y73.467 Z-2.700 I0.016 J-0.005 K0.000 F60.000
G3 X15.359 Y72.401 Z-2.700 I5.026 J-3.904 K0.000 F60.000
G2 X14.987 Y71.621 Z-2.700 I-1.791 J0.376 K0.000 F60.000
G1 X14.987 Y71.621 Z-3.000 F30.000
G2 X14.088 Y71.022 Z-3.000 I-1.419 J1.156 K0.000 F60.000
G3 X13.288 Y70.841 Z-3.000 I0.771 J-5.243 K0.000 F60.000
G3 X12.467 Y70.066 Z-3.000 I0.288 J-1.127 K0.000 F60.000
G2 X12.426 Y70.027 Z-3.000 I-0.027 J-0.012 K0.000 F60.000
G2 X13.404 Y70.940 Z-3.000 I1.286 J-0.397 K0.000 F60.000
G3 X14.484 Y71.244 Z-3.000 I-0.235 J2.900 K0.000 F60.000
G3 X15.334 Y72.398 Z-3.000 I-1.073 J1.682 K0.000 F60.000
G1 X15.334 Y72.398 Z-3.000 F60.000
G2 X15.997 Y73.472 Z-3.000 I2.511 J-0.808 K0.000 F60.000
G2 X16.030 Y73.467 Z-3.000 I0.016 J-0.005 K0.000 F60.000
G3 X15.359 Y72.401 Z-3.000 I5.026 J-3.904 K0.000 F60.000
G2 X14.987 Y71.621 Z-3.000 I-1.791 J0.376 K0.000 F60.000
G1 X14.987 Y71.621 Z-3.300 F30.000
G2 X14.088 Y71.022 Z-3.300 I-1.419 J1.156 K0.000 F60.000
G3 X13.288 Y70.841 Z-3.300 I0.771 J-5.243 K0.000 F60.000
G3 X12.467 Y70.066 Z-3.300 I0.288 J-1.127 K0.000 F60.000
