(Exported by FreeCAD)
(Post Processor: grbl_post)
(Output Time:2024-11-10 09:19:53.168141)
(Begin preamble)
G17 G90
G21
(Begin operation: G54)
(Path: G54)
G54
G0 Z5.000
(Finish operation: G54)
(Begin operation: Bit_1,016)
(Path: Bit_1,016)
(Bit_1,016)
(Begin toolchange)
( M6 T2 )
M3 S10000
(Finish operation: Bit_1,016)
(Begin operation: Profile067)
(Path: Profile067)
(Profile067)
(Compensated Tool Path. Diameter: 1.4)
G0 Z5.000
G0 X19.786 Y11.612
G0 Z3.000
G1 X19.786 Y11.612 Z-0.300 F60.000
G2 X19.130 Y8.652 Z-0.300 I-1.271 J-1.271 K0.000 F60.000
G2 X17.900 Y12.030 Z-0.300 I-0.615 J1.689 K0.000 F60.000
G2 X19.786 Y11.612 Z-0.300 I0.615 J-1.689 K0.000 F60.000
G1 X19.786 Y11.612 Z-0.600 F60.000
G2 X19.130 Y8.652 Z-0.600 I-1.271 J-1.271 K0.000 F60.000
G2 X17.900 Y12.030 Z-0.600 I-0.615 J1.689 K0.000 F60.000
G2 X19.786 Y11.612 Z-0.600 I0.615 J-1.689 K0.000 F60.000
G1 X19.786 Y11.612 Z-0.900 F60.000
G2 X19.130 Y8.652 Z-0.900 I-1.271 J-1.271 K0.000 F60.000
G2 X17.900 Y12.030 Z-0.900 I-0.615 J1.689 K0.000 F60.000
G2 X19.786 Y11.612 Z-0.900 I0.615 J-1.689 K0.000 F60.000
G1 X19.786 Y11.612 Z-1.200 F60.000
G2 X19.130 Y8.652 Z-1.200 I-1.271 J-1.271 K0.000 F60.000
G2 X17.900 Y12.030 Z-1.200 I-0.615 J1.689 K0.000 F60.000
G2 X19.786 Y11.612 Z-1.200 I0.615 J-1.689 K0.000 F60.000
G1 X19.786 Y11.612 Z-1.500 F60.000
G2 X19.130 Y8.652 Z-1.500 I-1.271 J-1.271 K0.000 F60.000
G2 X17.900 Y12.030 Z-1.500 I-0.615 J1.689 K0.000 F60.000
G2 X19.786 Y11.612 Z-1.500 I0.615 J-1.689 K0.000 F60.000
G1 X19.786 Y11.612 Z-1.800 F60.000
G2 X19.130 Y8.652 Z-1.800 I-1.271 J-1.271 K0.000 F60.000
G2 X17.900 Y12.030 Z-1.800 I-0.615 J1.689 K0.000 F60.000
G2 X19.786 Y11.612 Z-1.800 I0.615 J-1.689 K0.000 F60.000
G1 X19.786 Y11.612 Z-2.100 F60.000
G2 X19.130 Y8.652 Z-2.100 I-1.271 J-1.271 K0.000 F60.000
G2 X17.900 Y12.030 Z-2.100 I-0.615 J1.689 K0.000 F60.000
G2 X19.786 Y11.612 Z-2.100 I0.615 J-1.689 K0.000 F60.000
G1 X19.786 Y11.612 Z-2.400 F60.000
G2 X19.130 Y8.652 Z-2.400 I-1.271 J-1.271 K0.000 F60.000
G2 X17.900 Y12.030 Z-2.400 I-0.615 J1.689 K0.000 F60.000
G2 X19.786 Y11.612 Z-2.400 I0.615 J-1.689 K0.000 F60.000
G1 X19.786 Y11.612 Z-2.700 F60.000
G2 X19.130 Y8.652 Z-2.700 I-1.271 J-1.271 K0.000 F60.000
G2 X17.900 Y12.030 Z-2.700 I-0.615 J1.689 K0.000 F60.000
G2 X19.786 Y11.612 Z-2.700 I0.615 J-1.689 K0.000 F60.000
G1 X19.786 Y11.612 Z-3.000 F60.000
G2 X19.130 Y8.652 Z-3.000 I-1.271 J-1.271 K0.000 F60.000
G2 X17.900 Y12.030 Z-3.000 I-0.615 J1.689 K0.000 F60.000
G2 X19.786 Y11.612 Z-3.000 I0.615 J-1.689 K0.000 F60.000
G1 X19.786 Y11.612 Z-3.300 F60.000
G2 X19.130 Y8.652 Z-3.300 I-1.271 J-1.271 K0.000 F60.000
G2 X17.900 Y12.030 Z-3.300 I-0.615 J1.689 K0.000 F60.000
G2 X19.786 Y11.612 Z-3.300 I0.615 J-1.689 K0.000 F60.000
G1 X19.786 Y11.612 Z-3.600 F60.000
G2 X19.130 Y8.652 Z-3.600 I-1.271 J-1.271 K0.000 F60.000
G2 X17.900 Y12.030 Z-3.600 I-0.615 J1.689 K0.000 F60.000
G2 X19.786 Y11.612 Z-3.600 I0.615 J-1.689 K0.000 F60.000
G1 X19.786 Y11.612 Z-3.900 F60.000
G2 X19.130 Y8.652 Z-3.900 I-1.271 J-1.271 K0.000 F60.000
G2 X17.900 Y12.030 Z-3.900 I-0.615 J1.689 K0.000 F60.000
G2 X19.786 Y11.612 Z-3.900 I0.615 J-1.689 K0.000 F60.000
G1 X19.786 Y11.612 Z-4.100 F60.000
G2 X19.130 Y8.652 Z-4.100 I-1.271 J-1.271 K0.000 F60.000
G2 X17.900 Y12.030 Z-4.100 I-0.615 J1.689 K0.000 F60.000
G2 X19.786 Y11.612 Z-4.100 I0.615 J-1.689 K0.000 F60.000
G0 Z5.000
G0 Z5.000
G0 X19.786 Y11.612
G0 X18.803 Y19.452
G0 X18.803 Y19.452 Z3.000
G1 X18.803 Y19.452 Z-0.300 F60.000
G2 X17.964 Y22.924 Z-0.300 I-0.224 J1.783 K0.000 F60.000
G2 X20.268 Y21.850 Z-0.300 I0.615 J-1.689 K0.000 F60.000
G2 X19.194 Y19.546 Z-0.300 I-1.689 J-0.615 K0.000 F60.000
G2 X18.803 Y19.452 Z-0.300 I-0.615 J1.689 K0.000 F60.000
G1 X18.803 Y19.452 Z-0.600 F60.000
G2 X17.964 Y22.924 Z-0.600 I-0.224 J1.783 K0.000 F60.000
G2 X20.268 Y21.850 Z-0.600 I0.615 J-1.689 K0.000 F60.000
G2 X19.194 Y19.546 Z-0.600 I-1.689 J-0.615 K0.000 F60.000
G2 X18.803 Y19.452 Z-0.600 I-0.615 J1.689 K0.000 F60.000
G1 X18.803 Y19.452 Z-0.900 F60.000
G2 X17.964 Y22.924 Z-0.900 I-0.224 J1.783 K0.000 F60.000
G2 X20.268 Y21.850 Z-0.900 I0.615 J-1.689 K0.000 F60.000
G2 X19.194 Y19.546 Z-0.900 I-1.689 J-0.615 K0.000 F60.000
G2 X18.803 Y19.452 Z-0.900 I-0.615 J1.689 K0.000 F60.000
G1 X18.803 Y19.452 Z-1.200 F60.000
G2 X17.964 Y22.924 Z-1.200 I-0.224 J1.783 K0.000 F60.000
G2 X20.268 Y21.850 Z-1.200 I0.615 J-1.689 K0.000 F60.000
G2 X19.194 Y19.546 Z-1.200 I-1.689 J-0.615 K0.000 F60.000
G2 X18.803 Y19.452 Z-1.200 I-0.615 J1.689 K0.000 F60.000
G1 X18.803 Y19.452 Z-1.500 F60.000
G2 X17.964 Y22.924 Z-1.500 I-0.224 J1.783 K0.000 F60.000
G2 X20.268 Y21.850 Z-1.500 I0.615 J-1.689 K0.000 F60.000
G2 X19.194 Y19.546 Z-1.500 I-1.689 J-0.615 K0.000 F60.000
G2 X18.803 Y19.452 Z-1.500 I-0.615 J1.689 K0.000 F60.000
G1 X18.803 Y19.452 Z-1.800 F60.000
G2 X17.964 Y22.924 Z-1.800 I-0.224 J1.783 K0.000 F60.000
G2 X20.268 Y21.850 Z-1.800 I0.615 J-1.689 K0.000 F60.000
G2 X19.194 Y19.546 Z-1.800 I-1.689 J-0.615 K0.000 F60.000
G2 X18.803 Y19.452 Z-1.800 I-0.615 J1.689 K0.000 F60.000
G1 X18.803 Y19.452 Z-2.100 F60.000
G2 X17.964 Y22.924 Z-2.100 I-0.224 J1.783 K0.000 F60.000
G2 X20.268 Y21.850 Z-2.100 I0.615 J-1.689 K0.000 F60.000
G2 X19.194 Y19.546 Z-2.100 I-1.689 J-0.615 K0.000 F60.000
G2 X18.803 Y19.452 Z-2.100 I-0.615 J1.689 K0.000 F60.000
G1 X18.803 Y19.452 Z-2.400 F60.000
G2 X17.964 Y22.924 Z-2.400 I-0.224 J1.783 K0.000 F60.000
G2 X20.268 Y21.850 Z-2.400 I0.615 J-1.689 K0.000 F60.000
G2 X19.194 Y19.546 Z-2.400 I-1.689 J-0.615 K0.000 F60.000
G2 X18.803 Y19.452 Z-2.400 I-0.615 J1.689 K0.000 F60.000
G1 X18.803 Y19.452 Z-2.700 F60.000
G2 X17.964 Y22.924 Z-2.700 I-0.224 J1.783 K0.000 F60.000
G2 X20.268 Y21.850 Z-2.700 I0.615 J-1.689 K0.000 F60.000
G2 X19.194 Y19.546 Z-2.700 I-1.689 J-0.615 K0.000 F60.000
G2 X18.803 Y19.452 Z-2.700 I-0.615 J1.689 K0.000 F60.000
G1 X18.803 Y19.452 Z-3.000 F60.000
G2 X17.964 Y22.924 Z-3.000 I-0.224 J1.783 K0.000 F60.000
G2 X20.268 Y21.850 Z-3.000 I0.615 J-1.689 K0.000 F60.000
G2 X19.194 Y19.546 Z-3.000 I-1.689 J-0.615 K0.000 F60.000
G2 X18.803 Y19.452 Z-3.000 I-0.615 J1.689 K0.000 F60.000
G1 X18.803 Y19.452 Z-3.300 F60.000
G2 X17.964 Y22.924 Z-3.300 I-0.224 J1.783 K0.000 F60.000
G2 X20.268 Y21.850 Z-3.300 I0.615 J-1.689 K0.000 F60.000
G2 X19.194 Y19.546 Z-3.300 I-1.689 J-0.615 K0.000 F60.000
G2 X18.803 Y19.452 Z-3.300 I-0.615 J1.689 K0.000 F60.000
G1 X18.803 Y19.452 Z-3.600 F60.000
G2 X17.964 Y22.924 Z-3.600 I-0.224 J1.783 K0.000 F60.000
G2 X20.268 Y21.850 Z-3.600 I0.615 J-1.689 K0.000 F60.000
G2 X19.194 Y19.546 Z-3.600 I-1.689 J-0.615 K0.000 F60.000
G2 X18.803 Y19.452 Z-3.600 I-0.615 J1.689 K0.000 F60.000
G1 X18.803 Y19.452 Z-3.900 F60.000
G2 X17.964 Y22.924 Z-3.900 I-0.224 J1.783 K0.000 F60.000
G2 X20.268 Y21.850 Z-3.900 I0.615 J-1.689 K0.000 F60.000
G2 X19.194 Y19.546 Z-3.900 I-1.689 J-0.615 K0.000 F60.000
G2 X18.803 Y19.452 Z-3.900 I-0.615 J1.689 K0.000 F60.000
G1 X18.803 Y19.452 Z-4.100 F60.000
G2 X17.964 Y22.924 Z-4.100 I-0.224 J1.783 K0.000 F60.000
G2 X20.268 Y21.850 Z-4.100 I0.615 J-1.689 K0.000 F60.000
G2 X19.194 Y19.546 Z-4.100 I-1.689 J-0.615 K0.000 F60.000
G2 X18.803 Y19.452 Z-4.100 I-0.615 J1.689 K0.000 F60.000
G0 Z5.000
G0 Z5.000
G0 X18.803 Y19.452
G0 X18.552 Y30.505
G0 X18.552 Y30.505 Z3.000
G1 X18.552 Y30.505 Z-0.300 F60.000
G2 X17.897 Y33.991 Z-0.300 I-0.041 J1.797 K0.000 F60.000
G2 X20.201 Y32.916 Z-0.300 I0.615 J-1.689 K0.000 F60.000
G2 X19.126 Y30.613 Z-0.300 I-1.689 J-0.615 K0.000 F60.000
G2 X18.552 Y30.505 Z-0.300 I-0.615 J1.689 K0.000 F60.000
G1 X18.552 Y30.505 Z-0.600 F60.000
G2 X17.897 Y33.991 Z-0.600 I-0.041 J1.797 K0.000 F60.000
G2 X20.201 Y32.916 Z-0.600 I0.615 J-1.689 K0.000 F60.000
G2 X19.126 Y30.613 Z-0.600 I-1.689 J-0.615 K0.000 F60.000
G2 X18.552 Y30.505 Z-0.600 I-0.615 J1.689 K0.000 F60.000
G1 X18.552 Y30.505 Z-0.900 F60.000
G2 X17.897 Y33.991 Z-0.900 I-0.041 J1.797 K0.000 F60.000
G2 X20.201 Y32.916 Z-0.900 I0.615 J-1.689 K0.000 F60.000
G2 X19.126 Y30.613 Z-0.900 I-1.689 J-0.615 K0.000 F60.000
G2 X18.552 Y30.505 Z-0.900 I-0.615 J1.689 K0.000 F60.000
G1 X18.552 Y30.505 Z-1.200 F60.000
G2 X17.897 Y33.991 Z-1.200 I-0.041 J1.797 K0.000 F60.000
G2 X20.201 Y32.916 Z-1.200 I0.615 J-1.689 K0.000 F60.000
G2 X19.126 Y30.613 Z-1.200 I-1.689 J-0.615 K0.000 F60.000
G2 X18.552 Y30.505 Z-1.200 I-0.615 J1.689 K0.000 F60.000
G1 X18.552 Y30.505 Z-1.500 F60.000
G2 X17.897 Y33.991 Z-1.500 I-0.041 J1.797 K0.000 F60.000
G2 X20.201 Y32.916 Z-1.500 I0.615 J-1.689 K0.000 F60.000
G2 X19.126 Y30.613 Z-1.500 I-1.689 J-0.615 K0.000 F60.000
G2 X18.552 Y30.505 Z-1.500 I-0.615 J1.689 K0.000 F60.000
G1 X18.552 Y30.505 Z-1.800 F60.000
G2 X17.897 Y33.991 Z-1.800 I-0.041 J1.797 K0.000 F60.000
G2 X20.201 Y32.916 Z-1.800 I0.615 J-1.689 K0.000 F60.000
G2 X19.126 Y30.613 Z-1.800 I-1.689 J-0.615 K0.000 F60.000
G2 X18.552 Y30.505 Z-1.800 I-0.615 J1.689 K0.000 F60.000
G1 X18.552 Y30.505 Z-2.100 F60.000
G2 X17.897 Y33.991 Z-2.100 I-0.041 J1.797 K0.000 F60.000
G2 X20.201 Y32.916 Z-2.100 I0.615 J-1.689 K0.000 F60.000
G2 X19.126 Y30.613 Z-2.100 I-1.689 J-0.615 K0.000 F60.000
G2 X18.552 Y30.505 Z-2.100 I-0.615 J1.689 K0.000 F60.000
G1 X18.552 Y30.505 Z-2.400 F60.000
G2 X17.897 Y33.991 Z-2.400 I-0.041 J1.797 K0.000 F60.000
G2 X20.201 Y32.916 Z-2.400 I0.615 J-1.689 K0.000 F60.000
G2 X19.126 Y30.613 Z-2.400 I-1.689 J-0.615 K0.000 F60.000
G2 X18.552 Y30.505 Z-2.400 I-0.615 J1.689 K0.000 F60.000
G1 X18.552 Y30.505 Z-2.700 F60.000
G2 X17.897 Y33.991 Z-2.700 I-0.041 J1.797 K0.000 F60.000
G2 X20.201 Y32.916 Z-2.700 I0.615 J-1.689 K0.000 F60.000
G2 X19.126 Y30.613 Z-2.700 I-1.689 J-0.615 K0.000 F60.000
G2 X18.552 Y30.505 Z-2.700 I-0.615 J1.689 K0.000 F60.000
G1 X18.552 Y30.505 Z-3.000 F60.000
G2 X17.897 Y33.991 Z-3.000 I-0.041 J1.797 K0.000 F60.000
G2 X20.201 Y32.916 Z-3.000 I0.615 J-1.689 K0.000 F60.000
G2 X19.126 Y30.613 Z-3.000 I-1.689 J-0.615 K0.000 F60.000
G2 X18.552 Y30.505 Z-3.000 I-0.615 J1.689 K0.000 F60.000
G1 X18.552 Y30.505 Z-3.300 F60.000
G2 X17.897 Y33.991 Z-3.300 I-0.041 J1.797 K0.000 F60.000
G2 X20.201 Y32.916 Z-3.300 I0.615 J-1.689 K0.000 F60.000
G2 X19.126 Y30.613 Z-3.300 I-1.689 J-0.615 K0.000 F60.000
G2 X18.552 Y30.505 Z-3.300 I-0.615 J1.689 K0.000 F60.000
G1 X18.552 Y30.505 Z-3.600 F60.000
G2 X17.897 Y33.991 Z-3.600 I-0.041 J1.797 K0.000 F60.000
G2 X20.201 Y32.916 Z-3.600 I0.615 J-1.689 K0.000 F60.000
G2 X19.126 Y30.613 Z-3.600 I-1.689 J-0.615 K0.000 F60.000
G2 X18.552 Y30.505 Z-3.600 I-0.615 J1.689 K0.000 F60.000
G1 X18.552 Y30.505 Z-3.900 F60.000
G2 X17.897 Y33.991 Z-3.900 I-0.041 J1.797 K0.000 F60.000
G2 X20.201 Y32.916 Z-3.900 I0.615 J-1.689 K0.000 F60.000
G2 X19.126 Y30.613 Z-3.900 I-1.689 J-0.615 K0.000 F60.000
G2 X18.552 Y30.505 Z-3.900 I-0.615 J1.689 K0.000 F60.000
G1 X18.552 Y30.505 Z-4.100 F60.000
G2 X17.897 Y33.991 Z-4.100 I-0.041 J1.797 K0.000 F60.000
G2 X20.201 Y32.916 Z-4.100 I0.615 J-1.689 K0.000 F60.000
G2 X19.126 Y30.613 Z-4.100 I-1.689 J-0.615 K0.000 F60.000
G2 X18.552 Y30.505 Z-4.100 I-0.615 J1.689 K0.000 F60.000
G0 Z5.000
G0 Z5.000
G0 X18.552 Y30.505
G0 X70.827 Y21.626
G0 X70.827 Y21.626 Z3.000
G1 X70.827 Y21.626 Z-0.300 F60.000
G2 X72.982 Y23.890 Z-0.300 I2.759 J-0.469 K0.000 F60.000
G2 X76.318 Y21.762 Z-0.300 I0.604 J-2.732 K0.000 F60.000
G2 X74.190 Y18.425 Z-0.300 I-2.732 J-0.604 K0.000 F60.000
G2 X70.827 Y21.626 Z-0.300 I-0.604 J2.732 K0.000 F60.000
G1 X70.827 Y21.626 Z-0.600 F60.000
G2 X72.982 Y23.890 Z-0.600 I2.759 J-0.469 K0.000 F60.000
G2 X76.318 Y21.762 Z-0.600 I0.604 J-2.732 K0.000 F60.000
G2 X74.190 Y18.425 Z-0.600 I-2.732 J-0.604 K0.000 F60.000
G2 X70.827 Y21.626 Z-0.600 I-0.604 J2.732 K0.000 F60.000
G1 X70.827 Y21.626 Z-0.900 F60.000
G2 X72.982 Y23.890 Z-0.900 I2.759 J-0.469 K0.000 F60.000
G2 X76.318 Y21.762 Z-0.900 I0.604 J-2.732 K0.000 F60.000
G2 X74.190 Y18.425 Z-0.900 I-2.732 J-0.604 K0.000 F60.000
G2 X70.827 Y21.626 Z-0.900 I-0.604 J2.732 K0.000 F60.000
G1 X70.827 Y21.626 Z-1.200 F60.000
G2 X72.982 Y23.890 Z-1.200 I2.759 J-0.469 K0.000 F60.000
G2 X76.318 Y21.762 Z-1.200 I0.604 J-2.732 K0.000 F60.000
G2 X74.190 Y18.425 Z-1.200 I-2.732 J-0.604 K0.000 F60.000
G2 X70.827 Y21.626 Z-1.200 I-0.604 J2.732 K0.000 F60.000
G1 X70.827 Y21.626 Z-1.500 F60.000
G2 X72.982 Y23.890 Z-1.500 I2.759 J-0.469 K0.000 F60.000
G2 X76.318 Y21.762 Z-1.500 I0.604 J-2.732 K0.000 F60.000
G2 X74.190 Y18.425 Z-1.500 I-2.732 J-0.604 K0.000 F60.000
G2 X70.827 Y21.626 Z-1.500 I-0.604 J2.732 K0.000 F60.000
G1 X70.827 Y21.626 Z-1.800 F60.000
G2 X72.982 Y23.890 Z-1.800 I2.759 J-0.469 K0.000 F60.000
G2 X76.318 Y21.762 Z-1.800 I0.604 J-2.732 K0.000 F60.000
G2 X74.190 Y18.425 Z-1.800 I-2.732 J-0.604 K0.000 F60.000
G2 X70.827 Y21.626 Z-1.800 I-0.604 J2.732 K0.000 F60.000
G1 X70.827 Y21.626 Z-2.100 F60.000
G2 X72.982 Y23.890 Z-2.100 I2.759 J-0.469 K0.000 F60.000
G2 X76.318 Y21.762 Z-2.100 I0.604 J-2.732 K0.000 F60.000
G2 X74.190 Y18.425 Z-2.100 I-2.732 J-0.604 K0.000 F60.000
G2 X70.827 Y21.626 Z-2.100 I-0.604 J2.732 K0.000 F60.000
G1 X70.827 Y21.626 Z-2.400 F60.000
G2 X72.982 Y23.890 Z-2.400 I2.759 J-0.469 K0.000 F60.000
G2 X76.318 Y21.762 Z-2.400 I0.604 J-2.732 K0.000 F60.000
G2 X74.190 Y18.425 Z-2.400 I-2.732 J-0.604 K0.000 F60.000
G2 X70.827 Y21.626 Z-2.400 I-0.604 J2.732 K0.000 F60.000
G1 X70.827 Y21.626 Z-2.700 F60.000
G2 X72.982 Y23.890 Z-2.700 I2.759 J-0.469 K0.000 F60.000
G2 X76.318 Y21.762 Z-2.700 I0.604 J-2.732 K0.000 F60.000
G2 X74.190 Y18.425 Z-2.700 I-2.732 J-0.604 K0.000 F60.000
G2 X70.827 Y21.626 Z-2.700 I-0.604 J2.732 K0.000 F60.000
G1 X70.827 Y21.626 Z-3.000 F60.000
G2 X72.982 Y23.890 Z-3.000 I2.759 J-0.469 K0.000 F60.000
G2 X76.318 Y21.762 Z-3.000 I0.604 J-2.732 K0.000 F60.000
G2 X74.190 Y18.425 Z-3.000 I-2.732 J-0.604 K0.000 F60.000
G2 X70.827 Y21.626 Z-3.000 I-0.604 J2.732 K0.000 F60.000
G1 X70.827 Y21.626 Z-3.300 F60.000
G2 X72.982 Y23.890 Z-3.300 I2.759 J-0.469 K0.000 F60.000
G2 X76.318 Y21.762 Z-3.300 I0.604 J-2.732 K0.000 F60.000
G2 X74.190 Y18.425 Z-3.300 I-2.732 J-0.604 K0.000 F60.000
G2 X70.827 Y21.626 Z-3.300 I-0.604 J2.732 K0.000 F60.000
G1 X70.827 Y21.626 Z-3.600 F60.000
G2 X72.982 Y23.890 Z-3.600 I2.759 J-0.469 K0.000 F60.000
G2 X76.318 Y21.762 Z-3.600 I0.604 J-2.732 K0.000 F60.000
G2 X74.190 Y18.425 Z-3.600 I-2.732 J-0.604 K0.000 F60.000
G2 X70.827 Y21.626 Z-3.600 I-0.604 J2.732 K0.000 F60.000
G1 X70.827 Y21.626 Z-3.900 F60.000
G2 X72.982 Y23.890 Z-3.900 I2.759 J-0.469 K0.000 F60.000
G2 X76.318 Y21.762 Z-3.900 I0.604 J-2.732 K0.000 F60.000
G2 X74.190 Y18.425 Z-3.900 I-2.732 J-0.604 K0.000 F60.000
G2 X70.827 Y21.626 Z-3.900 I-0.604 J2.732 K0.000 F60.000
G1 X70.827 Y21.626 Z-4.100 F60.000
G2 X72.982 Y23.890 Z-4.100 I2.759 J-0.469 K0.000 F60.000
G2 X76.318 Y21.762 Z-4.100 I0.604 J-2.732 K0.000 F60.000
G2 X74.190 Y18.425 Z-4.100 I-2.732 J-0.604 K0.000 F60.000
G2 X70.827 Y21.626 Z-4.100 I-0.604 J2.732 K0.000 F60.000
G0 Z5.000
G0 Z5.000
G0 X70.827 Y21.626
G0 X115.957 Y29.453
G0 X115.957 Y29.453 Z3.000
G1 X115.957 Y29.453 Z-0.300 F60.000
G2 X118.739 Y32.731 Z-0.300 I2.758 J0.478 K0.000 F60.000
G1 X125.698 Y32.731 Z-0.300 F60.000
G1 X126.141 Y32.698 Z-0.300 F60.000
G2 X125.698 Y27.131 Z-0.300 I-0.418 J-2.768 K0.000 F60.000
G1 X118.739 Y27.131 Z-0.300 F60.000
G1 X118.316 Y27.161 Z-0.300 F60.000
G2 X115.957 Y29.453 Z-0.300 I0.399 J2.771 K0.000 F60.000
G1 X115.957 Y29.453 Z-0.600 F60.000
G2 X118.739 Y32.731 Z-0.600 I2.758 J0.478 K0.000 F60.000
G1 X125.698 Y32.731 Z-0.600 F60.000
G1 X126.141 Y32.698 Z-0.600 F60.000
G2 X125.698 Y27.131 Z-0.600 I-0.418 J-2.768 K0.000 F60.000
G1 X118.739 Y27.131 Z-0.600 F60.000
G1 X118.316 Y27.161 Z-0.600 F60.000
G2 X115.957 Y29.453 Z-0.600 I0.399 J2.771 K0.000 F60.000
G1 X115.957 Y29.453 Z-0.900 F60.000
G2 X118.739 Y32.731 Z-0.900 I2.758 J0.478 K0.000 F60.000
G1 X125.698 Y32.731 Z-0.900 F60.000
G1 X126.141 Y32.698 Z-0.900 F60.000
G2 X125.698 Y27.131 Z-0.900 I-0.418 J-2.768 K0.000 F60.000
G1 X118.739 Y27.131 Z-0.900 F60.000
G1 X118.316 Y27.161 Z-0.900 F60.000
G2 X115.957 Y29.453 Z-0.900 I0.399 J2.771 K0.000 F60.000
G1 X115.957 Y29.453 Z-1.200 F60.000
G2 X118.739 Y32.731 Z-1.200 I2.758 J0.478 K0.000 F60.000
G1 X125.698 Y32.731 Z-1.200 F60.000
G1 X126.141 Y32.698 Z-1.200 F60.000
G2 X125.698 Y27.131 Z-1.200 I-0.418 J-2.768 K0.000 F60.000
G1 X118.739 Y27.131 Z-1.200 F60.000
G1 X118.316 Y27.161 Z-1.200 F60.000
G2 X115.957 Y29.453 Z-1.200 I0.399 J2.771 K0.000 F60.000
G1 X115.957 Y29.453 Z-1.500 F60.000
G2 X118.739 Y32.731 Z-1.500 I2.758 J0.478 K0.000 F60.000
G1 X125.698 Y32.731 Z-1.500 F60.000
G1 X126.141 Y32.698 Z-1.500 F60.000
G2 X125.698 Y27.131 Z-1.500 I-0.418 J-2.768 K0.000 F60.000
G1 X118.739 Y27.131 Z-1.500 F60.000
G1 X118.316 Y27.161 Z-1.500 F60.000
G2 X115.957 Y29.453 Z-1.500 I0.399 J2.771 K0.000 F60.000
G1 X115.957 Y29.453 Z-1.800 F60.000
G2 X118.739 Y32.731 Z-1.800 I2.758 J0.478 K0.000 F60.000
G1 X125.698 Y32.731 Z-1.800 F60.000
G1 X126.141 Y32.698 Z-1.800 F60.000
G2 X125.698 Y27.131 Z-1.800 I-0.418 J-2.768 K0.000 F60.000
G1 X118.739 Y27.131 Z-1.800 F60.000
G1 X118.316 Y27.161 Z-1.800 F60.000
G2 X115.957 Y29.453 Z-1.800 I0.399 J2.771 K0.000 F60.000
G1 X115.957 Y29.453 Z-2.100 F60.000
G2 X118.739 Y32.731 Z-2.100 I2.758 J0.478 K0.000 F60.000
G1 X125.698 Y32.731 Z-2.100 F60.000
G1 X126.141 Y32.698 Z-2.100 F60.000
G2 X125.698 Y27.131 Z-2.100 I-0.418 J-2.768 K0.000 F60.000
G1 X118.739 Y27.131 Z-2.100 F60.000
G1 X118.316 Y27.161 Z-2.100 F60.000
G2 X115.957 Y29.453 Z-2.100 I0.399 J2.771 K0.000 F60.000
G1 X115.957 Y29.453 Z-2.400 F60.000
G2 X118.739 Y32.731 Z-2.400 I2.758 J0.478 K0.000 F60.000
G1 X125.698 Y32.731 Z-2.400 F60.000
G1 X126.141 Y32.698 Z-2.400 F60.000
G2 X125.698 Y27.131 Z-2.400 I-0.418 J-2.768 K0.000 F60.000
G1 X118.739 Y27.131 Z-2.400 F60.000
G1 X118.316 Y27.161 Z-2.400 F60.000
G2 X115.957 Y29.453 Z-2.400 I0.399 J2.771 K0.000 F60.000
G1 X115.957 Y29.453 Z-2.700 F60.000
G2 X118.739 Y32.731 Z-2.700 I2.758 J0.478 K0.000 F60.000
G1 X125.698 Y32.731 Z-2.700 F60.000
G1 X126.141 Y32.698 Z-2.700 F60.000
G2 X125.698 Y27.131 Z-2.700 I-0.418 J-2.768 K0.000 F60.000
G1 X118.739 Y27.131 Z-2.700 F60.000
G1 X118.316 Y27.161 Z-2.700 F60.000
G2 X115.957 Y29.453 Z-2.700 I0.399 J2.771 K0.000 F60.000
G1 X115.957 Y29.453 Z-3.000 F60.000
G2 X118.739 Y32.731 Z-3.000 I2.758 J0.478 K0.000 F60.000
G1 X125.698 Y32.731 Z-3.000 F60.000
G1 X126.141 Y32.698 Z-3.000 F60.000
G2 X125.698 Y27.131 Z-3.000 I-0.418 J-2.768 K0.000 F60.000
G1 X118.739 Y27.131 Z-3.000 F60.000
G1 X118.316 Y27.161 Z-3.000 F60.000
G2 X115.957 Y29.453 Z-3.000 I0.399 J2.771 K0.000 F60.000
G1 X115.957 Y29.453 Z-3.300 F60.000
G2 X118.739 Y32.731 Z-3.300 I2.758 J0.478 K0.000 F60.000
G1 X125.698 Y32.731 Z-3.300 F60.000
G1 X126.141 Y32.698 Z-3.300 F60.000
G2 X125.698 Y27.131 Z-3.300 I-0.418 J-2.768 K0.000 F60.000
G1 X118.739 Y27.131 Z-3.300 F60.000
G1 X118.316 Y27.161 Z-3.300 F60.000
G2 X115.957 Y29.453 Z-3.300 I0.399 J2.771 K0.000 F60.000
G1 X115.957 Y29.453 Z-3.600 F60.000
G2 X118.739 Y32.731 Z-3.600 I2.758 J0.478 K0.000 F60.000
G1 X125.698 Y32.731 Z-3.600 F60.000
G1 X126.141 Y32.698 Z-3.600 F60.000
G2 X125.698 Y27.131 Z-3.600 I-0.418 J-2.768 K0.000 F60.000
G1 X118.739 Y27.131 Z-3.600 F60.000
G1 X118.316 Y27.161 Z-3.600 F60.000
G2 X115.957 Y29.453 Z-3.600 I0.399 J2.771 K0.000 F60.000
G1 X115.957 Y29.453 Z-3.900 F60.000
G2 X118.739 Y32.731 Z-3.900 I2.758 J0.478 K0.000 F60.000
G1 X125.698 Y32.731 Z-3.900 F60.000
G1 X126.141 Y32.698 Z-3.900 F60.000
G2 X125.698 Y27.131 Z-3.900 I-0.418 J-2.768 K0.000 F60.000
G1 X118.739 Y27.131 Z-3.900 F60.000
G1 X118.316 Y27.161 Z-3.900 F60.000
G2 X115.957 Y29.453 Z-3.900 I0.399 J2.771 K0.000 F60.000
G1 X115.957 Y29.453 Z-4.100 F60.000
G2 X118.739 Y32.731 Z-4.100 I2.758 J0.478 K0.000 F60.000
G1 X125.698 Y32.731 Z-4.100 F60.000
G1 X126.141 Y32.698 Z-4.100 F60.000
G2 X125.698 Y27.131 Z-4.100 I-0.418 J-2.768 K0.000 F60.000
G1 X118.739 Y27.131 Z-4.100 F60.000
G1 X118.316 Y27.161 Z-4.100 F60.000
G2 X115.957 Y29.453 Z-4.100 I0.399 J2.771 K0.000 F60.000
G0 Z5.000
G0 Z5.000
(Finish operation: Profile067)
(Begin operation: Profile068)
(Path: Profile068)
(Profile068)
(Compensated Tool Path. Diameter: 1.4)
G0 Z5.000
G0 X147.494 Y43.427
G0 Z3.000
G1 X147.494 Y43.427 Z-0.300 F60.000
G2 X147.699 Y42.932 Z-0.300 I-0.495 J-0.495 K0.000 F60.000
G1 X147.699 Y1.037 Z-0.300 F60.000
G2 X146.999 Y0.337 Z-0.300 I-0.700 J0.000 K0.000 F60.000
G1 X1.003 Y0.337 Z-0.300 F60.000
G2 X0.303 Y1.037 Z-0.300 I0.000 J0.700 K0.000 F60.000
G1 X0.303 Y42.932 Z-0.300 F60.000
G2 X1.003 Y43.632 Z-0.300 I0.700 J-0.000 K0.000 F60.000
G1 X146.999 Y43.632 Z-0.300 F60.000
G2 X147.494 Y43.427 Z-0.300 I-0.000 J-0.700 K0.000 F60.000
G1 X147.494 Y43.427 Z-0.600 F60.000
G2 X147.699 Y42.932 Z-0.600 I-0.495 J-0.495 K0.000 F60.000
G1 X147.699 Y1.037 Z-0.600 F60.000
G2 X146.999 Y0.337 Z-0.600 I-0.700 J0.000 K0.000 F60.000
G1 X1.003 Y0.337 Z-0.600 F60.000
G2 X0.303 Y1.037 Z-0.600 I0.000 J0.700 K0.000 F60.000
G1 X0.303 Y42.932 Z-0.600 F60.000
G2 X1.003 Y43.632 Z-0.600 I0.700 J-0.000 K0.000 F60.000
G1 X146.999 Y43.632 Z-0.600 F60.000
G2 X147.494 Y43.427 Z-0.600 I-0.000 J-0.700 K0.000 F60.000
G1 X147.494 Y43.427 Z-0.900 F60.000
G2 X147.699 Y42.932 Z-0.900 I-0.495 J-0.495 K0.000 F60.000
G1 X147.699 Y1.037 Z-0.900 F60.000
G2 X146.999 Y0.337 Z-0.900 I-0.700 J0.000 K0.000 F60.000
G1 X1.003 Y0.337 Z-0.900 F60.000
G2 X0.303 Y1.037 Z-0.900 I0.000 J0.700 K0.000 F60.000
G1 X0.303 Y42.932 Z-0.900 F60.000
G2 X1.003 Y43.632 Z-0.900 I0.700 J-0.000 K0.000 F60.000
G1 X146.999 Y43.632 Z-0.900 F60.000
G2 X147.494 Y43.427 Z-0.900 I-0.000 J-0.700 K0.000 F60.000
G1 X147.494 Y43.427 Z-1.200 F60.000
G2 X147.699 Y42.932 Z-1.200 I-0.495 J-0.495 K0.000 F60.000
G1 X147.699 Y1.037 Z-1.200 F60.000
G2 X146.999 Y0.337 Z-1.200 I-0.700 J0.000 K0.000 F60.000
G1 X1.003 Y0.337 Z-1.200 F60.000
G2 X0.303 Y1.037 Z-1.200 I0.000 J0.700 K0.000 F60.000
G1 X0.303 Y42.932 Z-1.200 F60.000
G2 X1.003 Y43.632 Z-1.200 I0.700 J-0.000 K0.000 F60.000
G1 X146.999 Y43.632 Z-1.200 F60.000
G2 X147.494 Y43.427 Z-1.200 I-0.000 J-0.700 K0.000 F60.000
G1 X147.494 Y43.427 Z-1.500 F60.000
G2 X147.699 Y42.932 Z-1.500 I-0.495 J-0.495 K0.000 F60.000
G1 X147.699 Y1.037 Z-1.500 F60.000
G2 X146.999 Y0.337 Z-1.500 I-0.700 J0.000 K0.000 F60.000
G1 X1.003 Y0.337 Z-1.500 F60.000
G2 X0.303 Y1.037 Z-1.500 I0.000 J0.700 K0.000 F60.000
G1 X0.303 Y42.932 Z-1.500 F60.000
G2 X1.003 Y43.632 Z-1.500 I0.700 J-0.000 K0.000 F60.000
G1 X146.999 Y43.632 Z-1.500 F60.000
G2 X147.494 Y43.427 Z-1.500 I-0.000 J-0.700 K0.000 F60.000
G1 X147.494 Y43.427 Z-1.800 F60.000
G2 X147.699 Y42.932 Z-1.800 I-0.495 J-0.495 K0.000 F60.000
G1 X147.699 Y1.037 Z-1.800 F60.000
G2 X146.999 Y0.337 Z-1.800 I-0.700 J0.000 K0.000 F60.000
G1 X1.003 Y0.337 Z-1.800 F60.000
G2 X0.303 Y1.037 Z-1.800 I0.000 J0.700 K0.000 F60.000
G1 X0.303 Y42.932 Z-1.800 F60.000
G2 X1.003 Y43.632 Z-1.800 I0.700 J-0.000 K0.000 F60.000
G1 X146.999 Y43.632 Z-1.800 F60.000
G2 X147.494 Y43.427 Z-1.800 I-0.000 J-0.700 K0.000 F60.000
G1 X147.494 Y43.427 Z-2.100 F60.000
G2 X147.699 Y42.932 Z-2.100 I-0.495 J-0.495 K0.000 F60.000
G1 X147.699 Y1.037 Z-2.100 F60.000
G2 X146.999 Y0.337 Z-2.100 I-0.700 J0.000 K0.000 F60.000
G1 X1.003 Y0.337 Z-2.100 F60.000
G2 X0.303 Y1.037 Z-2.100 I0.000 J0.700 K0.000 F60.000
G1 X0.303 Y42.932 Z-2.100 F60.000
G2 X1.003 Y43.632 Z-2.100 I0.700 J-0.000 K0.000 F60.000
G1 X146.999 Y43.632 Z-2.100 F60.000
G2 X147.494 Y43.427 Z-2.100 I-0.000 J-0.700 K0.000 F60.000
G1 X147.494 Y43.427 Z-2.400 F60.000
G2 X147.699 Y42.932 Z-2.400 I-0.495 J-0.495 K0.000 F60.000
G1 X147.699 Y1.037 Z-2.400 F60.000
G2 X146.999 Y0.337 Z-2.400 I-0.700 J0.000 K0.000 F60.000
G1 X1.003 Y0.337 Z-2.400 F60.000
G2 X0.303 Y1.037 Z-2.400 I0.000 J0.700 K0.000 F60.000
G1 X0.303 Y42.932 Z-2.400 F60.000
G2 X1.003 Y43.632 Z-2.400 I0.700 J-0.000 K0.000 F60.000
G1 X146.999 Y43.632 Z-2.400 F60.000
G2 X147.494 Y43.427 Z-2.400 I-0.000 J-0.700 K0.000 F60.000
G1 X147.494 Y43.427 Z-2.700 F60.000
G2 X147.699 Y42.932 Z-2.700 I-0.495 J-0.495 K0.000 F60.000
G1 X147.699 Y1.037 Z-2.700 F60.000
G2 X146.999 Y0.337 Z-2.700 I-0.700 J0.000 K0.000 F60.000
G1 X1.003 Y0.337 Z-2.700 F60.000
G2 X0.303 Y1.037 Z-2.700 I0.000 J0.700 K0.000 F60.000
G1 X0.303 Y42.932 Z-2.700 F60.000
G2 X1.003 Y43.632 Z-2.700 I0.700 J-0.000 K0.000 F60.000
G1 X146.999 Y43.632 Z-2.700 F60.000
G2 X147.494 Y43.427 Z-2.700 I-0.000 J-0.700 K0.000 F60.000
G1 X147.494 Y43.427 Z-3.000 F60.000
G2 X147.699 Y42.932 Z-3.000 I-0.495 J-0.495 K0.000 F60.000
G1 X147.699 Y1.037 Z-3.000 F60.000
G2 X146.999 Y0.337 Z-3.000 I-0.700 J0.000 K0.000 F60.000
G1 X1.003 Y0.337 Z-3.000 F60.000
G2 X0.303 Y1.037 Z-3.000 I0.000 J0.700 K0.000 F60.000
G1 X0.303 Y42.932 Z-3.000 F60.000
G2 X1.003 Y43.632 Z-3.000 I0.700 J-0.000 K0.000 F60.000
G1 X146.999 Y43.632 Z-3.000 F60.000
G2 X147.494 Y43.427 Z-3.000 I-0.000 J-0.700 K0.000 F60.000
G1 X147.494 Y43.427 Z-3.300 F60.000
G2 X147.699 Y42.932 Z-3.300 I-0.495 J-0.495 K0.000 F60.000
G1 X147.699 Y1.037 Z-3.300 F60.000
G2 X146.999 Y0.337 Z-3.300 I-0.700 J0.000 K0.000 F60.000
G1 X1.003 Y0.337 Z-3.300 F60.000
G2 X0.303 Y1.037 Z-3.300 I0.000 J0.700 K0.000 F60.000
G1 X0.303 Y42.932 Z-3.300 F60.000
G2 X1.003 Y43.632 Z-3.300 I0.700 J-0.000 K0.000 F60.000
G1 X146.999 Y43.632 Z-3.300 F60.000
G2 X147.494 Y43.427 Z-3.300 I-0.000 J-0.700 K0.000 F60.000
G1 X147.494 Y43.427 Z-3.600 F60.000
G2 X147.699 Y42.932 Z-3.600 I-0.495 J-0.495 K0.000 F60.000
G1 X147.699 Y1.037 Z-3.600 F60.000
G2 X146.999 Y0.337 Z-3.600 I-0.700 J0.000 K0.000 F60.000
G1 X1.003 Y0.337 Z-3.600 F60.000
G2 X0.303 Y1.037 Z-3.600 I0.000 J0.700 K0.000 F60.000
G1 X0.303 Y42.932 Z-3.600 F60.000
G2 X1.003 Y43.632 Z-3.600 I0.700 J-0.000 K0.000 F60.000
G1 X146.999 Y43.632 Z-3.600 F60.000
G2 X147.494 Y43.427 Z-3.600 I-0.000 J-0.700 K0.000 F60.000
G1 X147.494 Y43.427 Z-3.900 F60.000
G2 X147.699 Y42.932 Z-3.900 I-0.495 J-0.495 K0.000 F60.000
G1 X147.699 Y1.037 Z-3.900 F60.000
G2 X146.999 Y0.337 Z-3.900 I-0.700 J0.000 K0.000 F60.000
G1 X1.003 Y0.337 Z-3.900 F60.000
G2 X0.303 Y1.037 Z-3.900 I0.000 J0.700 K0.000 F60.000
G1 X0.303 Y42.932 Z-3.900 F60.000
G2 X1.003 Y43.632 Z-3.900 I0.700 J-0.000 K0.000 F60.000
G1 X146.999 Y43.632 Z-3.900 F60.000
G2 X147.494 Y43.427 Z-3.900 I-0.000 J-0.700 K0.000 F60.000
G1 X147.494 Y43.427 Z-4.100 F60.000
G2 X147.699 Y42.932 Z-4.100 I-0.495 J-0.495 K0.000 F60.000
G1 X147.699 Y1.037 Z-4.100 F60.000
G2 X146.999 Y0.337 Z-4.100 I-0.700 J0.000 K0.000 F60.000
G1 X1.003 Y0.337 Z-4.100 F60.000
G2 X0.303 Y1.037 Z-4.100 I0.000 J0.700 K0.000 F60.000
G1 X0.303 Y42.932 Z-4.100 F60.000
G2 X1.003 Y43.632 Z-4.100 I0.700 J-0.000 K0.000 F60.000
G1 X146.999 Y43.632 Z-4.100 F60.000
G2 X147.494 Y43.427 Z-4.100 I-0.000 J-0.700 K0.000 F60.000
G0 Z5.000
G0 Z5.000
(Finish operation: Profile068)
G0 X0 Y0
(Begin postamble)
M5
G17 G90
M2
