(Exported by FreeCAD)
(Post Processor: grbl_post)
(Output Time:2023-01-15 18:11:07.287825)
(Begin preamble)
G17 G90
G21
(Begin operation: G54)
(Path: G54)
G54
G0 Z5.000
(Finish operation: G54)
(Begin operation: 0,8mm_Endmill001)
(Path: 0,8mm_Endmill001)
(0,8mm_Endmill001)
(Begin toolchange)
( M6 T1 )
M3 S10000
(Finish operation: 0,8mm_Endmill001)
(Begin operation: DBM_Kopf)
(Path: DBM_Kopf)
(DBM_Kopf)
(Compensated Tool Path. Diameter: 0.8)
G0 Z5.000
G0 X24.111 Y80.515
G0 X24.113 Y80.512
G0 X24.113 Y80.512 Z3.000
G1 X24.113 Y80.512 Z-0.300 F60.000
G2 X24.029 Y80.388 Z-0.300 I-0.088 J-0.031 K0.000 F60.000
G2 X23.902 Y80.374 Z-0.300 I-0.084 J0.184 K0.000 F60.000
G2 X23.892 Y80.421 Z-0.300 I0.007 J0.026 K0.000 F60.000
G3 X24.076 Y80.522 Z-0.300 I-0.594 J1.308 K0.000 F60.000
G2 X24.113 Y80.512 Z-0.300 I0.012 J-0.032 K0.000 F60.000
G1 X24.113 Y80.512 Z-0.600 F60.000
G2 X24.029 Y80.388 Z-0.600 I-0.088 J-0.031 K0.000 F60.000
G2 X23.902 Y80.374 Z-0.600 I-0.084 J0.184 K0.000 F60.000
G2 X23.892 Y80.421 Z-0.600 I0.007 J0.026 K0.000 F60.000
G3 X24.076 Y80.522 Z-0.600 I-0.594 J1.308 K0.000 F60.000
G2 X24.113 Y80.512 Z-0.600 I0.012 J-0.032 K0.000 F60.000
G1 X24.113 Y80.512 Z-0.900 F60.000
G2 X24.029 Y80.388 Z-0.900 I-0.088 J-0.031 K0.000 F60.000
G2 X23.902 Y80.374 Z-0.900 I-0.084 J0.184 K0.000 F60.000
G2 X23.892 Y80.421 Z-0.900 I0.007 J0.026 K0.000 F60.000
G3 X24.076 Y80.522 Z-0.900 I-0.594 J1.308 K0.000 F60.000
G2 X24.113 Y80.512 Z-0.900 I0.012 J-0.032 K0.000 F60.000
G1 X24.113 Y80.512 Z-1.200 F60.000
G2 X24.029 Y80.388 Z-1.200 I-0.088 J-0.031 K0.000 F60.000
G2 X23.902 Y80.374 Z-1.200 I-0.084 J0.184 K0.000 F60.000
G2 X23.892 Y80.421 Z-1.200 I0.007 J0.026 K0.000 F60.000
G3 X24.076 Y80.522 Z-1.200 I-0.594 J1.308 K0.000 F60.000
G2 X24.113 Y80.512 Z-1.200 I0.012 J-0.032 K0.000 F60.000
G1 X24.113 Y80.512 Z-1.500 F60.000
G2 X24.029 Y80.388 Z-1.500 I-0.088 J-0.031 K0.000 F60.000
G2 X23.902 Y80.374 Z-1.500 I-0.084 J0.184 K0.000 F60.000
G2 X23.892 Y80.421 Z-1.500 I0.007 J0.026 K0.000 F60.000
G3 X24.076 Y80.522 Z-1.500 I-0.594 J1.308 K0.000 F60.000
G2 X24.113 Y80.512 Z-1.500 I0.012 J-0.032 K0.000 F60.000
G1 X24.113 Y80.512 Z-1.800 F60.000
G2 X24.029 Y80.388 Z-1.800 I-0.088 J-0.031 K0.000 F60.000
G2 X23.902 Y80.374 Z-1.800 I-0.084 J0.184 K0.000 F60.000
G2 X23.892 Y80.421 Z-1.800 I0.007 J0.026 K0.000 F60.000
G3 X24.076 Y80.522 Z-1.800 I-0.594 J1.308 K0.000 F60.000
G2 X24.113 Y80.512 Z-1.800 I0.012 J-0.032 K0.000 F60.000
G1 X24.113 Y80.512 Z-2.100 F60.000
G2 X24.029 Y80.388 Z-2.100 I-0.088 J-0.031 K0.000 F60.000
G2 X23.902 Y80.374 Z-2.100 I-0.084 J0.184 K0.000 F60.000
G2 X23.892 Y80.421 Z-2.100 I0.007 J0.026 K0.000 F60.000
G3 X24.076 Y80.522 Z-2.100 I-0.594 J1.308 K0.000 F60.000
G2 X24.113 Y80.512 Z-2.100 I0.012 J-0.032 K0.000 F60.000
G1 X24.113 Y80.512 Z-2.400 F60.000
G2 X24.029 Y80.388 Z-2.400 I-0.088 J-0.031 K0.000 F60.000
G2 X23.902 Y80.374 Z-2.400 I-0.084 J0.184 K0.000 F60.000
G2 X23.892 Y80.421 Z-2.400 I0.007 J0.026 K0.000 F60.000
G3 X24.076 Y80.522 Z-2.400 I-0.594 J1.308 K0.000 F60.000
G2 X24.113 Y80.512 Z-2.400 I0.012 J-0.032 K0.000 F60.000
G1 X24.113 Y80.512 Z-2.700 F60.000
G2 X24.029 Y80.388 Z-2.700 I-0.088 J-0.031 K0.000 F60.000
G2 X23.902 Y80.374 Z-2.700 I-0.084 J0.184 K0.000 F60.000
G2 X23.892 Y80.421 Z-2.700 I0.007 J0.026 K0.000 F60.000
G3 X24.076 Y80.522 Z-2.700 I-0.594 J1.308 K0.000 F60.000
G2 X24.113 Y80.512 Z-2.700 I0.012 J-0.032 K0.000 F60.000
G1 X24.113 Y80.512 Z-3.000 F60.000
G2 X24.029 Y80.388 Z-3.000 I-0.088 J-0.031 K0.000 F60.000
G2 X23.902 Y80.374 Z-3.000 I-0.084 J0.184 K0.000 F60.000
G2 X23.892 Y80.421 Z-3.000 I0.007 J0.026 K0.000 F60.000
G3 X24.076 Y80.522 Z-3.000 I-0.594 J1.308 K0.000 F60.000
G2 X24.113 Y80.512 Z-3.000 I0.012 J-0.032 K0.000 F60.000
G1 X24.113 Y80.512 Z-3.300 F60.000
G2 X24.029 Y80.388 Z-3.300 I-0.088 J-0.031 K0.000 F60.000
G2 X23.902 Y80.374 Z-3.300 I-0.084 J0.184 K0.000 F60.000
G2 X23.892 Y80.421 Z-3.300 I0.007 J0.026 K0.000 F60.000
G3 X24.076 Y80.522 Z-3.300 I-0.594 J1.308 K0.000 F60.000
G2 X24.113 Y80.512 Z-3.300 I0.012 J-0.032 K0.000 F60.000
G1 X24.113 Y80.512 Z-3.600 F60.000
G2 X24.029 Y80.388 Z-3.600 I-0.088 J-0.031 K0.000 F60.000
G2 X23.902 Y80.374 Z-3.600 I-0.084 J0.184 K0.000 F60.000
G2 X23.892 Y80.421 Z-3.600 I0.007 J0.026 K0.000 F60.000
G3 X24.076 Y80.522 Z-3.600 I-0.594 J1.308 K0.000 F60.000
G2 X24.113 Y80.512 Z-3.600 I0.012 J-0.032 K0.000 F60.000
G1 X24.113 Y80.512 Z-3.900 F60.000
G2 X24.029 Y80.388 Z-3.900 I-0.088 J-0.031 K0.000 F60.000
G2 X23.902 Y80.374 Z-3.900 I-0.084 J0.184 K0.000 F60.000
G2 X23.892 Y80.421 Z-3.900 I0.007 J0.026 K0.000 F60.000
G3 X24.076 Y80.522 Z-3.900 I-0.594 J1.308 K0.000 F60.000
G2 X24.113 Y80.512 Z-3.900 I0.012 J-0.032 K0.000 F60.000
G1 X24.113 Y80.512 Z-4.000 F60.000
G2 X24.029 Y80.388 Z-4.000 I-0.088 J-0.031 K0.000 F60.000
G2 X23.902 Y80.374 Z-4.000 I-0.084 J0.184 K0.000 F60.000
G2 X23.892 Y80.421 Z-4.000 I0.007 J0.026 K0.000 F60.000
G3 X24.076 Y80.522 Z-4.000 I-0.594 J1.308 K0.000 F60.000
G2 X24.113 Y80.512 Z-4.000 I0.012 J-0.032 K0.000 F60.000
G0 Z5.000
G0 Z5.000
G0 X24.113 Y80.512
G0 X22.802 Y79.749
G0 X22.802 Y79.749 Z3.000
G1 X22.802 Y79.749 Z-0.300 F60.000
G1 X22.801 Y79.740 Z-0.300 F60.000
G2 X22.246 Y80.133 Z-0.300 I0.041 J0.645 K0.000 F60.000
G3 X21.591 Y81.182 Z-0.300 I-2.880 J-1.070 K0.000 F60.000
G2 X21.221 Y82.223 Z-0.300 I0.646 J0.816 K0.000 F60.000
G2 X21.237 Y82.220 Z-0.300 I0.005 J-0.020 K0.000 F60.000
G3 X21.474 Y81.395 Z-0.300 I1.373 J-0.052 K0.000 F60.000
G2 X22.139 Y80.510 Z-0.300 I-2.008 J-2.204 K0.000 F60.000
G3 X22.802 Y79.749 Z-0.300 I1.026 J0.224 K0.000 F60.000
G1 X22.802 Y79.749 Z-0.600 F60.000
G1 X22.801 Y79.740 Z-0.600 F60.000
G2 X22.246 Y80.133 Z-0.600 I0.041 J0.645 K0.000 F60.000
G3 X21.591 Y81.182 Z-0.600 I-2.880 J-1.070 K0.000 F60.000
G2 X21.221 Y82.223 Z-0.600 I0.646 J0.816 K0.000 F60.000
G2 X21.237 Y82.220 Z-0.600 I0.005 J-0.020 K0.000 F60.000
G3 X21.474 Y81.395 Z-0.600 I1.373 J-0.052 K0.000 F60.000
G2 X22.139 Y80.510 Z-0.600 I-2.008 J-2.204 K0.000 F60.000
G3 X22.802 Y79.749 Z-0.600 I1.026 J0.224 K0.000 F60.000
G1 X22.802 Y79.749 Z-0.900 F60.000
G1 X22.801 Y79.740 Z-0.900 F60.000
G2 X22.246 Y80.133 Z-0.900 I0.041 J0.645 K0.000 F60.000
G3 X21.591 Y81.182 Z-0.900 I-2.880 J-1.070 K0.000 F60.000
G2 X21.221 Y82.223 Z-0.900 I0.646 J0.816 K0.000 F60.000
G2 X21.237 Y82.220 Z-0.900 I0.005 J-0.020 K0.000 F60.000
G3 X21.474 Y81.395 Z-0.900 I1.373 J-0.052 K0.000 F60.000
G2 X22.139 Y80.510 Z-0.900 I-2.008 J-2.204 K0.000 F60.000
G3 X22.802 Y79.749 Z-0.900 I1.026 J0.224 K0.000 F60.000
G1 X22.802 Y79.749 Z-1.200 F60.000
G1 X22.801 Y79.740 Z-1.200 F60.000
G2 X22.246 Y80.133 Z-1.200 I0.041 J0.645 K0.000 F60.000
G3 X21.591 Y81.182 Z-1.200 I-2.880 J-1.070 K0.000 F60.000
G2 X21.221 Y82.223 Z-1.200 I0.646 J0.816 K0.000 F60.000
G2 X21.237 Y82.220 Z-1.200 I0.005 J-0.020 K0.000 F60.000
G3 X21.474 Y81.395 Z-1.200 I1.373 J-0.052 K0.000 F60.000
G2 X22.139 Y80.510 Z-1.200 I-2.008 J-2.204 K0.000 F60.000
G3 X22.802 Y79.749 Z-1.200 I1.026 J0.224 K0.000 F60.000
G1 X22.802 Y79.749 Z-1.500 F60.000
G1 X22.801 Y79.740 Z-1.500 F60.000
G2 X22.246 Y80.133 Z-1.500 I0.041 J0.645 K0.000 F60.000
G3 X21.591 Y81.182 Z-1.500 I-2.880 J-1.070 K0.000 F60.000
G2 X21.221 Y82.223 Z-1.500 I0.646 J0.816 K0.000 F60.000
G2 X21.237 Y82.220 Z-1.500 I0.005 J-0.020 K0.000 F60.000
G3 X21.474 Y81.395 Z-1.500 I1.373 J-0.052 K0.000 F60.000
G2 X22.139 Y80.510 Z-1.500 I-2.008 J-2.204 K0.000 F60.000
G3 X22.802 Y79.749 Z-1.500 I1.026 J0.224 K0.000 F60.000
G1 X22.802 Y79.749 Z-1.800 F60.000
G1 X22.801 Y79.740 Z-1.800 F60.000
G2 X22.246 Y80.133 Z-1.800 I0.041 J0.645 K0.000 F60.000
G3 X21.591 Y81.182 Z-1.800 I-2.880 J-1.070 K0.000 F60.000
G2 X21.221 Y82.223 Z-1.800 I0.646 J0.816 K0.000 F60.000
G2 X21.237 Y82.220 Z-1.800 I0.005 J-0.020 K0.000 F60.000
G3 X21.474 Y81.395 Z-1.800 I1.373 J-0.052 K0.000 F60.000
G2 X22.139 Y80.510 Z-1.800 I-2.008 J-2.204 K0.000 F60.000
G3 X22.802 Y79.749 Z-1.800 I1.026 J0.224 K0.000 F60.000
G1 X22.802 Y79.749 Z-2.100 F60.000
G1 X22.801 Y79.740 Z-2.100 F60.000
G2 X22.246 Y80.133 Z-2.100 I0.041 J0.645 K0.000 F60.000
G3 X21.591 Y81.182 Z-2.100 I-2.880 J-1.070 K0.000 F60.000
G2 X21.221 Y82.223 Z-2.100 I0.646 J0.816 K0.000 F60.000
G2 X21.237 Y82.220 Z-2.100 I0.005 J-0.020 K0.000 F60.000
G3 X21.474 Y81.395 Z-2.100 I1.373 J-0.052 K0.000 F60.000
G2 X22.139 Y80.510 Z-2.100 I-2.008 J-2.204 K0.000 F60.000
G3 X22.802 Y79.749 Z-2.100 I1.026 J0.224 K0.000 F60.000
G1 X22.802 Y79.749 Z-2.400 F60.000
G1 X22.801 Y79.740 Z-2.400 F60.000
G2 X22.246 Y80.133 Z-2.400 I0.041 J0.645 K0.000 F60.000
G3 X21.591 Y81.182 Z-2.400 I-2.880 J-1.070 K0.000 F60.000
G2 X21.221 Y82.223 Z-2.400 I0.646 J0.816 K0.000 F60.000
G2 X21.237 Y82.220 Z-2.400 I0.005 J-0.020 K0.000 F60.000
G3 X21.474 Y81.395 Z-2.400 I1.373 J-0.052 K0.000 F60.000
G2 X22.139 Y80.510 Z-2.400 I-2.008 J-2.204 K0.000 F60.000
G3 X22.802 Y79.749 Z-2.400 I1.026 J0.224 K0.000 F60.000
G1 X22.802 Y79.749 Z-2.700 F60.000
G1 X22.801 Y79.740 Z-2.700 F60.000
G2 X22.246 Y80.133 Z-2.700 I0.041 J0.645 K0.000 F60.000
G3 X21.591 Y81.182 Z-2.700 I-2.880 J-1.070 K0.000 F60.000
G2 X21.221 Y82.223 Z-2.700 I0.646 J0.816 K0.000 F60.000
G2 X21.237 Y82.220 Z-2.700 I0.005 J-0.020 K0.000 F60.000
G3 X21.474 Y81.395 Z-2.700 I1.373 J-0.052 K0.000 F60.000
G2 X22.139 Y80.510 Z-2.700 I-2.008 J-2.204 K0.000 F60.000
G3 X22.802 Y79.749 Z-2.700 I1.026 J0.224 K0.000 F60.000
G1 X22.802 Y79.749 Z-3.000 F60.000
G1 X22.801 Y79.740 Z-3.000 F60.000
G2 X22.246 Y80.133 Z-3.000 I0.041 J0.645 K0.000 F60.000
G3 X21.591 Y81.182 Z-3.000 I-2.880 J-1.070 K0.000 F60.000
G2 X21.221 Y82.223 Z-3.000 I0.646 J0.816 K0.000 F60.000
G2 X21.237 Y82.220 Z-3.000 I0.005 J-0.020 K0.000 F60.000
G3 X21.474 Y81.395 Z-3.000 I1.373 J-0.052 K0.000 F60.000
G2 X22.139 Y80.510 Z-3.000 I-2.008 J-2.204 K0.000 F60.000
G3 X22.802 Y79.749 Z-3.000 I1.026 J0.224 K0.000 F60.000
G1 X22.802 Y79.749 Z-3.300 F60.000
G1 X22.801 Y79.740 Z-3.300 F60.000
G2 X22.246 Y80.133 Z-3.300 I0.041 J0.645 K0.000 F60.000
G3 X21.591 Y81.182 Z-3.300 I-2.880 J-1.070 K0.000 F60.000
G2 X21.221 Y82.223 Z-3.300 I0.646 J0.816 K0.000 F60.000
G2 X21.237 Y82.220 Z-3.300 I0.005 J-0.020 K0.000 F60.000
G3 X21.474 Y81.395 Z-3.300 I1.373 J-0.052 K0.000 F60.000
G2 X22.139 Y80.510 Z-3.300 I-2.008 J-2.204 K0.000 F60.000
G3 X22.802 Y79.749 Z-3.300 I1.026 J0.224 K0.000 F60.000
G1 X22.802 Y79.749 Z-3.600 F60.000
G1 X22.801 Y79.740 Z-3.600 F60.000
G2 X22.246 Y80.133 Z-3.600 I0.041 J0.645 K0.000 F60.000
G3 X21.591 Y81.182 Z-3.600 I-2.880 J-1.070 K0.000 F60.000
G2 X21.221 Y82.223 Z-3.600 I0.646 J0.816 K0.000 F60.000
G2 X21.237 Y82.220 Z-3.600 I0.005 J-0.020 K0.000 F60.000
G3 X21.474 Y81.395 Z-3.600 I1.373 J-0.052 K0.000 F60.000
G2 X22.139 Y80.510 Z-3.600 I-2.008 J-2.204 K0.000 F60.000
G3 X22.802 Y79.749 Z-3.600 I1.026 J0.224 K0.000 F60.000
G1 X22.802 Y79.749 Z-3.900 F60.000
G1 X22.801 Y79.740 Z-3.900 F60.000
G2 X22.246 Y80.133 Z-3.900 I0.041 J0.645 K0.000 F60.000
G3 X21.591 Y81.182 Z-3.900 I-2.880 J-1.070 K0.000 F60.000
G2 X21.221 Y82.223 Z-3.900 I0.646 J0.816 K0.000 F60.000
G2 X21.237 Y82.220 Z-3.900 I0.005 J-0.020 K0.000 F60.000
G3 X21.474 Y81.395 Z-3.900 I1.373 J-0.052 K0.000 F60.000
G2 X22.139 Y80.510 Z-3.900 I-2.008 J-2.204 K0.000 F60.000
G3 X22.802 Y79.749 Z-3.900 I1.026 J0.224 K0.000 F60.000
G1 X22.802 Y79.749 Z-4.000 F60.000
G1 X22.801 Y79.740 Z-4.000 F60.000
G2 X22.246 Y80.133 Z-4.000 I0.041 J0.645 K0.000 F60.000
G3 X21.591 Y81.182 Z-4.000 I-2.880 J-1.070 K0.000 F60.000
G2 X21.221 Y82.223 Z-4.000 I0.646 J0.816 K0.000 F60.000
G2 X21.237 Y82.220 Z-4.000 I0.005 J-0.020 K0.000 F60.000
G3 X21.474 Y81.395 Z-4.000 I1.373 J-0.052 K0.000 F60.000
G2 X22.139 Y80.510 Z-4.000 I-2.008 J-2.204 K0.000 F60.000
G3 X22.802 Y79.749 Z-4.000 I1.026 J0.224 K0.000 F60.000
G0 Z5.000
G0 Z5.000
G0 X22.802 Y79.749
G0 X22.370 Y82.788
G0 X22.370 Y82.788 Z3.000
G1 X22.370 Y82.788 Z-0.300 F60.000
G2 X22.088 Y82.879 Z-0.300 I-0.048 J0.336 K0.000 F60.000
G2 X22.109 Y82.895 Z-0.300 I0.030 J-0.018 K0.000 F60.000
G3 X22.536 Y82.908 Z-0.300 I0.196 J0.559 K0.000 F60.000
G2 X22.567 Y82.882 Z-0.300 I0.004 J-0.026 K0.000 F60.000
G2 X22.478 Y82.823 Z-0.300 I-0.177 J0.167 K0.000 F60.000
G2 X22.370 Y82.788 Z-0.300 I-0.155 J0.301 K0.000 F60.000
G1 X22.370 Y82.788 Z-0.600 F60.000
G2 X22.088 Y82.879 Z-0.600 I-0.048 J0.336 K0.000 F60.000
G2 X22.109 Y82.895 Z-0.600 I0.030 J-0.018 K0.000 F60.000
G3 X22.536 Y82.908 Z-0.600 I0.196 J0.559 K0.000 F60.000
G2 X22.567 Y82.882 Z-0.600 I0.004 J-0.026 K0.000 F60.000
G2 X22.478 Y82.823 Z-0.600 I-0.177 J0.167 K0.000 F60.000
G2 X22.370 Y82.788 Z-0.600 I-0.155 J0.301 K0.000 F60.000
G1 X22.370 Y82.788 Z-0.900 F60.000
G2 X22.088 Y82.879 Z-0.900 I-0.048 J0.336 K0.000 F60.000
G2 X22.109 Y82.895 Z-0.900 I0.030 J-0.018 K0.000 F60.000
G3 X22.536 Y82.908 Z-0.900 I0.196 J0.559 K0.000 F60.000
G2 X22.567 Y82.882 Z-0.900 I0.004 J-0.026 K0.000 F60.000
G2 X22.478 Y82.823 Z-0.900 I-0.177 J0.167 K0.000 F60.000
G2 X22.370 Y82.788 Z-0.900 I-0.155 J0.301 K0.000 F60.000
G1 X22.370 Y82.788 Z-1.200 F60.000
G2 X22.088 Y82.879 Z-1.200 I-0.048 J0.336 K0.000 F60.000
G2 X22.109 Y82.895 Z-1.200 I0.030 J-0.018 K0.000 F60.000
G3 X22.536 Y82.908 Z-1.200 I0.196 J0.559 K0.000 F60.000
G2 X22.567 Y82.882 Z-1.200 I0.004 J-0.026 K0.000 F60.000
G2 X22.478 Y82.823 Z-1.200 I-0.177 J0.167 K0.000 F60.000
G2 X22.370 Y82.788 Z-1.200 I-0.155 J0.301 K0.000 F60.000
G1 X22.370 Y82.788 Z-1.500 F60.000
G2 X22.088 Y82.879 Z-1.500 I-0.048 J0.336 K0.000 F60.000
G2 X22.109 Y82.895 Z-1.500 I0.030 J-0.018 K0.000 F60.000
G3 X22.536 Y82.908 Z-1.500 I0.196 J0.559 K0.000 F60.000
G2 X22.567 Y82.882 Z-1.500 I0.004 J-0.026 K0.000 F60.000
G2 X22.478 Y82.823 Z-1.500 I-0.177 J0.167 K0.000 F60.000
G2 X22.370 Y82.788 Z-1.500 I-0.155 J0.301 K0.000 F60.000
G1 X22.370 Y82.788 Z-1.800 F60.000
G2 X22.088 Y82.879 Z-1.800 I-0.048 J0.336 K0.000 F60.000
G2 X22.109 Y82.895 Z-1.800 I0.030 J-0.018 K0.000 F60.000
G3 X22.536 Y82.908 Z-1.800 I0.196 J0.559 K0.000 F60.000
G2 X22.567 Y82.882 Z-1.800 I0.004 J-0.026 K0.000 F60.000
G2 X22.478 Y82.823 Z-1.800 I-0.177 J0.167 K0.000 F60.000
G2 X22.370 Y82.788 Z-1.800 I-0.155 J0.301 K0.000 F60.000
G1 X22.370 Y82.788 Z-2.100 F60.000
G2 X22.088 Y82.879 Z-2.100 I-0.048 J0.336 K0.000 F60.000
G2 X22.109 Y82.895 Z-2.100 I0.030 J-0.018 K0.000 F60.000
G3 X22.536 Y82.908 Z-2.100 I0.196 J0.559 K0.000 F60.000
G2 X22.567 Y82.882 Z-2.100 I0.004 J-0.026 K0.000 F60.000
G2 X22.478 Y82.823 Z-2.100 I-0.177 J0.167 K0.000 F60.000
G2 X22.370 Y82.788 Z-2.100 I-0.155 J0.301 K0.000 F60.000
G1 X22.370 Y82.788 Z-2.400 F60.000
G2 X22.088 Y82.879 Z-2.400 I-0.048 J0.336 K0.000 F60.000
G2 X22.109 Y82.895 Z-2.400 I0.030 J-0.018 K0.000 F60.000
G3 X22.536 Y82.908 Z-2.400 I0.196 J0.559 K0.000 F60.000
G2 X22.567 Y82.882 Z-2.400 I0.004 J-0.026 K0.000 F60.000
G2 X22.478 Y82.823 Z-2.400 I-0.177 J0.167 K0.000 F60.000
G2 X22.370 Y82.788 Z-2.400 I-0.155 J0.301 K0.000 F60.000
G1 X22.370 Y82.788 Z-2.700 F60.000
G2 X22.088 Y82.879 Z-2.700 I-0.048 J0.336 K0.000 F60.000
G2 X22.109 Y82.895 Z-2.700 I0.030 J-0.018 K0.000 F60.000
G3 X22.536 Y82.908 Z-2.700 I0.196 J0.559 K0.000 F60.000
G2 X22.567 Y82.882 Z-2.700 I0.004 J-0.026 K0.000 F60.000
G2 X22.478 Y82.823 Z-2.700 I-0.177 J0.167 K0.000 F60.000
G2 X22.370 Y82.788 Z-2.700 I-0.155 J0.301 K0.000 F60.000
G1 X22.370 Y82.788 Z-3.000 F60.000
G2 X22.088 Y82.879 Z-3.000 I-0.048 J0.336 K0.000 F60.000
G2 X22.109 Y82.895 Z-3.000 I0.030 J-0.018 K0.000 F60.000
G3 X22.536 Y82.908 Z-3.000 I0.196 J0.559 K0.000 F60.000
G2 X22.567 Y82.882 Z-3.000 I0.004 J-0.026 K0.000 F60.000
G2 X22.478 Y82.823 Z-3.000 I-0.177 J0.167 K0.000 F60.000
G2 X22.370 Y82.788 Z-3.000 I-0.155 J0.301 K0.000 F60.000
G1 X22.370 Y82.788 Z-3.300 F60.000
G2 X22.088 Y82.879 Z-3.300 I-0.048 J0.336 K0.000 F60.000
G2 X22.109 Y82.895 Z-3.300 I0.030 J-0.018 K0.000 F60.000
G3 X22.536 Y82.908 Z-3.300 I0.196 J0.559 K0.000 F60.000
G2 X22.567 Y82.882 Z-3.300 I0.004 J-0.026 K0.000 F60.000
G2 X22.478 Y82.823 Z-3.300 I-0.177 J0.167 K0.000 F60.000
G2 X22.370 Y82.788 Z-3.300 I-0.155 J0.301 K0.000 F60.000
G1 X22.370 Y82.788 Z-3.600 F60.000
G2 X22.088 Y82.879 Z-3.600 I-0.048 J0.336 K0.000 F60.000
G2 X22.109 Y82.895 Z-3.600 I0.030 J-0.018 K0.000 F60.000
G3 X22.536 Y82.908 Z-3.600 I0.196 J0.559 K0.000 F60.000
G2 X22.567 Y82.882 Z-3.600 I0.004 J-0.026 K0.000 F60.000
G2 X22.478 Y82.823 Z-3.600 I-0.177 J0.167 K0.000 F60.000
G2 X22.370 Y82.788 Z-3.600 I-0.155 J0.301 K0.000 F60.000
G1 X22.370 Y82.788 Z-3.900 F60.000
G2 X22.088 Y82.879 Z-3.900 I-0.048 J0.336 K0.000 F60.000
G2 X22.109 Y82.895 Z-3.900 I0.030 J-0.018 K0.000 F60.000
G3 X22.536 Y82.908 Z-3.900 I0.196 J0.559 K0.000 F60.000
G2 X22.567 Y82.882 Z-3.900 I0.004 J-0.026 K0.000 F60.000
G2 X22.478 Y82.823 Z-3.900 I-0.177 J0.167 K0.000 F60.000
G2 X22.370 Y82.788 Z-3.900 I-0.155 J0.301 K0.000 F60.000
G1 X22.370 Y82.788 Z-4.000 F60.000
G2 X22.088 Y82.879 Z-4.000 I-0.048 J0.336 K0.000 F60.000
G2 X22.109 Y82.895 Z-4.000 I0.030 J-0.018 K0.000 F60.000
G3 X22.536 Y82.908 Z-4.000 I0.196 J0.559 K0.000 F60.000
G2 X22.567 Y82.882 Z-4.000 I0.004 J-0.026 K0.000 F60.000
G2 X22.478 Y82.823 Z-4.000 I-0.177 J0.167 K0.000 F60.000
G2 X22.370 Y82.788 Z-4.000 I-0.155 J0.301 K0.000 F60.000
G0 Z5.000
G0 Z5.000
G0 X22.370 Y82.788
G0 X24.099 Y83.111
G0 X24.099 Y83.111 Z3.000
G1 X24.099 Y83.111 Z-0.300 F60.000
G2 X24.101 Y83.141 Z-0.300 I0.057 J0.011 K0.000 F60.000
G3 X24.744 Y83.400 Z-0.300 I0.084 J0.720 K0.000 F60.000
G2 X24.764 Y83.373 Z-0.300 I-0.002 J-0.022 K0.000 F60.000
G2 X24.471 Y83.122 Z-0.300 I-0.460 J0.239 K0.000 F60.000
G2 X24.191 Y83.077 Z-0.300 I-0.261 J0.729 K0.000 F60.000
G2 X24.099 Y83.111 Z-0.300 I-0.036 J0.045 K0.000 F60.000
G1 X24.099 Y83.111 Z-0.600 F60.000
G2 X24.101 Y83.141 Z-0.600 I0.057 J0.011 K0.000 F60.000
G3 X24.744 Y83.400 Z-0.600 I0.084 J0.720 K0.000 F60.000
G2 X24.764 Y83.373 Z-0.600 I-0.002 J-0.022 K0.000 F60.000
G2 X24.471 Y83.122 Z-0.600 I-0.460 J0.239 K0.000 F60.000
G2 X24.191 Y83.077 Z-0.600 I-0.261 J0.729 K0.000 F60.000
G2 X24.099 Y83.111 Z-0.600 I-0.036 J0.045 K0.000 F60.000
G1 X24.099 Y83.111 Z-0.900 F60.000
G2 X24.101 Y83.141 Z-0.900 I0.057 J0.011 K0.000 F60.000
G3 X24.744 Y83.400 Z-0.900 I0.084 J0.720 K0.000 F60.000
G2 X24.764 Y83.373 Z-0.900 I-0.002 J-0.022 K0.000 F60.000
G2 X24.471 Y83.122 Z-0.900 I-0.460 J0.239 K0.000 F60.000
G2 X24.191 Y83.077 Z-0.900 I-0.261 J0.729 K0.000 F60.000
G2 X24.099 Y83.111 Z-0.900 I-0.036 J0.045 K0.000 F60.000
G1 X24.099 Y83.111 Z-1.200 F60.000
G2 X24.101 Y83.141 Z-1.200 I0.057 J0.011 K0.000 F60.000
G3 X24.744 Y83.400 Z-1.200 I0.084 J0.720 K0.000 F60.000
G2 X24.764 Y83.373 Z-1.200 I-0.002 J-0.022 K0.000 F60.000
G2 X24.471 Y83.122 Z-1.200 I-0.460 J0.239 K0.000 F60.000
G2 X24.191 Y83.077 Z-1.200 I-0.261 J0.729 K0.000 F60.000
G2 X24.099 Y83.111 Z-1.200 I-0.036 J0.045 K0.000 F60.000
G1 X24.099 Y83.111 Z-1.500 F60.000
G2 X24.101 Y83.141 Z-1.500 I0.057 J0.011 K0.000 F60.000
G3 X24.744 Y83.400 Z-1.500 I0.084 J0.720 K0.000 F60.000
G2 X24.764 Y83.373 Z-1.500 I-0.002 J-0.022 K0.000 F60.000
G2 X24.471 Y83.122 Z-1.500 I-0.460 J0.239 K0.000 F60.000
G2 X24.191 Y83.077 Z-1.500 I-0.261 J0.729 K0.000 F60.000
G2 X24.099 Y83.111 Z-1.500 I-0.036 J0.045 K0.000 F60.000
G1 X24.099 Y83.111 Z-1.800 F60.000
G2 X24.101 Y83.141 Z-1.800 I0.057 J0.011 K0.000 F60.000
G3 X24.744 Y83.400 Z-1.800 I0.084 J0.720 K0.000 F60.000
G2 X24.764 Y83.373 Z-1.800 I-0.002 J-0.022 K0.000 F60.000
G2 X24.471 Y83.122 Z-1.800 I-0.460 J0.239 K0.000 F60.000
G2 X24.191 Y83.077 Z-1.800 I-0.261 J0.729 K0.000 F60.000
G2 X24.099 Y83.111 Z-1.800 I-0.036 J0.045 K0.000 F60.000
G1 X24.099 Y83.111 Z-2.100 F60.000
G2 X24.101 Y83.141 Z-2.100 I0.057 J0.011 K0.000 F60.000
G3 X24.744 Y83.400 Z-2.100 I0.084 J0.720 K0.000 F60.000
G2 X24.764 Y83.373 Z-2.100 I-0.002 J-0.022 K0.000 F60.000
G2 X24.471 Y83.122 Z-2.100 I-0.460 J0.239 K0.000 F60.000
G2 X24.191 Y83.077 Z-2.100 I-0.261 J0.729 K0.000 F60.000
G2 X24.099 Y83.111 Z-2.100 I-0.036 J0.045 K0.000 F60.000
G1 X24.099 Y83.111 Z-2.400 F60.000
G2 X24.101 Y83.141 Z-2.400 I0.057 J0.011 K0.000 F60.000
G3 X24.744 Y83.400 Z-2.400 I0.084 J0.720 K0.000 F60.000
G2 X24.764 Y83.373 Z-2.400 I-0.002 J-0.022 K0.000 F60.000
G2 X24.471 Y83.122 Z-2.400 I-0.460 J0.239 K0.000 F60.000
G2 X24.191 Y83.077 Z-2.400 I-0.261 J0.729 K0.000 F60.000
G2 X24.099 Y83.111 Z-2.400 I-0.036 J0.045 K0.000 F60.000
G1 X24.099 Y83.111 Z-2.700 F60.000
G2 X24.101 Y83.141 Z-2.700 I0.057 J0.011 K0.000 F60.000
G3 X24.744 Y83.400 Z-2.700 I0.084 J0.720 K0.000 F60.000
G2 X24.764 Y83.373 Z-2.700 I-0.002 J-0.022 K0.000 F60.000
G2 X24.471 Y83.122 Z-2.700 I-0.460 J0.239 K0.000 F60.000
G2 X24.191 Y83.077 Z-2.700 I-0.261 J0.729 K0.000 F60.000
G2 X24.099 Y83.111 Z-2.700 I-0.036 J0.045 K0.000 F60.000
G1 X24.099 Y83.111 Z-3.000 F60.000
G2 X24.101 Y83.141 Z-3.000 I0.057 J0.011 K0.000 F60.000
G3 X24.744 Y83.400 Z-3.000 I0.084 J0.720 K0.000 F60.000
G2 X24.764 Y83.373 Z-3.000 I-0.002 J-0.022 K0.000 F60.000
G2 X24.471 Y83.122 Z-3.000 I-0.460 J0.239 K0.000 F60.000
G2 X24.191 Y83.077 Z-3.000 I-0.261 J0.729 K0.000 F60.000
G2 X24.099 Y83.111 Z-3.000 I-0.036 J0.045 K0.000 F60.000
G1 X24.099 Y83.111 Z-3.300 F60.000
G2 X24.101 Y83.141 Z-3.300 I0.057 J0.011 K0.000 F60.000
G3 X24.744 Y83.400 Z-3.300 I0.084 J0.720 K0.000 F60.000
G2 X24.764 Y83.373 Z-3.300 I-0.002 J-0.022 K0.000 F60.000
G2 X24.471 Y83.122 Z-3.300 I-0.460 J0.239 K0.000 F60.000
G2 X24.191 Y83.077 Z-3.300 I-0.261 J0.729 K0.000 F60.000
G2 X24.099 Y83.111 Z-3.300 I-0.036 J0.045 K0.000 F60.000
G1 X24.099 Y83.111 Z-3.600 F60.000
G2 X24.101 Y83.141 Z-3.600 I0.057 J0.011 K0.000 F60.000
G3 X24.744 Y83.400 Z-3.600 I0.084 J0.720 K0.000 F60.000
G2 X24.764 Y83.373 Z-3.600 I-0.002 J-0.022 K0.000 F60.000
G2 X24.471 Y83.122 Z-3.600 I-0.460 J0.239 K0.000 F60.000
G2 X24.191 Y83.077 Z-3.600 I-0.261 J0.729 K0.000 F60.000
G2 X24.099 Y83.111 Z-3.600 I-0.036 J0.045 K0.000 F60.000
G1 X24.099 Y83.111 Z-3.900 F60.000
G2 X24.101 Y83.141 Z-3.900 I0.057 J0.011 K0.000 F60.000
G3 X24.744 Y83.400 Z-3.900 I0.084 J0.720 K0.000 F60.000
G2 X24.764 Y83.373 Z-3.900 I-0.002 J-0.022 K0.000 F60.000
G2 X24.471 Y83.122 Z-3.900 I-0.460 J0.239 K0.000 F60.000
G2 X24.191 Y83.077 Z-3.900 I-0.261 J0.729 K0.000 F60.000
G2 X24.099 Y83.111 Z-3.900 I-0.036 J0.045 K0.000 F60.000
G1 X24.099 Y83.111 Z-4.000 F60.000
G2 X24.101 Y83.141 Z-4.000 I0.057 J0.011 K0.000 F60.000
G3 X24.744 Y83.400 Z-4.000 I0.084 J0.720 K0.000 F60.000
G2 X24.764 Y83.373 Z-4.000 I-0.002 J-0.022 K0.000 F60.000
G2 X24.471 Y83.122 Z-4.000 I-0.460 J0.239 K0.000 F60.000
G2 X24.191 Y83.077 Z-4.000 I-0.261 J0.729 K0.000 F60.000
G2 X24.099 Y83.111 Z-4.000 I-0.036 J0.045 K0.000 F60.000
G0 Z5.000
G0 Z5.000
G0 X24.099 Y83.111
G0 X23.947 Y84.720
G0 X23.947 Y84.720 Z3.000
G1 X23.947 Y84.720 Z-0.300 F60.000
G3 X23.249 Y84.587 Z-0.300 I0.362 J-3.823 K0.000 F60.000
G1 X22.778 Y84.395 Z-0.300 F60.000
G2 X22.694 Y84.400 Z-0.300 I-0.041 J0.022 K0.000 F60.000
G2 X25.847 Y84.457 Z-0.300 I1.629 J-2.886 K0.000 F60.000
G2 X25.864 Y84.407 Z-0.300 I-0.005 J-0.029 K0.000 F60.000
G3 X23.947 Y84.720 Z-0.300 I-1.556 J-3.511 K0.000 F60.000
G1 X23.947 Y84.720 Z-0.600 F60.000
G3 X23.249 Y84.587 Z-0.600 I0.362 J-3.823 K0.000 F60.000
G1 X22.778 Y84.395 Z-0.600 F60.000
G2 X22.694 Y84.400 Z-0.600 I-0.041 J0.022 K0.000 F60.000
G2 X25.847 Y84.457 Z-0.600 I1.629 J-2.886 K0.000 F60.000
G2 X25.864 Y84.407 Z-0.600 I-0.005 J-0.029 K0.000 F60.000
G3 X23.947 Y84.720 Z-0.600 I-1.556 J-3.511 K0.000 F60.000
G1 X23.947 Y84.720 Z-0.900 F60.000
G3 X23.249 Y84.587 Z-0.900 I0.362 J-3.823 K0.000 F60.000
G1 X22.778 Y84.395 Z-0.900 F60.000
G2 X22.694 Y84.400 Z-0.900 I-0.041 J0.022 K0.000 F60.000
G2 X25.847 Y84.457 Z-0.900 I1.629 J-2.886 K0.000 F60.000
G2 X25.864 Y84.407 Z-0.900 I-0.005 J-0.029 K0.000 F60.000
G3 X23.947 Y84.720 Z-0.900 I-1.556 J-3.511 K0.000 F60.000
G1 X23.947 Y84.720 Z-1.200 F60.000
G3 X23.249 Y84.587 Z-1.200 I0.362 J-3.823 K0.000 F60.000
G1 X22.778 Y84.395 Z-1.200 F60.000
G2 X22.694 Y84.400 Z-1.200 I-0.041 J0.022 K0.000 F60.000
G2 X25.847 Y84.457 Z-1.200 I1.629 J-2.886 K0.000 F60.000
G2 X25.864 Y84.407 Z-1.200 I-0.005 J-0.029 K0.000 F60.000
G3 X23.947 Y84.720 Z-1.200 I-1.556 J-3.511 K0.000 F60.000
G1 X23.947 Y84.720 Z-1.500 F60.000
G3 X23.249 Y84.587 Z-1.500 I0.362 J-3.823 K0.000 F60.000
G1 X22.778 Y84.395 Z-1.500 F60.000
G2 X22.694 Y84.400 Z-1.500 I-0.041 J0.022 K0.000 F60.000
G2 X25.847 Y84.457 Z-1.500 I1.629 J-2.886 K0.000 F60.000
G2 X25.864 Y84.407 Z-1.500 I-0.005 J-0.029 K0.000 F60.000
G3 X23.947 Y84.720 Z-1.500 I-1.556 J-3.511 K0.000 F60.000
G1 X23.947 Y84.720 Z-1.800 F60.000
G3 X23.249 Y84.587 Z-1.800 I0.362 J-3.823 K0.000 F60.000
G1 X22.778 Y84.395 Z-1.800 F60.000
G2 X22.694 Y84.400 Z-1.800 I-0.041 J0.022 K0.000 F60.000
G2 X25.847 Y84.457 Z-1.800 I1.629 J-2.886 K0.000 F60.000
G2 X25.864 Y84.407 Z-1.800 I-0.005 J-0.029 K0.000 F60.000
G3 X23.947 Y84.720 Z-1.800 I-1.556 J-3.511 K0.000 F60.000
G1 X23.947 Y84.720 Z-2.100 F60.000
G3 X23.249 Y84.587 Z-2.100 I0.362 J-3.823 K0.000 F60.000
G1 X22.778 Y84.395 Z-2.100 F60.000
G2 X22.694 Y84.400 Z-2.100 I-0.041 J0.022 K0.000 F60.000
G2 X25.847 Y84.457 Z-2.100 I1.629 J-2.886 K0.000 F60.000
G2 X25.864 Y84.407 Z-2.100 I-0.005 J-0.029 K0.000 F60.000
G3 X23.947 Y84.720 Z-2.100 I-1.556 J-3.511 K0.000 F60.000
G1 X23.947 Y84.720 Z-2.400 F60.000
G3 X23.249 Y84.587 Z-2.400 I0.362 J-3.823 K0.000 F60.000
G1 X22.778 Y84.395 Z-2.400 F60.000
G2 X22.694 Y84.400 Z-2.400 I-0.041 J0.022 K0.000 F60.000
G2 X25.847 Y84.457 Z-2.400 I1.629 J-2.886 K0.000 F60.000
G2 X25.864 Y84.407 Z-2.400 I-0.005 J-0.029 K0.000 F60.000
G3 X23.947 Y84.720 Z-2.400 I-1.556 J-3.511 K0.000 F60.000
G1 X23.947 Y84.720 Z-2.700 F60.000
G3 X23.249 Y84.587 Z-2.700 I0.362 J-3.823 K0.000 F60.000
G1 X22.778 Y84.395 Z-2.700 F60.000
G2 X22.694 Y84.400 Z-2.700 I-0.041 J0.022 K0.000 F60.000
G2 X25.847 Y84.457 Z-2.700 I1.629 J-2.886 K0.000 F60.000
G2 X25.864 Y84.407 Z-2.700 I-0.005 J-0.029 K0.000 F60.000
G3 X23.947 Y84.720 Z-2.700 I-1.556 J-3.511 K0.000 F60.000
G1 X23.947 Y84.720 Z-3.000 F60.000
G3 X23.249 Y84.587 Z-3.000 I0.362 J-3.823 K0.000 F60.000
G1 X22.778 Y84.395 Z-3.000 F60.000
G2 X22.694 Y84.400 Z-3.000 I-0.041 J0.022 K0.000 F60.000
G2 X25.847 Y84.457 Z-3.000 I1.629 J-2.886 K0.000 F60.000
G2 X25.864 Y84.407 Z-3.000 I-0.005 J-0.029 K0.000 F60.000
G3 X23.947 Y84.720 Z-3.000 I-1.556 J-3.511 K0.000 F60.000
G1 X23.947 Y84.720 Z-3.300 F60.000
G3 X23.249 Y84.587 Z-3.300 I0.362 J-3.823 K0.000 F60.000
G1 X22.778 Y84.395 Z-3.300 F60.000
G2 X22.694 Y84.400 Z-3.300 I-0.041 J0.022 K0.000 F60.000
G2 X25.847 Y84.457 Z-3.300 I1.629 J-2.886 K0.000 F60.000
G2 X25.864 Y84.407 Z-3.300 I-0.005 J-0.029 K0.000 F60.000
G3 X23.947 Y84.720 Z-3.300 I-1.556 J-3.511 K0.000 F60.000
G1 X23.947 Y84.720 Z-3.600 F60.000
G3 X23.249 Y84.587 Z-3.600 I0.362 J-3.823 K0.000 F60.000
G1 X22.778 Y84.395 Z-3.600 F60.000
G2 X22.694 Y84.400 Z-3.600 I-0.041 J0.022 K0.000 F60.000
G2 X25.847 Y84.457 Z-3.600 I1.629 J-2.886 K0.000 F60.000
G2 X25.864 Y84.407 Z-3.600 I-0.005 J-0.029 K0.000 F60.000
G3 X23.947 Y84.720 Z-3.600 I-1.556 J-3.511 K0.000 F60.000
G1 X23.947 Y84.720 Z-3.900 F60.000
G3 X23.249 Y84.587 Z-3.900 I0.362 J-3.823 K0.000 F60.000
G1 X22.778 Y84.395 Z-3.900 F60.000
G2 X22.694 Y84.400 Z-3.900 I-0.041 J0.022 K0.000 F60.000
G2 X25.847 Y84.457 Z-3.900 I1.629 J-2.886 K0.000 F60.000
G2 X25.864 Y84.407 Z-3.900 I-0.005 J-0.029 K0.000 F60.000
G3 X23.947 Y84.720 Z-3.900 I-1.556 J-3.511 K0.000 F60.000
G1 X23.947 Y84.720 Z-4.000 F60.000
G3 X23.249 Y84.587 Z-4.000 I0.362 J-3.823 K0.000 F60.000
G1 X22.778 Y84.395 Z-4.000 F60.000
G2 X22.694 Y84.400 Z-4.000 I-0.041 J0.022 K0.000 F60.000
G2 X25.847 Y84.457 Z-4.000 I1.629 J-2.886 K0.000 F60.000
G2 X25.864 Y84.407 Z-4.000 I-0.005 J-0.029 K0.000 F60.000
G3 X23.947 Y84.720 Z-4.000 I-1.556 J-3.511 K0.000 F60.000
G0 Z5.000
G0 Z5.000
G0 X23.947 Y84.720
G0 X24.243 Y85.992
G0 X24.243 Y85.992 Z3.000
G1 X24.243 Y85.992 Z-0.300 F60.000
G2 X24.173 Y86.030 Z-0.300 I0.034 J0.144 K0.000 F60.000
G2 X25.346 Y85.867 Z-0.300 I0.449 J-1.074 K0.000 F60.000
G1 X25.344 Y85.861 Z-0.300 F60.000
G3 X24.376 Y86.027 Z-0.300 I-0.781 J-1.652 K0.000 F60.000
G2 X24.243 Y85.992 Z-0.300 I-0.100 J0.109 K0.000 F60.000
G1 X24.243 Y85.992 Z-0.600 F60.000
G2 X24.173 Y86.030 Z-0.600 I0.034 J0.144 K0.000 F60.000
G2 X25.346 Y85.867 Z-0.600 I0.449 J-1.074 K0.000 F60.000
G1 X25.344 Y85.861 Z-0.600 F60.000
G3 X24.376 Y86.027 Z-0.600 I-0.781 J-1.652 K0.000 F60.000
G2 X24.243 Y85.992 Z-0.600 I-0.100 J0.109 K0.000 F60.000
G1 X24.243 Y85.992 Z-0.900 F60.000
G2 X24.173 Y86.030 Z-0.900 I0.034 J0.144 K0.000 F60.000
G2 X25.346 Y85.867 Z-0.900 I0.449 J-1.074 K0.000 F60.000
G1 X25.344 Y85.861 Z-0.900 F60.000
G3 X24.376 Y86.027 Z-0.900 I-0.781 J-1.652 K0.000 F60.000
G2 X24.243 Y85.992 Z-0.900 I-0.100 J0.109 K0.000 F60.000
G1 X24.243 Y85.992 Z-1.200 F60.000
G2 X24.173 Y86.030 Z-1.200 I0.034 J0.144 K0.000 F60.000
G2 X25.346 Y85.867 Z-1.200 I0.449 J-1.074 K0.000 F60.000
G1 X25.344 Y85.861 Z-1.200 F60.000
G3 X24.376 Y86.027 Z-1.200 I-0.781 J-1.652 K0.000 F60.000
G2 X24.243 Y85.992 Z-1.200 I-0.100 J0.109 K0.000 F60.000
G1 X24.243 Y85.992 Z-1.500 F60.000
G2 X24.173 Y86.030 Z-1.500 I0.034 J0.144 K0.000 F60.000
G2 X25.346 Y85.867 Z-1.500 I0.449 J-1.074 K0.000 F60.000
G1 X25.344 Y85.861 Z-1.500 F60.000
G3 X24.376 Y86.027 Z-1.500 I-0.781 J-1.652 K0.000 F60.000
G2 X24.243 Y85.992 Z-1.500 I-0.100 J0.109 K0.000 F60.000
G1 X24.243 Y85.992 Z-1.800 F60.000
G2 X24.173 Y86.030 Z-1.800 I0.034 J0.144 K0.000 F60.000
G2 X25.346 Y85.867 Z-1.800 I0.449 J-1.074 K0.000 F60.000
G1 X25.344 Y85.861 Z-1.800 F60.000
G3 X24.376 Y86.027 Z-1.800 I-0.781 J-1.652 K0.000 F60.000
G2 X24.243 Y85.992 Z-1.800 I-0.100 J0.109 K0.000 F60.000
G1 X24.243 Y85.992 Z-2.100 F60.000
G2 X24.173 Y86.030 Z-2.100 I0.034 J0.144 K0.000 F60.000
G2 X25.346 Y85.867 Z-2.100 I0.449 J-1.074 K0.000 F60.000
G1 X25.344 Y85.861 Z-2.100 F60.000
G3 X24.376 Y86.027 Z-2.100 I-0.781 J-1.652 K0.000 F60.000
G2 X24.243 Y85.992 Z-2.100 I-0.100 J0.109 K0.000 F60.000
G1 X24.243 Y85.992 Z-2.400 F60.000
G2 X24.173 Y86.030 Z-2.400 I0.034 J0.144 K0.000 F60.000
G2 X25.346 Y85.867 Z-2.400 I0.449 J-1.074 K0.000 F60.000
G1 X25.344 Y85.861 Z-2.400 F60.000
G3 X24.376 Y86.027 Z-2.400 I-0.781 J-1.652 K0.000 F60.000
G2 X24.243 Y85.992 Z-2.400 I-0.100 J0.109 K0.000 F60.000
G1 X24.243 Y85.992 Z-2.700 F60.000
G2 X24.173 Y86.030 Z-2.700 I0.034 J0.144 K0.000 F60.000
G2 X25.346 Y85.867 Z-2.700 I0.449 J-1.074 K0.000 F60.000
G1 X25.344 Y85.861 Z-2.700 F60.000
G3 X24.376 Y86.027 Z-2.700 I-0.781 J-1.652 K0.000 F60.000
G2 X24.243 Y85.992 Z-2.700 I-0.100 J0.109 K0.000 F60.000
G1 X24.243 Y85.992 Z-3.000 F60.000
G2 X24.173 Y86.030 Z-3.000 I0.034 J0.144 K0.000 F60.000
G2 X25.346 Y85.867 Z-3.000 I0.449 J-1.074 K0.000 F60.000
G1 X25.344 Y85.861 Z-3.000 F60.000
G3 X24.376 Y86.027 Z-3.000 I-0.781 J-1.652 K0.000 F60.000
G2 X24.243 Y85.992 Z-3.000 I-0.100 J0.109 K0.000 F60.000
G1 X24.243 Y85.992 Z-3.300 F60.000
G2 X24.173 Y86.030 Z-3.300 I0.034 J0.144 K0.000 F60.000
G2 X25.346 Y85.867 Z-3.300 I0.449 J-1.074 K0.000 F60.000
G1 X25.344 Y85.861 Z-3.300 F60.000
G3 X24.376 Y86.027 Z-3.300 I-0.781 J-1.652 K0.000 F60.000
G2 X24.243 Y85.992 Z-3.300 I-0.100 J0.109 K0.000 F60.000
G1 X24.243 Y85.992 Z-3.600 F60.000
G2 X24.173 Y86.030 Z-3.600 I0.034 J0.144 K0.000 F60.000
G2 X25.346 Y85.867 Z-3.600 I0.449 J-1.074 K0.000 F60.000
G1 X25.344 Y85.861 Z-3.600 F60.000
G3 X24.376 Y86.027 Z-3.600 I-0.781 J-1.652 K0.000 F60.000
G2 X24.243 Y85.992 Z-3.600 I-0.100 J0.109 K0.000 F60.000
G1 X24.243 Y85.992 Z-3.900 F60.000
G2 X24.173 Y86.030 Z-3.900 I0.034 J0.144 K0.000 F60.000
G2 X25.346 Y85.867 Z-3.900 I0.449 J-1.074 K0.000 F60.000
G1 X25.344 Y85.861 Z-3.900 F60.000
G3 X24.376 Y86.027 Z-3.900 I-0.781 J-1.652 K0.000 F60.000
G2 X24.243 Y85.992 Z-3.900 I-0.100 J0.109 K0.000 F60.000
G1 X24.243 Y85.992 Z-4.000 F60.000
G2 X24.173 Y86.030 Z-4.000 I0.034 J0.144 K0.000 F60.000
G2 X25.346 Y85.867 Z-4.000 I0.449 J-1.074 K0.000 F60.000
G1 X25.344 Y85.861 Z-4.000 F60.000
G3 X24.376 Y86.027 Z-4.000 I-0.781 J-1.652 K0.000 F60.000
G2 X24.243 Y85.992 Z-4.000 I-0.100 J0.109 K0.000 F60.000
G0 Z5.000
G0 Z5.000
G0 X24.243 Y85.992
G0 X23.468 Y86.931
G0 X23.468 Y86.931 Z3.000
G1 X23.468 Y86.931 Z-0.300 F60.000
G3 X22.331 Y86.514 Z-0.300 I0.221 J-2.357 K0.000 F60.000
G3 X21.196 Y84.068 Z-0.300 I2.138 J-2.479 K0.000 F60.000
G2 X21.205 Y83.534 Z-0.300 I-1.663 J-0.295 K0.000 F60.000
G2 X21.173 Y83.530 Z-0.300 I-0.018 J0.014 K0.000 F60.000
G2 X21.910 Y86.165 Z-0.300 I3.298 J0.497 K0.000 F60.000
G2 X23.480 Y86.957 Z-0.300 I1.536 J-1.092 K0.000 F60.000
G2 X23.468 Y86.931 Z-0.300 I-0.021 J-0.007 K0.000 F60.000
G1 X23.468 Y86.931 Z-0.600 F60.000
G3 X22.331 Y86.514 Z-0.600 I0.221 J-2.357 K0.000 F60.000
G3 X21.196 Y84.068 Z-0.600 I2.138 J-2.479 K0.000 F60.000
G2 X21.205 Y83.534 Z-0.600 I-1.663 J-0.295 K0.000 F60.000
G2 X21.173 Y83.530 Z-0.600 I-0.018 J0.014 K0.000 F60.000
G2 X21.910 Y86.165 Z-0.600 I3.298 J0.497 K0.000 F60.000
G2 X23.480 Y86.957 Z-0.600 I1.536 J-1.092 K0.000 F60.000
G2 X23.468 Y86.931 Z-0.600 I-0.021 J-0.007 K0.000 F60.000
G1 X23.468 Y86.931 Z-0.900 F60.000
G3 X22.331 Y86.514 Z-0.900 I0.221 J-2.357 K0.000 F60.000
G3 X21.196 Y84.068 Z-0.900 I2.138 J-2.479 K0.000 F60.000
G2 X21.205 Y83.534 Z-0.900 I-1.663 J-0.295 K0.000 F60.000
G2 X21.173 Y83.530 Z-0.900 I-0.018 J0.014 K0.000 F60.000
G2 X21.910 Y86.165 Z-0.900 I3.298 J0.497 K0.000 F60.000
G2 X23.480 Y86.957 Z-0.900 I1.536 J-1.092 K0.000 F60.000
G2 X23.468 Y86.931 Z-0.900 I-0.021 J-0.007 K0.000 F60.000
G1 X23.468 Y86.931 Z-1.200 F60.000
G3 X22.331 Y86.514 Z-1.200 I0.221 J-2.357 K0.000 F60.000
G3 X21.196 Y84.068 Z-1.200 I2.138 J-2.479 K0.000 F60.000
G2 X21.205 Y83.534 Z-1.200 I-1.663 J-0.295 K0.000 F60.000
G2 X21.173 Y83.530 Z-1.200 I-0.018 J0.014 K0.000 F60.000
G2 X21.910 Y86.165 Z-1.200 I3.298 J0.497 K0.000 F60.000
G2 X23.480 Y86.957 Z-1.200 I1.536 J-1.092 K0.000 F60.000
G2 X23.468 Y86.931 Z-1.200 I-0.021 J-0.007 K0.000 F60.000
G1 X23.468 Y86.931 Z-1.500 F60.000
G3 X22.331 Y86.514 Z-1.500 I0.221 J-2.357 K0.000 F60.000
G3 X21.196 Y84.068 Z-1.500 I2.138 J-2.479 K0.000 F60.000
G2 X21.205 Y83.534 Z-1.500 I-1.663 J-0.295 K0.000 F60.000
G2 X21.173 Y83.530 Z-1.500 I-0.018 J0.014 K0.000 F60.000
G2 X21.910 Y86.165 Z-1.500 I3.298 J0.497 K0.000 F60.000
G2 X23.480 Y86.957 Z-1.500 I1.536 J-1.092 K0.000 F60.000
G2 X23.468 Y86.931 Z-1.500 I-0.021 J-0.007 K0.000 F60.000
G1 X23.468 Y86.931 Z-1.800 F60.000
G3 X22.331 Y86.514 Z-1.800 I0.221 J-2.357 K0.000 F60.000
G3 X21.196 Y84.068 Z-1.800 I2.138 J-2.479 K0.000 F60.000
G2 X21.205 Y83.534 Z-1.800 I-1.663 J-0.295 K0.000 F60.000
G2 X21.173 Y83.530 Z-1.800 I-0.018 J0.014 K0.000 F60.000
G2 X21.910 Y86.165 Z-1.800 I3.298 J0.497 K0.000 F60.000
G2 X23.480 Y86.957 Z-1.800 I1.536 J-1.092 K0.000 F60.000
G2 X23.468 Y86.931 Z-1.800 I-0.021 J-0.007 K0.000 F60.000
G1 X23.468 Y86.931 Z-2.100 F60.000
G3 X22.331 Y86.514 Z-2.100 I0.221 J-2.357 K0.000 F60.000
G3 X21.196 Y84.068 Z-2.100 I2.138 J-2.479 K0.000 F60.000
G2 X21.205 Y83.534 Z-2.100 I-1.663 J-0.295 K0.000 F60.000
G2 X21.173 Y83.530 Z-2.100 I-0.018 J0.014 K0.000 F60.000
G2 X21.910 Y86.165 Z-2.100 I3.298 J0.497 K0.000 F60.000
G2 X23.480 Y86.957 Z-2.100 I1.536 J-1.092 K0.000 F60.000
G2 X23.468 Y86.931 Z-2.100 I-0.021 J-0.007 K0.000 F60.000
G1 X23.468 Y86.931 Z-2.400 F60.000
G3 X22.331 Y86.514 Z-2.400 I0.221 J-2.357 K0.000 F60.000
G3 X21.196 Y84.068 Z-2.400 I2.138 J-2.479 K0.000 F60.000
G2 X21.205 Y83.534 Z-2.400 I-1.663 J-0.295 K0.000 F60.000
G2 X21.173 Y83.530 Z-2.400 I-0.018 J0.014 K0.000 F60.000
G2 X21.910 Y86.165 Z-2.400 I3.298 J0.497 K0.000 F60.000
G2 X23.480 Y86.957 Z-2.400 I1.536 J-1.092 K0.000 F60.000
G2 X23.468 Y86.931 Z-2.400 I-0.021 J-0.007 K0.000 F60.000
G1 X23.468 Y86.931 Z-2.700 F60.000
G3 X22.331 Y86.514 Z-2.700 I0.221 J-2.357 K0.000 F60.000
G3 X21.196 Y84.068 Z-2.700 I2.138 J-2.479 K0.000 F60.000
G2 X21.205 Y83.534 Z-2.700 I-1.663 J-0.295 K0.000 F60.000
G2 X21.173 Y83.530 Z-2.700 I-0.018 J0.014 K0.000 F60.000
G2 X21.910 Y86.165 Z-2.700 I3.298 J0.497 K0.000 F60.000
G2 X23.480 Y86.957 Z-2.700 I1.536 J-1.092 K0.000 F60.000
G2 X23.468 Y86.931 Z-2.700 I-0.021 J-0.007 K0.000 F60.000
G1 X23.468 Y86.931 Z-3.000 F60.000
G3 X22.331 Y86.514 Z-3.000 I0.221 J-2.357 K0.000 F60.000
G3 X21.196 Y84.068 Z-3.000 I2.138 J-2.479 K0.000 F60.000
G2 X21.205 Y83.534 Z-3.000 I-1.663 J-0.295 K0.000 F60.000
G2 X21.173 Y83.530 Z-3.000 I-0.018 J0.014 K0.000 F60.000
G2 X21.910 Y86.165 Z-3.000 I3.298 J0.497 K0.000 F60.000
G2 X23.480 Y86.957 Z-3.000 I1.536 J-1.092 K0.000 F60.000
G2 X23.468 Y86.931 Z-3.000 I-0.021 J-0.007 K0.000 F60.000
G1 X23.468 Y86.931 Z-3.300 F60.000
G3 X22.331 Y86.514 Z-3.300 I0.221 J-2.357 K0.000 F60.000
G3 X21.196 Y84.068 Z-3.300 I2.138 J-2.479 K0.000 F60.000
G2 X21.205 Y83.534 Z-3.300 I-1.663 J-0.295 K0.000 F60.000
G2 X21.173 Y83.530 Z-3.300 I-0.018 J0.014 K0.000 F60.000
G2 X21.910 Y86.165 Z-3.300 I3.298 J0.497 K0.000 F60.000
G2 X23.480 Y86.957 Z-3.300 I1.536 J-1.092 K0.000 F60.000
G2 X23.468 Y86.931 Z-3.300 I-0.021 J-0.007 K0.000 F60.000
G1 X23.468 Y86.931 Z-3.600 F60.000
G3 X22.331 Y86.514 Z-3.600 I0.221 J-2.357 K0.000 F60.000
G3 X21.196 Y84.068 Z-3.600 I2.138 J-2.479 K0.000 F60.000
G2 X21.205 Y83.534 Z-3.600 I-1.663 J-0.295 K0.000 F60.000
G2 X21.173 Y83.530 Z-3.600 I-0.018 J0.014 K0.000 F60.000
G2 X21.910 Y86.165 Z-3.600 I3.298 J0.497 K0.000 F60.000
G2 X23.480 Y86.957 Z-3.600 I1.536 J-1.092 K0.000 F60.000
G2 X23.468 Y86.931 Z-3.600 I-0.021 J-0.007 K0.000 F60.000
G1 X23.468 Y86.931 Z-3.900 F60.000
G3 X22.331 Y86.514 Z-3.900 I0.221 J-2.357 K0.000 F60.000
G3 X21.196 Y84.068 Z-3.900 I2.138 J-2.479 K0.000 F60.000
G2 X21.205 Y83.534 Z-3.900 I-1.663 J-0.295 K0.000 F60.000
G2 X21.173 Y83.530 Z-3.900 I-0.018 J0.014 K0.000 F60.000
G2 X21.910 Y86.165 Z-3.900 I3.298 J0.497 K0.000 F60.000
G2 X23.480 Y86.957 Z-3.900 I1.536 J-1.092 K0.000 F60.000
G2 X23.468 Y86.931 Z-3.900 I-0.021 J-0.007 K0.000 F60.000
G1 X23.468 Y86.931 Z-4.000 F60.000
G3 X22.331 Y86.514 Z-4.000 I0.221 J-2.357 K0.000 F60.000
G3 X21.196 Y84.068 Z-4.000 I2.138 J-2.479 K0.000 F60.000
G2 X21.205 Y83.534 Z-4.000 I-1.663 J-0.295 K0.000 F60.000
G2 X21.173 Y83.530 Z-4.000 I-0.018 J0.014 K0.000 F60.000
G2 X21.910 Y86.165 Z-4.000 I3.298 J0.497 K0.000 F60.000
G2 X23.480 Y86.957 Z-4.000 I1.536 J-1.092 K0.000 F60.000
G2 X23.468 Y86.931 Z-4.000 I-0.021 J-0.007 K0.000 F60.000
G0 Z5.000
G0 Z5.000
G0 X23.468 Y86.931
G0 X24.462 Y87.349
G0 X24.462 Y87.349 Z3.000
G1 X24.462 Y87.349 Z-0.300 F60.000
G3 X24.997 Y88.435 Z-0.300 I-0.624 J0.983 K0.000 F60.000
G2 X25.027 Y88.521 Z-0.300 I0.035 J0.036 K0.000 F60.000
G2 X24.470 Y87.336 Z-0.300 I-0.947 J-0.278 K0.000 F60.000
G2 X24.462 Y87.349 Z-0.300 I0.012 J0.017 K0.000 F60.000
G1 X24.462 Y87.349 Z-0.600 F60.000
G3 X24.997 Y88.435 Z-0.600 I-0.624 J0.983 K0.000 F60.000
G2 X25.027 Y88.521 Z-0.600 I0.035 J0.036 K0.000 F60.000
G2 X24.470 Y87.336 Z-0.600 I-0.947 J-0.278 K0.000 F60.000
G2 X24.462 Y87.349 Z-0.600 I0.012 J0.017 K0.000 F60.000
G1 X24.462 Y87.349 Z-0.900 F60.000
G3 X24.997 Y88.435 Z-0.900 I-0.624 J0.983 K0.000 F60.000
G2 X25.027 Y88.521 Z-0.900 I0.035 J0.036 K0.000 F60.000
G2 X24.470 Y87.336 Z-0.900 I-0.947 J-0.278 K0.000 F60.000
G2 X24.462 Y87.349 Z-0.900 I0.012 J0.017 K0.000 F60.000
G1 X24.462 Y87.349 Z-1.200 F60.000
G3 X24.997 Y88.435 Z-1.200 I-0.624 J0.983 K0.000 F60.000
G2 X25.027 Y88.521 Z-1.200 I0.035 J0.036 K0.000 F60.000
G2 X24.470 Y87.336 Z-1.200 I-0.947 J-0.278 K0.000 F60.000
G2 X24.462 Y87.349 Z-1.200 I0.012 J0.017 K0.000 F60.000
G1 X24.462 Y87.349 Z-1.500 F60.000
G3 X24.997 Y88.435 Z-1.500 I-0.624 J0.983 K0.000 F60.000
G2 X25.027 Y88.521 Z-1.500 I0.035 J0.036 K0.000 F60.000
G2 X24.470 Y87.336 Z-1.500 I-0.947 J-0.278 K0.000 F60.000
G2 X24.462 Y87.349 Z-1.500 I0.012 J0.017 K0.000 F60.000
G1 X24.462 Y87.349 Z-1.800 F60.000
G3 X24.997 Y88.435 Z-1.800 I-0.624 J0.983 K0.000 F60.000
G2 X25.027 Y88.521 Z-1.800 I0.035 J0.036 K0.000 F60.000
G2 X24.470 Y87.336 Z-1.800 I-0.947 J-0.278 K0.000 F60.000
G2 X24.462 Y87.349 Z-1.800 I0.012 J0.017 K0.000 F60.000
G1 X24.462 Y87.349 Z-2.100 F60.000
G3 X24.997 Y88.435 Z-2.100 I-0.624 J0.983 K0.000 F60.000
G2 X25.027 Y88.521 Z-2.100 I0.035 J0.036 K0.000 F60.000
G2 X24.470 Y87.336 Z-2.100 I-0.947 J-0.278 K0.000 F60.000
G2 X24.462 Y87.349 Z-2.100 I0.012 J0.017 K0.000 F60.000
G1 X24.462 Y87.349 Z-2.400 F60.000
G3 X24.997 Y88.435 Z-2.400 I-0.624 J0.983 K0.000 F60.000
G2 X25.027 Y88.521 Z-2.400 I0.035 J0.036 K0.000 F60.000
G2 X24.470 Y87.336 Z-2.400 I-0.947 J-0.278 K0.000 F60.000
G2 X24.462 Y87.349 Z-2.400 I0.012 J0.017 K0.000 F60.000
G1 X24.462 Y87.349 Z-2.700 F60.000
G3 X24.997 Y88.435 Z-2.700 I-0.624 J0.983 K0.000 F60.000
G2 X25.027 Y88.521 Z-2.700 I0.035 J0.036 K0.000 F60.000
G2 X24.470 Y87.336 Z-2.700 I-0.947 J-0.278 K0.000 F60.000
G2 X24.462 Y87.349 Z-2.700 I0.012 J0.017 K0.000 F60.000
G1 X24.462 Y87.349 Z-3.000 F60.000
G3 X24.997 Y88.435 Z-3.000 I-0.624 J0.983 K0.000 F60.000
G2 X25.027 Y88.521 Z-3.000 I0.035 J0.036 K0.000 F60.000
G2 X24.470 Y87.336 Z-3.000 I-0.947 J-0.278 K0.000 F60.000
G2 X24.462 Y87.349 Z-3.000 I0.012 J0.017 K0.000 F60.000
G1 X24.462 Y87.349 Z-3.300 F60.000
G3 X24.997 Y88.435 Z-3.300 I-0.624 J0.983 K0.000 F60.000
G2 X25.027 Y88.521 Z-3.300 I0.035 J0.036 K0.000 F60.000
G2 X24.470 Y87.336 Z-3.300 I-0.947 J-0.278 K0.000 F60.000
G2 X24.462 Y87.349 Z-3.300 I0.012 J0.017 K0.000 F60.000
G1 X24.462 Y87.349 Z-3.600 F60.000
G3 X24.997 Y88.435 Z-3.600 I-0.624 J0.983 K0.000 F60.000
G2 X25.027 Y88.521 Z-3.600 I0.035 J0.036 K0.000 F60.000
G2 X24.470 Y87.336 Z-3.600 I-0.947 J-0.278 K0.000 F60.000
G2 X24.462 Y87.349 Z-3.600 I0.012 J0.017 K0.000 F60.000
G1 X24.462 Y87.349 Z-3.900 F60.000
G3 X24.997 Y88.435 Z-3.900 I-0.624 J0.983 K0.000 F60.000
G2 X25.027 Y88.521 Z-3.900 I0.035 J0.036 K0.000 F60.000
G2 X24.470 Y87.336 Z-3.900 I-0.947 J-0.278 K0.000 F60.000
G2 X24.462 Y87.349 Z-3.900 I0.012 J0.017 K0.000 F60.000
G1 X24.462 Y87.349 Z-4.000 F60.000
G3 X24.997 Y88.435 Z-4.000 I-0.624 J0.983 K0.000 F60.000
G2 X25.027 Y88.521 Z-4.000 I0.035 J0.036 K0.000 F60.000
G2 X24.470 Y87.336 Z-4.000 I-0.947 J-0.278 K0.000 F60.000
G2 X24.462 Y87.349 Z-4.000 I0.012 J0.017 K0.000 F60.000
G0 Z5.000
G0 Z5.000
G0 X24.462 Y87.349
G0 X26.315 Y86.688
G0 X26.315 Y86.688 Z3.000
G1 X26.315 Y86.688 Z-0.300 F60.000
G1 X26.230 Y86.911 Z-0.300 F60.000
G1 X26.200 Y87.109 Z-0.300 F60.000
G1 X26.215 Y87.361 Z-0.300 F60.000
G1 X26.258 Y87.534 Z-0.300 F60.000
G1 X26.372 Y87.783 Z-0.300 F60.000
G1 X26.419 Y87.855 Z-0.300 F60.000
G1 X26.542 Y87.997 Z-0.300 F60.000
G1 X26.666 Y88.098 Z-0.300 F60.000
G1 X26.693 Y88.109 Z-0.300 F60.000
G1 X26.702 Y88.109 Z-0.300 F60.000
G1 X26.710 Y88.106 Z-0.300 F60.000
G1 X26.716 Y88.099 Z-0.300 F60.000
G1 X26.719 Y88.091 Z-0.300 F60.000
G1 X26.720 Y88.082 Z-0.300 F60.000
G1 X26.716 Y88.074 Z-0.300 F60.000
G1 X26.661 Y88.018 Z-0.300 F60.000
G1 X26.515 Y87.876 Z-0.300 F60.000
G1 X26.444 Y87.780 Z-0.300 F60.000
G1 X26.337 Y87.573 Z-0.300 F60.000
G1 X26.299 Y87.455 Z-0.300 F60.000
G1 X26.261 Y87.185 Z-0.300 F60.000
G1 X26.270 Y87.039 Z-0.300 F60.000
G1 X26.333 Y86.800 Z-0.300 F60.000
G1 X26.353 Y86.748 Z-0.300 F60.000
G1 X26.353 Y86.748 Z-0.300 F60.000
G1 X26.366 Y86.712 Z-0.300 F60.000
G0 Z5.000
G0 X24.462 Y87.349
G0 X26.315 Y86.688
G0 X26.315 Y86.688 Z3.000
G1 X26.315 Y86.688 Z-0.600 F60.000
G1 X26.230 Y86.911 Z-0.600 F60.000
G1 X26.200 Y87.109 Z-0.600 F60.000
G1 X26.215 Y87.361 Z-0.600 F60.000
G1 X26.258 Y87.534 Z-0.600 F60.000
G1 X26.372 Y87.783 Z-0.600 F60.000
G1 X26.419 Y87.855 Z-0.600 F60.000
G1 X26.542 Y87.997 Z-0.600 F60.000
G1 X26.666 Y88.098 Z-0.600 F60.000
G1 X26.693 Y88.109 Z-0.600 F60.000
G1 X26.702 Y88.109 Z-0.600 F60.000
G1 X26.710 Y88.106 Z-0.600 F60.000
G1 X26.716 Y88.099 Z-0.600 F60.000
G1 X26.719 Y88.091 Z-0.600 F60.000
G1 X26.720 Y88.082 Z-0.600 F60.000
G1 X26.716 Y88.074 Z-0.600 F60.000
G1 X26.661 Y88.018 Z-0.600 F60.000
G1 X26.515 Y87.876 Z-0.600 F60.000
G1 X26.444 Y87.780 Z-0.600 F60.000
G1 X26.337 Y87.573 Z-0.600 F60.000
G1 X26.299 Y87.455 Z-0.600 F60.000
G1 X26.261 Y87.185 Z-0.600 F60.000
G1 X26.270 Y87.039 Z-0.600 F60.000
G1 X26.333 Y86.800 Z-0.600 F60.000
G1 X26.353 Y86.748 Z-0.600 F60.000
G1 X26.353 Y86.748 Z-0.600 F60.000
G1 X26.366 Y86.712 Z-0.600 F60.000
G0 Z5.000
G0 X24.462 Y87.349
G0 X26.315 Y86.688
G0 X26.315 Y86.688 Z3.000
G1 X26.315 Y86.688 Z-0.900 F60.000
G1 X26.230 Y86.911 Z-0.900 F60.000
G1 X26.200 Y87.109 Z-0.900 F60.000
G1 X26.215 Y87.361 Z-0.900 F60.000
G1 X26.258 Y87.534 Z-0.900 F60.000
G1 X26.372 Y87.783 Z-0.900 F60.000
G1 X26.419 Y87.855 Z-0.900 F60.000
G1 X26.542 Y87.997 Z-0.900 F60.000
G1 X26.666 Y88.098 Z-0.900 F60.000
G1 X26.693 Y88.109 Z-0.900 F60.000
G1 X26.702 Y88.109 Z-0.900 F60.000
G1 X26.710 Y88.106 Z-0.900 F60.000
G1 X26.716 Y88.099 Z-0.900 F60.000
G1 X26.719 Y88.091 Z-0.900 F60.000
G1 X26.720 Y88.082 Z-0.900 F60.000
G1 X26.716 Y88.074 Z-0.900 F60.000
G1 X26.661 Y88.018 Z-0.900 F60.000
G1 X26.515 Y87.876 Z-0.900 F60.000
G1 X26.444 Y87.780 Z-0.900 F60.000
G1 X26.337 Y87.573 Z-0.900 F60.000
G1 X26.299 Y87.455 Z-0.900 F60.000
G1 X26.261 Y87.185 Z-0.900 F60.000
G1 X26.270 Y87.039 Z-0.900 F60.000
G1 X26.333 Y86.800 Z-0.900 F60.000
G1 X26.353 Y86.748 Z-0.900 F60.000
G1 X26.353 Y86.748 Z-0.900 F60.000
G1 X26.366 Y86.712 Z-0.900 F60.000
G0 Z5.000
G0 X24.462 Y87.349
G0 X26.315 Y86.688
G0 X26.315 Y86.688 Z3.000
G1 X26.315 Y86.688 Z-1.200 F60.000
G1 X26.230 Y86.911 Z-1.200 F60.000
G1 X26.200 Y87.109 Z-1.200 F60.000
G1 X26.215 Y87.361 Z-1.200 F60.000
G1 X26.258 Y87.534 Z-1.200 F60.000
G1 X26.372 Y87.783 Z-1.200 F60.000
G1 X26.419 Y87.855 Z-1.200 F60.000
G1 X26.542 Y87.997 Z-1.200 F60.000
G1 X26.666 Y88.098 Z-1.200 F60.000
G1 X26.693 Y88.109 Z-1.200 F60.000
G1 X26.702 Y88.109 Z-1.200 F60.000
G1 X26.710 Y88.106 Z-1.200 F60.000
G1 X26.716 Y88.099 Z-1.200 F60.000
G1 X26.719 Y88.091 Z-1.200 F60.000
G1 X26.720 Y88.082 Z-1.200 F60.000
G1 X26.716 Y88.074 Z-1.200 F60.000
G1 X26.661 Y88.018 Z-1.200 F60.000
G1 X26.515 Y87.876 Z-1.200 F60.000
G1 X26.444 Y87.780 Z-1.200 F60.000
G1 X26.337 Y87.573 Z-1.200 F60.000
G1 X26.299 Y87.455 Z-1.200 F60.000
G1 X26.261 Y87.185 Z-1.200 F60.000
G1 X26.270 Y87.039 Z-1.200 F60.000
G1 X26.333 Y86.800 Z-1.200 F60.000
G1 X26.353 Y86.748 Z-1.200 F60.000
G1 X26.353 Y86.748 Z-1.200 F60.000
G1 X26.366 Y86.712 Z-1.200 F60.000
G0 Z5.000
G0 X24.462 Y87.349
G0 X26.315 Y86.688
G0 X26.315 Y86.688 Z3.000
G1 X26.315 Y86.688 Z-1.500 F60.000
G1 X26.230 Y86.911 Z-1.500 F60.000
G1 X26.200 Y87.109 Z-1.500 F60.000
G1 X26.215 Y87.361 Z-1.500 F60.000
G1 X26.258 Y87.534 Z-1.500 F60.000
G1 X26.372 Y87.783 Z-1.500 F60.000
G1 X26.419 Y87.855 Z-1.500 F60.000
G1 X26.542 Y87.997 Z-1.500 F60.000
G1 X26.666 Y88.098 Z-1.500 F60.000
G1 X26.693 Y88.109 Z-1.500 F60.000
G1 X26.702 Y88.109 Z-1.500 F60.000
G1 X26.710 Y88.106 Z-1.500 F60.000
G1 X26.716 Y88.099 Z-1.500 F60.000
G1 X26.719 Y88.091 Z-1.500 F60.000
G1 X26.720 Y88.082 Z-1.500 F60.000
G1 X26.716 Y88.074 Z-1.500 F60.000
G1 X26.661 Y88.018 Z-1.500 F60.000
G1 X26.515 Y87.876 Z-1.500 F60.000
G1 X26.444 Y87.780 Z-1.500 F60.000
G1 X26.337 Y87.573 Z-1.500 F60.000
G1 X26.299 Y87.455 Z-1.500 F60.000
G1 X26.261 Y87.185 Z-1.500 F60.000
G1 X26.270 Y87.039 Z-1.500 F60.000
G1 X26.333 Y86.800 Z-1.500 F60.000
G1 X26.353 Y86.748 Z-1.500 F60.000
G1 X26.353 Y86.748 Z-1.500 F60.000
G1 X26.366 Y86.712 Z-1.500 F60.000
G0 Z5.000
G0 X24.462 Y87.349
G0 X26.315 Y86.688
G0 X26.315 Y86.688 Z3.000
G1 X26.315 Y86.688 Z-1.800 F60.000
G1 X26.230 Y86.911 Z-1.800 F60.000
G1 X26.200 Y87.109 Z-1.800 F60.000
G1 X26.215 Y87.361 Z-1.800 F60.000
G1 X26.258 Y87.534 Z-1.800 F60.000
G1 X26.372 Y87.783 Z-1.800 F60.000
G1 X26.419 Y87.855 Z-1.800 F60.000
G1 X26.542 Y87.997 Z-1.800 F60.000
G1 X26.666 Y88.098 Z-1.800 F60.000
G1 X26.693 Y88.109 Z-1.800 F60.000
G1 X26.702 Y88.109 Z-1.800 F60.000
G1 X26.710 Y88.106 Z-1.800 F60.000
G1 X26.716 Y88.099 Z-1.800 F60.000
G1 X26.719 Y88.091 Z-1.800 F60.000
G1 X26.720 Y88.082 Z-1.800 F60.000
G1 X26.716 Y88.074 Z-1.800 F60.000
G1 X26.661 Y88.018 Z-1.800 F60.000
G1 X26.515 Y87.876 Z-1.800 F60.000
G1 X26.444 Y87.780 Z-1.800 F60.000
G1 X26.337 Y87.573 Z-1.800 F60.000
G1 X26.299 Y87.455 Z-1.800 F60.000
G1 X26.261 Y87.185 Z-1.800 F60.000
G1 X26.270 Y87.039 Z-1.800 F60.000
G1 X26.333 Y86.800 Z-1.800 F60.000
G1 X26.353 Y86.748 Z-1.800 F60.000
G1 X26.353 Y86.748 Z-1.800 F60.000
G1 X26.366 Y86.712 Z-1.800 F60.000
G0 Z5.000
G0 X24.462 Y87.349
G0 X26.315 Y86.688
G0 X26.315 Y86.688 Z3.000
G1 X26.315 Y86.688 Z-2.100 F60.000
G1 X26.230 Y86.911 Z-2.100 F60.000
G1 X26.200 Y87.109 Z-2.100 F60.000
G1 X26.215 Y87.361 Z-2.100 F60.000
G1 X26.258 Y87.534 Z-2.100 F60.000
G1 X26.372 Y87.783 Z-2.100 F60.000
G1 X26.419 Y87.855 Z-2.100 F60.000
G1 X26.542 Y87.997 Z-2.100 F60.000
G1 X26.666 Y88.098 Z-2.100 F60.000
G1 X26.693 Y88.109 Z-2.100 F60.000
G1 X26.702 Y88.109 Z-2.100 F60.000
G1 X26.710 Y88.106 Z-2.100 F60.000
G1 X26.716 Y88.099 Z-2.100 F60.000
G1 X26.719 Y88.091 Z-2.100 F60.000
G1 X26.720 Y88.082 Z-2.100 F60.000
G1 X26.716 Y88.074 Z-2.100 F60.000
G1 X26.661 Y88.018 Z-2.100 F60.000
G1 X26.515 Y87.876 Z-2.100 F60.000
G1 X26.444 Y87.780 Z-2.100 F60.000
G1 X26.337 Y87.573 Z-2.100 F60.000
G1 X26.299 Y87.455 Z-2.100 F60.000
G1 X26.261 Y87.185 Z-2.100 F60.000
G1 X26.270 Y87.039 Z-2.100 F60.000
G1 X26.333 Y86.800 Z-2.100 F60.000
G1 X26.353 Y86.748 Z-2.100 F60.000
G1 X26.353 Y86.748 Z-2.100 F60.000
G1 X26.366 Y86.712 Z-2.100 F60.000
G0 Z5.000
G0 X24.462 Y87.349
G0 X26.315 Y86.688
G0 X26.315 Y86.688 Z3.000
G1 X26.315 Y86.688 Z-2.400 F60.000
G1 X26.230 Y86.911 Z-2.400 F60.000
G1 X26.200 Y87.109 Z-2.400 F60.000
G1 X26.215 Y87.361 Z-2.400 F60.000
G1 X26.258 Y87.534 Z-2.400 F60.000
G1 X26.372 Y87.783 Z-2.400 F60.000
G1 X26.419 Y87.855 Z-2.400 F60.000
G1 X26.542 Y87.997 Z-2.400 F60.000
G1 X26.666 Y88.098 Z-2.400 F60.000
G1 X26.693 Y88.109 Z-2.400 F60.000
G1 X26.702 Y88.109 Z-2.400 F60.000
G1 X26.710 Y88.106 Z-2.400 F60.000
G1 X26.716 Y88.099 Z-2.400 F60.000
G1 X26.719 Y88.091 Z-2.400 F60.000
G1 X26.720 Y88.082 Z-2.400 F60.000
G1 X26.716 Y88.074 Z-2.400 F60.000
G1 X26.661 Y88.018 Z-2.400 F60.000
G1 X26.515 Y87.876 Z-2.400 F60.000
G1 X26.444 Y87.780 Z-2.400 F60.000
G1 X26.337 Y87.573 Z-2.400 F60.000
G1 X26.299 Y87.455 Z-2.400 F60.000
G1 X26.261 Y87.185 Z-2.400 F60.000
G1 X26.270 Y87.039 Z-2.400 F60.000
G1 X26.333 Y86.800 Z-2.400 F60.000
G1 X26.353 Y86.748 Z-2.400 F60.000
G1 X26.353 Y86.748 Z-2.400 F60.000
G1 X26.366 Y86.712 Z-2.400 F60.000
G0 Z5.000
G0 X24.462 Y87.349
G0 X26.315 Y86.688
G0 X26.315 Y86.688 Z3.000
G1 X26.315 Y86.688 Z-2.700 F60.000
G1 X26.230 Y86.911 Z-2.700 F60.000
G1 X26.200 Y87.109 Z-2.700 F60.000
G1 X26.215 Y87.361 Z-2.700 F60.000
G1 X26.258 Y87.534 Z-2.700 F60.000
G1 X26.372 Y87.783 Z-2.700 F60.000
G1 X26.419 Y87.855 Z-2.700 F60.000
G1 X26.542 Y87.997 Z-2.700 F60.000
G1 X26.666 Y88.098 Z-2.700 F60.000
G1 X26.693 Y88.109 Z-2.700 F60.000
G1 X26.702 Y88.109 Z-2.700 F60.000
G1 X26.710 Y88.106 Z-2.700 F60.000
G1 X26.716 Y88.099 Z-2.700 F60.000
G1 X26.719 Y88.091 Z-2.700 F60.000
G1 X26.720 Y88.082 Z-2.700 F60.000
G1 X26.716 Y88.074 Z-2.700 F60.000
G1 X26.661 Y88.018 Z-2.700 F60.000
G1 X26.515 Y87.876 Z-2.700 F60.000
G1 X26.444 Y87.780 Z-2.700 F60.000
G1 X26.337 Y87.573 Z-2.700 F60.000
G1 X26.299 Y87.455 Z-2.700 F60.000
G1 X26.261 Y87.185 Z-2.700 F60.000
G1 X26.270 Y87.039 Z-2.700 F60.000
G1 X26.333 Y86.800 Z-2.700 F60.000
G1 X26.353 Y86.748 Z-2.700 F60.000
G1 X26.353 Y86.748 Z-2.700 F60.000
G1 X26.366 Y86.712 Z-2.700 F60.000
G0 Z5.000
G0 X24.462 Y87.349
G0 X26.315 Y86.688
G0 X26.315 Y86.688 Z3.000
G1 X26.315 Y86.688 Z-3.000 F60.000
G1 X26.230 Y86.911 Z-3.000 F60.000
G1 X26.200 Y87.109 Z-3.000 F60.000
G1 X26.215 Y87.361 Z-3.000 F60.000
G1 X26.258 Y87.534 Z-3.000 F60.000
G1 X26.372 Y87.783 Z-3.000 F60.000
G1 X26.419 Y87.855 Z-3.000 F60.000
G1 X26.542 Y87.997 Z-3.000 F60.000
G1 X26.666 Y88.098 Z-3.000 F60.000
G1 X26.693 Y88.109 Z-3.000 F60.000
G1 X26.702 Y88.109 Z-3.000 F60.000
G1 X26.710 Y88.106 Z-3.000 F60.000
G1 X26.716 Y88.099 Z-3.000 F60.000
G1 X26.719 Y88.091 Z-3.000 F60.000
G1 X26.720 Y88.082 Z-3.000 F60.000
G1 X26.716 Y88.074 Z-3.000 F60.000
G1 X26.661 Y88.018 Z-3.000 F60.000
G1 X26.515 Y87.876 Z-3.000 F60.000
G1 X26.444 Y87.780 Z-3.000 F60.000
G1 X26.337 Y87.573 Z-3.000 F60.000
G1 X26.299 Y87.455 Z-3.000 F60.000
G1 X26.261 Y87.185 Z-3.000 F60.000
G1 X26.270 Y87.039 Z-3.000 F60.000
G1 X26.333 Y86.800 Z-3.000 F60.000
G1 X26.353 Y86.748 Z-3.000 F60.000
G1 X26.353 Y86.748 Z-3.000 F60.000
G1 X26.366 Y86.712 Z-3.000 F60.000
G0 Z5.000
G0 X24.462 Y87.349
G0 X26.315 Y86.688
G0 X26.315 Y86.688 Z3.000
G1 X26.315 Y86.688 Z-3.300 F60.000
G1 X26.230 Y86.911 Z-3.300 F60.000
G1 X26.200 Y87.109 Z-3.300 F60.000
G1 X26.215 Y87.361 Z-3.300 F60.000
G1 X26.258 Y87.534 Z-3.300 F60.000
G1 X26.372 Y87.783 Z-3.300 F60.000
G1 X26.419 Y87.855 Z-3.300 F60.000
G1 X26.542 Y87.997 Z-3.300 F60.000
G1 X26.666 Y88.098 Z-3.300 F60.000
G1 X26.693 Y88.109 Z-3.300 F60.000
G1 X26.702 Y88.109 Z-3.300 F60.000
G1 X26.710 Y88.106 Z-3.300 F60.000
G1 X26.716 Y88.099 Z-3.300 F60.000
G1 X26.719 Y88.091 Z-3.300 F60.000
G1 X26.720 Y88.082 Z-3.300 F60.000
G1 X26.716 Y88.074 Z-3.300 F60.000
G1 X26.661 Y88.018 Z-3.300 F60.000
G1 X26.515 Y87.876 Z-3.300 F60.000
G1 X26.444 Y87.780 Z-3.300 F60.000
G1 X26.337 Y87.573 Z-3.300 F60.000
G1 X26.299 Y87.455 Z-3.300 F60.000
G1 X26.261 Y87.185 Z-3.300 F60.000
G1 X26.270 Y87.039 Z-3.300 F60.000
G1 X26.333 Y86.800 Z-3.300 F60.000
G1 X26.353 Y86.748 Z-3.300 F60.000
G1 X26.353 Y86.748 Z-3.300 F60.000
G1 X26.366 Y86.712 Z-3.300 F60.000
G0 Z5.000
G0 X24.462 Y87.349
G0 X26.315 Y86.688
G0 X26.315 Y86.688 Z3.000
G1 X26.315 Y86.688 Z-3.600 F60.000
G1 X26.230 Y86.911 Z-3.600 F60.000
G1 X26.200 Y87.109 Z-3.600 F60.000
G1 X26.215 Y87.361 Z-3.600 F60.000
G1 X26.258 Y87.534 Z-3.600 F60.000
G1 X26.372 Y87.783 Z-3.600 F60.000
G1 X26.419 Y87.855 Z-3.600 F60.000
G1 X26.542 Y87.997 Z-3.600 F60.000
G1 X26.666 Y88.098 Z-3.600 F60.000
G1 X26.693 Y88.109 Z-3.600 F60.000
G1 X26.702 Y88.109 Z-3.600 F60.000
G1 X26.710 Y88.106 Z-3.600 F60.000
G1 X26.716 Y88.099 Z-3.600 F60.000
G1 X26.719 Y88.091 Z-3.600 F60.000
G1 X26.720 Y88.082 Z-3.600 F60.000
G1 X26.716 Y88.074 Z-3.600 F60.000
G1 X26.661 Y88.018 Z-3.600 F60.000
G1 X26.515 Y87.876 Z-3.600 F60.000
G1 X26.444 Y87.780 Z-3.600 F60.000
G1 X26.337 Y87.573 Z-3.600 F60.000
G1 X26.299 Y87.455 Z-3.600 F60.000
G1 X26.261 Y87.185 Z-3.600 F60.000
G1 X26.270 Y87.039 Z-3.600 F60.000
G1 X26.333 Y86.800 Z-3.600 F60.000
G1 X26.353 Y86.748 Z-3.600 F60.000
G1 X26.353 Y86.748 Z-3.600 F60.000
G1 X26.366 Y86.712 Z-3.600 F60.000
G0 Z5.000
G0 X24.462 Y87.349
G0 X26.315 Y86.688
G0 X26.315 Y86.688 Z3.000
G1 X26.315 Y86.688 Z-3.900 F60.000
G1 X26.230 Y86.911 Z-3.900 F60.000
G1 X26.200 Y87.109 Z-3.900 F60.000
G1 X26.215 Y87.361 Z-3.900 F60.000
G1 X26.258 Y87.534 Z-3.900 F60.000
G1 X26.372 Y87.783 Z-3.900 F60.000
G1 X26.419 Y87.855 Z-3.900 F60.000
G1 X26.542 Y87.997 Z-3.900 F60.000
G1 X26.666 Y88.098 Z-3.900 F60.000
G1 X26.693 Y88.109 Z-3.900 F60.000
G1 X26.702 Y88.109 Z-3.900 F60.000
G1 X26.710 Y88.106 Z-3.900 F60.000
G1 X26.716 Y88.099 Z-3.900 F60.000
G1 X26.719 Y88.091 Z-3.900 F60.000
G1 X26.720 Y88.082 Z-3.900 F60.000
G1 X26.716 Y88.074 Z-3.900 F60.000
G1 X26.661 Y88.018 Z-3.900 F60.000
G1 X26.515 Y87.876 Z-3.900 F60.000
G1 X26.444 Y87.780 Z-3.900 F60.000
G1 X26.337 Y87.573 Z-3.900 F60.000
G1 X26.299 Y87.455 Z-3.900 F60.000
G1 X26.261 Y87.185 Z-3.900 F60.000
G1 X26.270 Y87.039 Z-3.900 F60.000
G1 X26.333 Y86.800 Z-3.900 F60.000
G1 X26.353 Y86.748 Z-3.900 F60.000
G1 X26.353 Y86.748 Z-3.900 F60.000
G1 X26.366 Y86.712 Z-3.900 F60.000
G0 Z5.000
G0 X24.462 Y87.349
G0 X26.315 Y86.688
G0 X26.315 Y86.688 Z3.000
G1 X26.315 Y86.688 Z-4.000 F60.000
G1 X26.230 Y86.911 Z-4.000 F60.000
G1 X26.200 Y87.109 Z-4.000 F60.000
G1 X26.215 Y87.361 Z-4.000 F60.000
G1 X26.258 Y87.534 Z-4.000 F60.000
G1 X26.372 Y87.783 Z-4.000 F60.000
G1 X26.419 Y87.855 Z-4.000 F60.000
G1 X26.542 Y87.997 Z-4.000 F60.000
G1 X26.666 Y88.098 Z-4.000 F60.000
G1 X26.693 Y88.109 Z-4.000 F60.000
G1 X26.702 Y88.109 Z-4.000 F60.000
G1 X26.710 Y88.106 Z-4.000 F60.000
G1 X26.716 Y88.099 Z-4.000 F60.000
G1 X26.719 Y88.091 Z-4.000 F60.000
G1 X26.720 Y88.082 Z-4.000 F60.000
G1 X26.716 Y88.074 Z-4.000 F60.000
G1 X26.661 Y88.018 Z-4.000 F60.000
G1 X26.515 Y87.876 Z-4.000 F60.000
G1 X26.444 Y87.780 Z-4.000 F60.000
G1 X26.337 Y87.573 Z-4.000 F60.000
G1 X26.299 Y87.455 Z-4.000 F60.000
G1 X26.261 Y87.185 Z-4.000 F60.000
G1 X26.270 Y87.039 Z-4.000 F60.000
G1 X26.333 Y86.800 Z-4.000 F60.000
G1 X26.353 Y86.748 Z-4.000 F60.000
G1 X26.353 Y86.748 Z-4.000 F60.000
G1 X26.366 Y86.712 Z-4.000 F60.000
G0 Z5.000
G0 Z5.000
G0 X26.366 Y86.712
G0 X27.008 Y88.981
G0 X27.008 Y88.981 Z3.000
G1 X27.008 Y88.981 Z-0.300 F60.000
G3 X24.704 Y89.332 Z-0.300 I-1.355 J-1.159 K0.000 F60.000
G1 X24.704 Y89.332 Z-0.300 F60.000
G2 X24.603 Y89.310 Z-0.300 I-0.056 J0.012 K0.000 F60.000
G2 X27.013 Y89.025 Z-0.300 I1.065 J-1.329 K0.000 F60.000
G2 X27.019 Y88.988 Z-0.300 I-0.024 J-0.023 K0.000 F60.000
G2 X27.008 Y88.981 Z-0.300 I-0.011 J0.004 K0.000 F60.000
G1 X27.008 Y88.981 Z-0.600 F60.000
G3 X24.704 Y89.332 Z-0.600 I-1.355 J-1.159 K0.000 F60.000
G1 X24.704 Y89.332 Z-0.600 F60.000
G2 X24.603 Y89.310 Z-0.600 I-0.056 J0.012 K0.000 F60.000
G2 X27.013 Y89.025 Z-0.600 I1.065 J-1.329 K0.000 F60.000
G2 X27.019 Y88.988 Z-0.600 I-0.024 J-0.023 K0.000 F60.000
G2 X27.008 Y88.981 Z-0.600 I-0.011 J0.004 K0.000 F60.000
G1 X27.008 Y88.981 Z-0.900 F60.000
G3 X24.704 Y89.332 Z-0.900 I-1.355 J-1.159 K0.000 F60.000
G1 X24.704 Y89.332 Z-0.900 F60.000
G2 X24.603 Y89.310 Z-0.900 I-0.056 J0.012 K0.000 F60.000
G2 X27.013 Y89.025 Z-0.900 I1.065 J-1.329 K0.000 F60.000
G2 X27.019 Y88.988 Z-0.900 I-0.024 J-0.023 K0.000 F60.000
G2 X27.008 Y88.981 Z-0.900 I-0.011 J0.004 K0.000 F60.000
G1 X27.008 Y88.981 Z-1.200 F60.000
G3 X24.704 Y89.332 Z-1.200 I-1.355 J-1.159 K0.000 F60.000
G1 X24.704 Y89.332 Z-1.200 F60.000
G2 X24.603 Y89.310 Z-1.200 I-0.056 J0.012 K0.000 F60.000
G2 X27.013 Y89.025 Z-1.200 I1.065 J-1.329 K0.000 F60.000
G2 X27.019 Y88.988 Z-1.200 I-0.024 J-0.023 K0.000 F60.000
G2 X27.008 Y88.981 Z-1.200 I-0.011 J0.004 K0.000 F60.000
G1 X27.008 Y88.981 Z-1.500 F60.000
G3 X24.704 Y89.332 Z-1.500 I-1.355 J-1.159 K0.000 F60.000
G1 X24.704 Y89.332 Z-1.500 F60.000
G2 X24.603 Y89.310 Z-1.500 I-0.056 J0.012 K0.000 F60.000
G2 X27.013 Y89.025 Z-1.500 I1.065 J-1.329 K0.000 F60.000
G2 X27.019 Y88.988 Z-1.500 I-0.024 J-0.023 K0.000 F60.000
G2 X27.008 Y88.981 Z-1.500 I-0.011 J0.004 K0.000 F60.000
G1 X27.008 Y88.981 Z-1.800 F60.000
G3 X24.704 Y89.332 Z-1.800 I-1.355 J-1.159 K0.000 F60.000
G1 X24.704 Y89.332 Z-1.800 F60.000
G2 X24.603 Y89.310 Z-1.800 I-0.056 J0.012 K0.000 F60.000
G2 X27.013 Y89.025 Z-1.800 I1.065 J-1.329 K0.000 F60.000
G2 X27.019 Y88.988 Z-1.800 I-0.024 J-0.023 K0.000 F60.000
G2 X27.008 Y88.981 Z-1.800 I-0.011 J0.004 K0.000 F60.000
G1 X27.008 Y88.981 Z-2.100 F60.000
G3 X24.704 Y89.332 Z-2.100 I-1.355 J-1.159 K0.000 F60.000
G1 X24.704 Y89.332 Z-2.100 F60.000
G2 X24.603 Y89.310 Z-2.100 I-0.056 J0.012 K0.000 F60.000
G2 X27.013 Y89.025 Z-2.100 I1.065 J-1.329 K0.000 F60.000
G2 X27.019 Y88.988 Z-2.100 I-0.024 J-0.023 K0.000 F60.000
G2 X27.008 Y88.981 Z-2.100 I-0.011 J0.004 K0.000 F60.000
G1 X27.008 Y88.981 Z-2.400 F60.000
G3 X24.704 Y89.332 Z-2.400 I-1.355 J-1.159 K0.000 F60.000
G1 X24.704 Y89.332 Z-2.400 F60.000
G2 X24.603 Y89.310 Z-2.400 I-0.056 J0.012 K0.000 F60.000
G2 X27.013 Y89.025 Z-2.400 I1.065 J-1.329 K0.000 F60.000
G2 X27.019 Y88.988 Z-2.400 I-0.024 J-0.023 K0.000 F60.000
G2 X27.008 Y88.981 Z-2.400 I-0.011 J0.004 K0.000 F60.000
G1 X27.008 Y88.981 Z-2.700 F60.000
G3 X24.704 Y89.332 Z-2.700 I-1.355 J-1.159 K0.000 F60.000
G1 X24.704 Y89.332 Z-2.700 F60.000
G2 X24.603 Y89.310 Z-2.700 I-0.056 J0.012 K0.000 F60.000
G2 X27.013 Y89.025 Z-2.700 I1.065 J-1.329 K0.000 F60.000
G2 X27.019 Y88.988 Z-2.700 I-0.024 J-0.023 K0.000 F60.000
G2 X27.008 Y88.981 Z-2.700 I-0.011 J0.004 K0.000 F60.000
G1 X27.008 Y88.981 Z-3.000 F60.000
G3 X24.704 Y89.332 Z-3.000 I-1.355 J-1.159 K0.000 F60.000
G1 X24.704 Y89.332 Z-3.000 F60.000
G2 X24.603 Y89.310 Z-3.000 I-0.056 J0.012 K0.000 F60.000
G2 X27.013 Y89.025 Z-3.000 I1.065 J-1.329 K0.000 F60.000
G2 X27.019 Y88.988 Z-3.000 I-0.024 J-0.023 K0.000 F60.000
G2 X27.008 Y88.981 Z-3.000 I-0.011 J0.004 K0.000 F60.000
G1 X27.008 Y88.981 Z-3.300 F60.000
G3 X24.704 Y89.332 Z-3.300 I-1.355 J-1.159 K0.000 F60.000
G1 X24.704 Y89.332 Z-3.300 F60.000
G2 X24.603 Y89.310 Z-3.300 I-0.056 J0.012 K0.000 F60.000
G2 X27.013 Y89.025 Z-3.300 I1.065 J-1.329 K0.000 F60.000
G2 X27.019 Y88.988 Z-3.300 I-0.024 J-0.023 K0.000 F60.000
G2 X27.008 Y88.981 Z-3.300 I-0.011 J0.004 K0.000 F60.000
G1 X27.008 Y88.981 Z-3.600 F60.000
G3 X24.704 Y89.332 Z-3.600 I-1.355 J-1.159 K0.000 F60.000
G1 X24.704 Y89.332 Z-3.600 F60.000
G2 X24.603 Y89.310 Z-3.600 I-0.056 J0.012 K0.000 F60.000
G2 X27.013 Y89.025 Z-3.600 I1.065 J-1.329 K0.000 F60.000
G2 X27.019 Y88.988 Z-3.600 I-0.024 J-0.023 K0.000 F60.000
G2 X27.008 Y88.981 Z-3.600 I-0.011 J0.004 K0.000 F60.000
G1 X27.008 Y88.981 Z-3.900 F60.000
G3 X24.704 Y89.332 Z-3.900 I-1.355 J-1.159 K0.000 F60.000
G1 X24.704 Y89.332 Z-3.900 F60.000
G2 X24.603 Y89.310 Z-3.900 I-0.056 J0.012 K0.000 F60.000
G2 X27.013 Y89.025 Z-3.900 I1.065 J-1.329 K0.000 F60.000
G2 X27.019 Y88.988 Z-3.900 I-0.024 J-0.023 K0.000 F60.000
G2 X27.008 Y88.981 Z-3.900 I-0.011 J0.004 K0.000 F60.000
G1 X27.008 Y88.981 Z-4.000 F60.000
G3 X24.704 Y89.332 Z-4.000 I-1.355 J-1.159 K0.000 F60.000
G1 X24.704 Y89.332 Z-4.000 F60.000
G2 X24.603 Y89.310 Z-4.000 I-0.056 J0.012 K0.000 F60.000
G2 X27.013 Y89.025 Z-4.000 I1.065 J-1.329 K0.000 F60.000
G2 X27.019 Y88.988 Z-4.000 I-0.024 J-0.023 K0.000 F60.000
G2 X27.008 Y88.981 Z-4.000 I-0.011 J0.004 K0.000 F60.000
G0 Z5.000
G0 Z5.000
G0 X27.008 Y88.981
G0 X26.304 Y83.420
G0 X26.304 Y83.420 Z3.000
G1 X26.304 Y83.420 Z-0.300 F60.000
G2 X26.551 Y83.228 Z-0.300 I-0.038 J-0.303 K0.000 F60.000
G2 X26.223 Y81.952 Z-0.300 I-2.031 J-0.158 K0.000 F60.000
G2 X26.185 Y81.961 Z-0.300 I-0.018 J0.009 K0.000 F60.000
G3 X26.469 Y82.681 Z-0.300 I-21.018 J8.733 K0.000 F60.000
G3 X26.089 Y83.166 Z-0.300 I-0.351 J0.117 K0.000 F60.000
G2 X25.966 Y83.176 Z-0.300 I-0.055 J0.091 K0.000 F60.000
G2 X26.304 Y83.420 Z-0.300 I0.300 J-0.059 K0.000 F60.000
G1 X26.304 Y83.420 Z-0.600 F60.000
G2 X26.551 Y83.228 Z-0.600 I-0.038 J-0.303 K0.000 F60.000
G2 X26.223 Y81.952 Z-0.600 I-2.031 J-0.158 K0.000 F60.000
G2 X26.185 Y81.961 Z-0.600 I-0.018 J0.009 K0.000 F60.000
G3 X26.469 Y82.681 Z-0.600 I-21.018 J8.733 K0.000 F60.000
G3 X26.089 Y83.166 Z-0.600 I-0.351 J0.117 K0.000 F60.000
G2 X25.966 Y83.176 Z-0.600 I-0.055 J0.091 K0.000 F60.000
G2 X26.304 Y83.420 Z-0.600 I0.300 J-0.059 K0.000 F60.000
G1 X26.304 Y83.420 Z-0.900 F60.000
G2 X26.551 Y83.228 Z-0.900 I-0.038 J-0.303 K0.000 F60.000
G2 X26.223 Y81.952 Z-0.900 I-2.031 J-0.158 K0.000 F60.000
G2 X26.185 Y81.961 Z-0.900 I-0.018 J0.009 K0.000 F60.000
G3 X26.469 Y82.681 Z-0.900 I-21.018 J8.733 K0.000 F60.000
G3 X26.089 Y83.166 Z-0.900 I-0.351 J0.117 K0.000 F60.000
G2 X25.966 Y83.176 Z-0.900 I-0.055 J0.091 K0.000 F60.000
G2 X26.304 Y83.420 Z-0.900 I0.300 J-0.059 K0.000 F60.000
G1 X26.304 Y83.420 Z-1.200 F60.000
G2 X26.551 Y83.228 Z-1.200 I-0.038 J-0.303 K0.000 F60.000
G2 X26.223 Y81.952 Z-1.200 I-2.031 J-0.158 K0.000 F60.000
G2 X26.185 Y81.961 Z-1.200 I-0.018 J0.009 K0.000 F60.000
G3 X26.469 Y82.681 Z-1.200 I-21.018 J8.733 K0.000 F60.000
G3 X26.089 Y83.166 Z-1.200 I-0.351 J0.117 K0.000 F60.000
G2 X25.966 Y83.176 Z-1.200 I-0.055 J0.091 K0.000 F60.000
G2 X26.304 Y83.420 Z-1.200 I0.300 J-0.059 K0.000 F60.000
G1 X26.304 Y83.420 Z-1.500 F60.000
G2 X26.551 Y83.228 Z-1.500 I-0.038 J-0.303 K0.000 F60.000
G2 X26.223 Y81.952 Z-1.500 I-2.031 J-0.158 K0.000 F60.000
G2 X26.185 Y81.961 Z-1.500 I-0.018 J0.009 K0.000 F60.000
G3 X26.469 Y82.681 Z-1.500 I-21.018 J8.733 K0.000 F60.000
G3 X26.089 Y83.166 Z-1.500 I-0.351 J0.117 K0.000 F60.000
G2 X25.966 Y83.176 Z-1.500 I-0.055 J0.091 K0.000 F60.000
G2 X26.304 Y83.420 Z-1.500 I0.300 J-0.059 K0.000 F60.000
G1 X26.304 Y83.420 Z-1.800 F60.000
G2 X26.551 Y83.228 Z-1.800 I-0.038 J-0.303 K0.000 F60.000
G2 X26.223 Y81.952 Z-1.800 I-2.031 J-0.158 K0.000 F60.000
G2 X26.185 Y81.961 Z-1.800 I-0.018 J0.009 K0.000 F60.000
G3 X26.469 Y82.681 Z-1.800 I-21.018 J8.733 K0.000 F60.000
G3 X26.089 Y83.166 Z-1.800 I-0.351 J0.117 K0.000 F60.000
G2 X25.966 Y83.176 Z-1.800 I-0.055 J0.091 K0.000 F60.000
G2 X26.304 Y83.420 Z-1.800 I0.300 J-0.059 K0.000 F60.000
G1 X26.304 Y83.420 Z-2.100 F60.000
G2 X26.551 Y83.228 Z-2.100 I-0.038 J-0.303 K0.000 F60.000
G2 X26.223 Y81.952 Z-2.100 I-2.031 J-0.158 K0.000 F60.000
G2 X26.185 Y81.961 Z-2.100 I-0.018 J0.009 K0.000 F60.000
G3 X26.469 Y82.681 Z-2.100 I-21.018 J8.733 K0.000 F60.000
G3 X26.089 Y83.166 Z-2.100 I-0.351 J0.117 K0.000 F60.000
G2 X25.966 Y83.176 Z-2.100 I-0.055 J0.091 K0.000 F60.000
G2 X26.304 Y83.420 Z-2.100 I0.300 J-0.059 K0.000 F60.000
G1 X26.304 Y83.420 Z-2.400 F60.000
G2 X26.551 Y83.228 Z-2.400 I-0.038 J-0.303 K0.000 F60.000
G2 X26.223 Y81.952 Z-2.400 I-2.031 J-0.158 K0.000 F60.000
G2 X26.185 Y81.961 Z-2.400 I-0.018 J0.009 K0.000 F60.000
G3 X26.469 Y82.681 Z-2.400 I-21.018 J8.733 K0.000 F60.000
G3 X26.089 Y83.166 Z-2.400 I-0.351 J0.117 K0.000 F60.000
G2 X25.966 Y83.176 Z-2.400 I-0.055 J0.091 K0.000 F60.000
G2 X26.304 Y83.420 Z-2.400 I0.300 J-0.059 K0.000 F60.000
G1 X26.304 Y83.420 Z-2.700 F60.000
G2 X26.551 Y83.228 Z-2.700 I-0.038 J-0.303 K0.000 F60.000
G2 X26.223 Y81.952 Z-2.700 I-2.031 J-0.158 K0.000 F60.000
G2 X26.185 Y81.961 Z-2.700 I-0.018 J0.009 K0.000 F60.000
G3 X26.469 Y82.681 Z-2.700 I-21.018 J8.733 K0.000 F60.000
G3 X26.089 Y83.166 Z-2.700 I-0.351 J0.117 K0.000 F60.000
G2 X25.966 Y83.176 Z-2.700 I-0.055 J0.091 K0.000 F60.000
G2 X26.304 Y83.420 Z-2.700 I0.300 J-0.059 K0.000 F60.000
G1 X26.304 Y83.420 Z-3.000 F60.000
G2 X26.551 Y83.228 Z-3.000 I-0.038 J-0.303 K0.000 F60.000
G2 X26.223 Y81.952 Z-3.000 I-2.031 J-0.158 K0.000 F60.000
G2 X26.185 Y81.961 Z-3.000 I-0.018 J0.009 K0.000 F60.000
G3 X26.469 Y82.681 Z-3.000 I-21.018 J8.733 K0.000 F60.000
G3 X26.089 Y83.166 Z-3.000 I-0.351 J0.117 K0.000 F60.000
G2 X25.966 Y83.176 Z-3.000 I-0.055 J0.091 K0.000 F60.000
G2 X26.304 Y83.420 Z-3.000 I0.300 J-0.059 K0.000 F60.000
G1 X26.304 Y83.420 Z-3.300 F60.000
G2 X26.551 Y83.228 Z-3.300 I-0.038 J-0.303 K0.000 F60.000
G2 X26.223 Y81.952 Z-3.300 I-2.031 J-0.158 K0.000 F60.000
G2 X26.185 Y81.961 Z-3.300 I-0.018 J0.009 K0.000 F60.000
G3 X26.469 Y82.681 Z-3.300 I-21.018 J8.733 K0.000 F60.000
G3 X26.089 Y83.166 Z-3.300 I-0.351 J0.117 K0.000 F60.000
G2 X25.966 Y83.176 Z-3.300 I-0.055 J0.091 K0.000 F60.000
G2 X26.304 Y83.420 Z-3.300 I0.300 J-0.059 K0.000 F60.000
G1 X26.304 Y83.420 Z-3.600 F60.000
G2 X26.551 Y83.228 Z-3.600 I-0.038 J-0.303 K0.000 F60.000
G2 X26.223 Y81.952 Z-3.600 I-2.031 J-0.158 K0.000 F60.000
G2 X26.185 Y81.961 Z-3.600 I-0.018 J0.009 K0.000 F60.000
G3 X26.469 Y82.681 Z-3.600 I-21.018 J8.733 K0.000 F60.000
G3 X26.089 Y83.166 Z-3.600 I-0.351 J0.117 K0.000 F60.000
G2 X25.966 Y83.176 Z-3.600 I-0.055 J0.091 K0.000 F60.000
G2 X26.304 Y83.420 Z-3.600 I0.300 J-0.059 K0.000 F60.000
G1 X26.304 Y83.420 Z-3.900 F60.000
G2 X26.551 Y83.228 Z-3.900 I-0.038 J-0.303 K0.000 F60.000
G2 X26.223 Y81.952 Z-3.900 I-2.031 J-0.158 K0.000 F60.000
G2 X26.185 Y81.961 Z-3.900 I-0.018 J0.009 K0.000 F60.000
G3 X26.469 Y82.681 Z-3.900 I-21.018 J8.733 K0.000 F60.000
G3 X26.089 Y83.166 Z-3.900 I-0.351 J0.117 K0.000 F60.000
G2 X25.966 Y83.176 Z-3.900 I-0.055 J0.091 K0.000 F60.000
G2 X26.304 Y83.420 Z-3.900 I0.300 J-0.059 K0.000 F60.000
G1 X26.304 Y83.420 Z-4.000 F60.000
G2 X26.551 Y83.228 Z-4.000 I-0.038 J-0.303 K0.000 F60.000
G2 X26.223 Y81.952 Z-4.000 I-2.031 J-0.158 K0.000 F60.000
G2 X26.185 Y81.961 Z-4.000 I-0.018 J0.009 K0.000 F60.000
G3 X26.469 Y82.681 Z-4.000 I-21.018 J8.733 K0.000 F60.000
G3 X26.089 Y83.166 Z-4.000 I-0.351 J0.117 K0.000 F60.000
G2 X25.966 Y83.176 Z-4.000 I-0.055 J0.091 K0.000 F60.000
G2 X26.304 Y83.420 Z-4.000 I0.300 J-0.059 K0.000 F60.000
G0 Z5.000
G0 Z5.000
G0 X26.304 Y83.420
G0 X25.629 Y80.433
G0 X25.629 Y80.433 Z3.000
G1 X25.629 Y80.433 Z-0.300 F60.000
G2 X25.646 Y80.382 Z-0.300 I-0.007 J-0.030 K0.000 F60.000
G2 X24.657 Y78.963 Z-0.300 I-1.848 J0.235 K0.000 F60.000
G2 X23.550 Y79.138 Z-0.300 I-0.425 J0.903 K0.000 F60.000
G1 X23.553 Y79.144 Z-0.300 F60.000
G3 X24.891 Y79.150 Z-0.300 I0.664 J1.099 K0.000 F60.000
G3 X25.617 Y80.433 Z-0.300 I-1.682 J1.799 K0.000 F60.000
G2 X25.629 Y80.433 Z-0.300 I0.005 J-0.031 K0.000 F60.000
G1 X25.629 Y80.433 Z-0.600 F60.000
G2 X25.646 Y80.382 Z-0.600 I-0.007 J-0.030 K0.000 F60.000
G2 X24.657 Y78.963 Z-0.600 I-1.848 J0.235 K0.000 F60.000
G2 X23.550 Y79.138 Z-0.600 I-0.425 J0.903 K0.000 F60.000
G1 X23.553 Y79.144 Z-0.600 F60.000
G3 X24.891 Y79.150 Z-0.600 I0.664 J1.099 K0.000 F60.000
G3 X25.617 Y80.433 Z-0.600 I-1.682 J1.799 K0.000 F60.000
G2 X25.629 Y80.433 Z-0.600 I0.005 J-0.031 K0.000 F60.000
G1 X25.629 Y80.433 Z-0.900 F60.000
G2 X25.646 Y80.382 Z-0.900 I-0.007 J-0.030 K0.000 F60.000
G2 X24.657 Y78.963 Z-0.900 I-1.848 J0.235 K0.000 F60.000
G2 X23.550 Y79.138 Z-0.900 I-0.425 J0.903 K0.000 F60.000
G1 X23.553 Y79.144 Z-0.900 F60.000
G3 X24.891 Y79.150 Z-0.900 I0.664 J1.099 K0.000 F60.000
G3 X25.617 Y80.433 Z-0.900 I-1.682 J1.799 K0.000 F60.000
G2 X25.629 Y80.433 Z-0.900 I0.005 J-0.031 K0.000 F60.000
G1 X25.629 Y80.433 Z-1.200 F60.000
G2 X25.646 Y80.382 Z-1.200 I-0.007 J-0.030 K0.000 F60.000
G2 X24.657 Y78.963 Z-1.200 I-1.848 J0.235 K0.000 F60.000
G2 X23.550 Y79.138 Z-1.200 I-0.425 J0.903 K0.000 F60.000
G1 X23.553 Y79.144 Z-1.200 F60.000
G3 X24.891 Y79.150 Z-1.200 I0.664 J1.099 K0.000 F60.000
G3 X25.617 Y80.433 Z-1.200 I-1.682 J1.799 K0.000 F60.000
G2 X25.629 Y80.433 Z-1.200 I0.005 J-0.031 K0.000 F60.000
G1 X25.629 Y80.433 Z-1.500 F60.000
G2 X25.646 Y80.382 Z-1.500 I-0.007 J-0.030 K0.000 F60.000
G2 X24.657 Y78.963 Z-1.500 I-1.848 J0.235 K0.000 F60.000
G2 X23.550 Y79.138 Z-1.500 I-0.425 J0.903 K0.000 F60.000
G1 X23.553 Y79.144 Z-1.500 F60.000
G3 X24.891 Y79.150 Z-1.500 I0.664 J1.099 K0.000 F60.000
G3 X25.617 Y80.433 Z-1.500 I-1.682 J1.799 K0.000 F60.000
G2 X25.629 Y80.433 Z-1.500 I0.005 J-0.031 K0.000 F60.000
G1 X25.629 Y80.433 Z-1.800 F60.000
G2 X25.646 Y80.382 Z-1.800 I-0.007 J-0.030 K0.000 F60.000
G2 X24.657 Y78.963 Z-1.800 I-1.848 J0.235 K0.000 F60.000
G2 X23.550 Y79.138 Z-1.800 I-0.425 J0.903 K0.000 F60.000
G1 X23.553 Y79.144 Z-1.800 F60.000
G3 X24.891 Y79.150 Z-1.800 I0.664 J1.099 K0.000 F60.000
G3 X25.617 Y80.433 Z-1.800 I-1.682 J1.799 K0.000 F60.000
G2 X25.629 Y80.433 Z-1.800 I0.005 J-0.031 K0.000 F60.000
G1 X25.629 Y80.433 Z-2.100 F60.000
G2 X25.646 Y80.382 Z-2.100 I-0.007 J-0.030 K0.000 F60.000
G2 X24.657 Y78.963 Z-2.100 I-1.848 J0.235 K0.000 F60.000
G2 X23.550 Y79.138 Z-2.100 I-0.425 J0.903 K0.000 F60.000
G1 X23.553 Y79.144 Z-2.100 F60.000
G3 X24.891 Y79.150 Z-2.100 I0.664 J1.099 K0.000 F60.000
G3 X25.617 Y80.433 Z-2.100 I-1.682 J1.799 K0.000 F60.000
G2 X25.629 Y80.433 Z-2.100 I0.005 J-0.031 K0.000 F60.000
G1 X25.629 Y80.433 Z-2.400 F60.000
G2 X25.646 Y80.382 Z-2.400 I-0.007 J-0.030 K0.000 F60.000
G2 X24.657 Y78.963 Z-2.400 I-1.848 J0.235 K0.000 F60.000
G2 X23.550 Y79.138 Z-2.400 I-0.425 J0.903 K0.000 F60.000
G1 X23.553 Y79.144 Z-2.400 F60.000
G3 X24.891 Y79.150 Z-2.400 I0.664 J1.099 K0.000 F60.000
G3 X25.617 Y80.433 Z-2.400 I-1.682 J1.799 K0.000 F60.000
G2 X25.629 Y80.433 Z-2.400 I0.005 J-0.031 K0.000 F60.000
G1 X25.629 Y80.433 Z-2.700 F60.000
G2 X25.646 Y80.382 Z-2.700 I-0.007 J-0.030 K0.000 F60.000
G2 X24.657 Y78.963 Z-2.700 I-1.848 J0.235 K0.000 F60.000
G2 X23.550 Y79.138 Z-2.700 I-0.425 J0.903 K0.000 F60.000
G1 X23.553 Y79.144 Z-2.700 F60.000
G3 X24.891 Y79.150 Z-2.700 I0.664 J1.099 K0.000 F60.000
G3 X25.617 Y80.433 Z-2.700 I-1.682 J1.799 K0.000 F60.000
G2 X25.629 Y80.433 Z-2.700 I0.005 J-0.031 K0.000 F60.000
G1 X25.629 Y80.433 Z-3.000 F60.000
G2 X25.646 Y80.382 Z-3.000 I-0.007 J-0.030 K0.000 F60.000
G2 X24.657 Y78.963 Z-3.000 I-1.848 J0.235 K0.000 F60.000
G2 X23.550 Y79.138 Z-3.000 I-0.425 J0.903 K0.000 F60.000
G1 X23.553 Y79.144 Z-3.000 F60.000
G3 X24.891 Y79.150 Z-3.000 I0.664 J1.099 K0.000 F60.000
G3 X25.617 Y80.433 Z-3.000 I-1.682 J1.799 K0.000 F60.000
G2 X25.629 Y80.433 Z-3.000 I0.005 J-0.031 K0.000 F60.000
G1 X25.629 Y80.433 Z-3.300 F60.000
G2 X25.646 Y80.382 Z-3.300 I-0.007 J-0.030 K0.000 F60.000
G2 X24.657 Y78.963 Z-3.300 I-1.848 J0.235 K0.000 F60.000
G2 X23.550 Y79.138 Z-3.300 I-0.425 J0.903 K0.000 F60.000
G1 X23.553 Y79.144 Z-3.300 F60.000
G3 X24.891 Y79.150 Z-3.300 I0.664 J1.099 K0.000 F60.000
G3 X25.617 Y80.433 Z-3.300 I-1.682 J1.799 K0.000 F60.000
G2 X25.629 Y80.433 Z-3.300 I0.005 J-0.031 K0.000 F60.000
G1 X25.629 Y80.433 Z-3.600 F60.000
G2 X25.646 Y80.382 Z-3.600 I-0.007 J-0.030 K0.000 F60.000
G2 X24.657 Y78.963 Z-3.600 I-1.848 J0.235 K0.000 F60.000
G2 X23.550 Y79.138 Z-3.600 I-0.425 J0.903 K0.000 F60.000
G1 X23.553 Y79.144 Z-3.600 F60.000
G3 X24.891 Y79.150 Z-3.600 I0.664 J1.099 K0.000 F60.000
G3 X25.617 Y80.433 Z-3.600 I-1.682 J1.799 K0.000 F60.000
G2 X25.629 Y80.433 Z-3.600 I0.005 J-0.031 K0.000 F60.000
G1 X25.629 Y80.433 Z-3.900 F60.000
G2 X25.646 Y80.382 Z-3.900 I-0.007 J-0.030 K0.000 F60.000
G2 X24.657 Y78.963 Z-3.900 I-1.848 J0.235 K0.000 F60.000
G2 X23.550 Y79.138 Z-3.900 I-0.425 J0.903 K0.000 F60.000
G1 X23.553 Y79.144 Z-3.900 F60.000
G3 X24.891 Y79.150 Z-3.900 I0.664 J1.099 K0.000 F60.000
G3 X25.617 Y80.433 Z-3.900 I-1.682 J1.799 K0.000 F60.000
G2 X25.629 Y80.433 Z-3.900 I0.005 J-0.031 K0.000 F60.000
G1 X25.629 Y80.433 Z-4.000 F60.000
G2 X25.646 Y80.382 Z-4.000 I-0.007 J-0.030 K0.000 F60.000
G2 X24.657 Y78.963 Z-4.000 I-1.848 J0.235 K0.000 F60.000
G2 X23.550 Y79.138 Z-4.000 I-0.425 J0.903 K0.000 F60.000
G1 X23.553 Y79.144 Z-4.000 F60.000
G3 X24.891 Y79.150 Z-4.000 I0.664 J1.099 K0.000 F60.000
G3 X25.617 Y80.433 Z-4.000 I-1.682 J1.799 K0.000 F60.000
G2 X25.629 Y80.433 Z-4.000 I0.005 J-0.031 K0.000 F60.000
G0 Z5.000
G0 Z5.000
(Finish operation: DBM_Kopf)
(Begin operation: DBM_Korpus)
(Path: DBM_Korpus)
(DBM_Korpus)
(Compensated Tool Path. Diameter: 0.8)
G0 Z5.000
G0 X28.480 Y66.999
G0 Z3.000
G1 X28.480 Y66.999 Z-0.300 F60.000
G3 X27.659 Y67.178 Z-0.300 I-0.541 J-0.509 K0.000 F60.000
G3 X27.794 Y67.152 Z-0.300 I0.080 J0.055 K0.000 F60.000
G2 X28.648 Y66.463 Z-0.300 I0.128 J-0.716 K0.000 F60.000
G2 X28.508 Y64.833 Z-0.300 I-4.599 J-0.425 K0.000 F60.000
G3 X28.543 Y64.790 Z-0.300 I0.054 J0.008 K0.000 F60.000
G3 X28.634 Y66.754 Z-0.300 I-3.408 J1.142 K0.000 F60.000
G3 X28.480 Y66.999 Z-0.300 I-0.694 J-0.264 K0.000 F60.000
G1 X28.480 Y66.999 Z-0.600 F60.000
G3 X27.659 Y67.178 Z-0.600 I-0.541 J-0.509 K0.000 F60.000
G3 X27.794 Y67.152 Z-0.600 I0.080 J0.055 K0.000 F60.000
G2 X28.648 Y66.463 Z-0.600 I0.128 J-0.716 K0.000 F60.000
G2 X28.508 Y64.833 Z-0.600 I-4.599 J-0.425 K0.000 F60.000
G3 X28.543 Y64.790 Z-0.600 I0.054 J0.008 K0.000 F60.000
G3 X28.634 Y66.754 Z-0.600 I-3.408 J1.142 K0.000 F60.000
G3 X28.480 Y66.999 Z-0.600 I-0.694 J-0.264 K0.000 F60.000
G1 X28.480 Y66.999 Z-0.900 F60.000
G3 X27.659 Y67.178 Z-0.900 I-0.541 J-0.509 K0.000 F60.000
G3 X27.794 Y67.152 Z-0.900 I0.080 J0.055 K0.000 F60.000
G2 X28.648 Y66.463 Z-0.900 I0.128 J-0.716 K0.000 F60.000
G2 X28.508 Y64.833 Z-0.900 I-4.599 J-0.425 K0.000 F60.000
G3 X28.543 Y64.790 Z-0.900 I0.054 J0.008 K0.000 F60.000
G3 X28.634 Y66.754 Z-0.900 I-3.408 J1.142 K0.000 F60.000
G3 X28.480 Y66.999 Z-0.900 I-0.694 J-0.264 K0.000 F60.000
G1 X28.480 Y66.999 Z-1.200 F60.000
G3 X27.659 Y67.178 Z-1.200 I-0.541 J-0.509 K0.000 F60.000
G3 X27.794 Y67.152 Z-1.200 I0.080 J0.055 K0.000 F60.000
G2 X28.648 Y66.463 Z-1.200 I0.128 J-0.716 K0.000 F60.000
G2 X28.508 Y64.833 Z-1.200 I-4.599 J-0.425 K0.000 F60.000
G3 X28.543 Y64.790 Z-1.200 I0.054 J0.008 K0.000 F60.000
G3 X28.634 Y66.754 Z-1.200 I-3.408 J1.142 K0.000 F60.000
G3 X28.480 Y66.999 Z-1.200 I-0.694 J-0.264 K0.000 F60.000
G1 X28.480 Y66.999 Z-1.500 F60.000
G3 X27.659 Y67.178 Z-1.500 I-0.541 J-0.509 K0.000 F60.000
G3 X27.794 Y67.152 Z-1.500 I0.080 J0.055 K0.000 F60.000
G2 X28.648 Y66.463 Z-1.500 I0.128 J-0.716 K0.000 F60.000
G2 X28.508 Y64.833 Z-1.500 I-4.599 J-0.425 K0.000 F60.000
G3 X28.543 Y64.790 Z-1.500 I0.054 J0.008 K0.000 F60.000
G3 X28.634 Y66.754 Z-1.500 I-3.408 J1.142 K0.000 F60.000
G3 X28.480 Y66.999 Z-1.500 I-0.694 J-0.264 K0.000 F60.000
G1 X28.480 Y66.999 Z-1.800 F60.000
G3 X27.659 Y67.178 Z-1.800 I-0.541 J-0.509 K0.000 F60.000
G3 X27.794 Y67.152 Z-1.800 I0.080 J0.055 K0.000 F60.000
G2 X28.648 Y66.463 Z-1.800 I0.128 J-0.716 K0.000 F60.000
G2 X28.508 Y64.833 Z-1.800 I-4.599 J-0.425 K0.000 F60.000
G3 X28.543 Y64.790 Z-1.800 I0.054 J0.008 K0.000 F60.000
G3 X28.634 Y66.754 Z-1.800 I-3.408 J1.142 K0.000 F60.000
G3 X28.480 Y66.999 Z-1.800 I-0.694 J-0.264 K0.000 F60.000
G1 X28.480 Y66.999 Z-2.100 F60.000
G3 X27.659 Y67.178 Z-2.100 I-0.541 J-0.509 K0.000 F60.000
G3 X27.794 Y67.152 Z-2.100 I0.080 J0.055 K0.000 F60.000
G2 X28.648 Y66.463 Z-2.100 I0.128 J-0.716 K0.000 F60.000
G2 X28.508 Y64.833 Z-2.100 I-4.599 J-0.425 K0.000 F60.000
G3 X28.543 Y64.790 Z-2.100 I0.054 J0.008 K0.000 F60.000
G3 X28.634 Y66.754 Z-2.100 I-3.408 J1.142 K0.000 F60.000
G3 X28.480 Y66.999 Z-2.100 I-0.694 J-0.264 K0.000 F60.000
G1 X28.480 Y66.999 Z-2.400 F60.000
G3 X27.659 Y67.178 Z-2.400 I-0.541 J-0.509 K0.000 F60.000
G3 X27.794 Y67.152 Z-2.400 I0.080 J0.055 K0.000 F60.000
G2 X28.648 Y66.463 Z-2.400 I0.128 J-0.716 K0.000 F60.000
G2 X28.508 Y64.833 Z-2.400 I-4.599 J-0.425 K0.000 F60.000
G3 X28.543 Y64.790 Z-2.400 I0.054 J0.008 K0.000 F60.000
G3 X28.634 Y66.754 Z-2.400 I-3.408 J1.142 K0.000 F60.000
G3 X28.480 Y66.999 Z-2.400 I-0.694 J-0.264 K0.000 F60.000
G1 X28.480 Y66.999 Z-2.700 F60.000
G3 X27.659 Y67.178 Z-2.700 I-0.541 J-0.509 K0.000 F60.000
G3 X27.794 Y67.152 Z-2.700 I0.080 J0.055 K0.000 F60.000
G2 X28.648 Y66.463 Z-2.700 I0.128 J-0.716 K0.000 F60.000
G2 X28.508 Y64.833 Z-2.700 I-4.599 J-0.425 K0.000 F60.000
G3 X28.543 Y64.790 Z-2.700 I0.054 J0.008 K0.000 F60.000
G3 X28.634 Y66.754 Z-2.700 I-3.408 J1.142 K0.000 F60.000
G3 X28.480 Y66.999 Z-2.700 I-0.694 J-0.264 K0.000 F60.000
G1 X28.480 Y66.999 Z-3.000 F60.000
G3 X27.659 Y67.178 Z-3.000 I-0.541 J-0.509 K0.000 F60.000
G3 X27.794 Y67.152 Z-3.000 I0.080 J0.055 K0.000 F60.000
G2 X28.648 Y66.463 Z-3.000 I0.128 J-0.716 K0.000 F60.000
G2 X28.508 Y64.833 Z-3.000 I-4.599 J-0.425 K0.000 F60.000
G3 X28.543 Y64.790 Z-3.000 I0.054 J0.008 K0.000 F60.000
G3 X28.634 Y66.754 Z-3.000 I-3.408 J1.142 K0.000 F60.000
G3 X28.480 Y66.999 Z-3.000 I-0.694 J-0.264 K0.000 F60.000
G1 X28.480 Y66.999 Z-3.300 F60.000
G3 X27.659 Y67.178 Z-3.300 I-0.541 J-0.509 K0.000 F60.000
G3 X27.794 Y67.152 Z-3.300 I0.080 J0.055 K0.000 F60.000
G2 X28.648 Y66.463 Z-3.300 I0.128 J-0.716 K0.000 F60.000
G2 X28.508 Y64.833 Z-3.300 I-4.599 J-0.425 K0.000 F60.000
G3 X28.543 Y64.790 Z-3.300 I0.054 J0.008 K0.000 F60.000
G3 X28.634 Y66.754 Z-3.300 I-3.408 J1.142 K0.000 F60.000
G3 X28.480 Y66.999 Z-3.300 I-0.694 J-0.264 K0.000 F60.000
G1 X28.480 Y66.999 Z-3.600 F60.000
G3 X27.659 Y67.178 Z-3.600 I-0.541 J-0.509 K0.000 F60.000
G3 X27.794 Y67.152 Z-3.600 I0.080 J0.055 K0.000 F60.000
G2 X28.648 Y66.463 Z-3.600 I0.128 J-0.716 K0.000 F60.000
G2 X28.508 Y64.833 Z-3.600 I-4.599 J-0.425 K0.000 F60.000
G3 X28.543 Y64.790 Z-3.600 I0.054 J0.008 K0.000 F60.000
G3 X28.634 Y66.754 Z-3.600 I-3.408 J1.142 K0.000 F60.000
G3 X28.480 Y66.999 Z-3.600 I-0.694 J-0.264 K0.000 F60.000
G1 X28.480 Y66.999 Z-3.900 F60.000
G3 X27.659 Y67.178 Z-3.900 I-0.541 J-0.509 K0.000 F60.000
G3 X27.794 Y67.152 Z-3.900 I0.080 J0.055 K0.000 F60.000
G2 X28.648 Y66.463 Z-3.900 I0.128 J-0.716 K0.000 F60.000
G2 X28.508 Y64.833 Z-3.900 I-4.599 J-0.425 K0.000 F60.000
G3 X28.543 Y64.790 Z-3.900 I0.054 J0.008 K0.000 F60.000
G3 X28.634 Y66.754 Z-3.900 I-3.408 J1.142 K0.000 F60.000
G3 X28.480 Y66.999 Z-3.900 I-0.694 J-0.264 K0.000 F60.000
G1 X28.480 Y66.999 Z-4.000 F60.000
G3 X27.659 Y67.178 Z-4.000 I-0.541 J-0.509 K0.000 F60.000
G3 X27.794 Y67.152 Z-4.000 I0.080 J0.055 K0.000 F60.000
G2 X28.648 Y66.463 Z-4.000 I0.128 J-0.716 K0.000 F60.000
G2 X28.508 Y64.833 Z-4.000 I-4.599 J-0.425 K0.000 F60.000
G3 X28.543 Y64.790 Z-4.000 I0.054 J0.008 K0.000 F60.000
G3 X28.634 Y66.754 Z-4.000 I-3.408 J1.142 K0.000 F60.000
G3 X28.480 Y66.999 Z-4.000 I-0.694 J-0.264 K0.000 F60.000
G0 Z5.000
G0 Z5.000
G0 X28.480 Y66.999
G0 X26.307 Y67.667
G0 X26.307 Y67.667 Z3.000
G1 X26.307 Y67.667 Z-0.300 F60.000
G3 X26.266 Y67.717 Z-0.300 I-0.037 J0.012 K0.000 F60.000
G2 X25.144 Y68.830 Z-0.300 I4.336 J5.493 K0.000 F60.000
G3 X25.125 Y68.823 Z-0.300 I-0.004 J-0.018 K0.000 F60.000
G3 X26.274 Y67.639 Z-0.300 I3.358 J2.111 K0.000 F60.000
G3 X26.307 Y67.667 Z-0.300 I-0.004 J0.039 K0.000 F60.000
G1 X26.307 Y67.667 Z-0.600 F60.000
G3 X26.266 Y67.717 Z-0.600 I-0.037 J0.012 K0.000 F60.000
G2 X25.144 Y68.830 Z-0.600 I4.336 J5.493 K0.000 F60.000
G3 X25.125 Y68.823 Z-0.600 I-0.004 J-0.018 K0.000 F60.000
G3 X26.274 Y67.639 Z-0.600 I3.358 J2.111 K0.000 F60.000
G3 X26.307 Y67.667 Z-0.600 I-0.004 J0.039 K0.000 F60.000
G1 X26.307 Y67.667 Z-0.900 F60.000
G3 X26.266 Y67.717 Z-0.900 I-0.037 J0.012 K0.000 F60.000
G2 X25.144 Y68.830 Z-0.900 I4.336 J5.493 K0.000 F60.000
G3 X25.125 Y68.823 Z-0.900 I-0.004 J-0.018 K0.000 F60.000
G3 X26.274 Y67.639 Z-0.900 I3.358 J2.111 K0.000 F60.000
G3 X26.307 Y67.667 Z-0.900 I-0.004 J0.039 K0.000 F60.000
G1 X26.307 Y67.667 Z-1.200 F60.000
G3 X26.266 Y67.717 Z-1.200 I-0.037 J0.012 K0.000 F60.000
G2 X25.144 Y68.830 Z-1.200 I4.336 J5.493 K0.000 F60.000
G3 X25.125 Y68.823 Z-1.200 I-0.004 J-0.018 K0.000 F60.000
G3 X26.274 Y67.639 Z-1.200 I3.358 J2.111 K0.000 F60.000
G3 X26.307 Y67.667 Z-1.200 I-0.004 J0.039 K0.000 F60.000
G1 X26.307 Y67.667 Z-1.500 F60.000
G3 X26.266 Y67.717 Z-1.500 I-0.037 J0.012 K0.000 F60.000
G2 X25.144 Y68.830 Z-1.500 I4.336 J5.493 K0.000 F60.000
G3 X25.125 Y68.823 Z-1.500 I-0.004 J-0.018 K0.000 F60.000
G3 X26.274 Y67.639 Z-1.500 I3.358 J2.111 K0.000 F60.000
G3 X26.307 Y67.667 Z-1.500 I-0.004 J0.039 K0.000 F60.000
G1 X26.307 Y67.667 Z-1.800 F60.000
G3 X26.266 Y67.717 Z-1.800 I-0.037 J0.012 K0.000 F60.000
G2 X25.144 Y68.830 Z-1.800 I4.336 J5.493 K0.000 F60.000
G3 X25.125 Y68.823 Z-1.800 I-0.004 J-0.018 K0.000 F60.000
G3 X26.274 Y67.639 Z-1.800 I3.358 J2.111 K0.000 F60.000
G3 X26.307 Y67.667 Z-1.800 I-0.004 J0.039 K0.000 F60.000
G1 X26.307 Y67.667 Z-2.100 F60.000
G3 X26.266 Y67.717 Z-2.100 I-0.037 J0.012 K0.000 F60.000
G2 X25.144 Y68.830 Z-2.100 I4.336 J5.493 K0.000 F60.000
G3 X25.125 Y68.823 Z-2.100 I-0.004 J-0.018 K0.000 F60.000
G3 X26.274 Y67.639 Z-2.100 I3.358 J2.111 K0.000 F60.000
G3 X26.307 Y67.667 Z-2.100 I-0.004 J0.039 K0.000 F60.000
G1 X26.307 Y67.667 Z-2.400 F60.000
G3 X26.266 Y67.717 Z-2.400 I-0.037 J0.012 K0.000 F60.000
G2 X25.144 Y68.830 Z-2.400 I4.336 J5.493 K0.000 F60.000
G3 X25.125 Y68.823 Z-2.400 I-0.004 J-0.018 K0.000 F60.000
G3 X26.274 Y67.639 Z-2.400 I3.358 J2.111 K0.000 F60.000
G3 X26.307 Y67.667 Z-2.400 I-0.004 J0.039 K0.000 F60.000
G1 X26.307 Y67.667 Z-2.700 F60.000
G3 X26.266 Y67.717 Z-2.700 I-0.037 J0.012 K0.000 F60.000
G2 X25.144 Y68.830 Z-2.700 I4.336 J5.493 K0.000 F60.000
G3 X25.125 Y68.823 Z-2.700 I-0.004 J-0.018 K0.000 F60.000
G3 X26.274 Y67.639 Z-2.700 I3.358 J2.111 K0.000 F60.000
G3 X26.307 Y67.667 Z-2.700 I-0.004 J0.039 K0.000 F60.000
G1 X26.307 Y67.667 Z-3.000 F60.000
G3 X26.266 Y67.717 Z-3.000 I-0.037 J0.012 K0.000 F60.000
G2 X25.144 Y68.830 Z-3.000 I4.336 J5.493 K0.000 F60.000
G3 X25.125 Y68.823 Z-3.000 I-0.004 J-0.018 K0.000 F60.000
G3 X26.274 Y67.639 Z-3.000 I3.358 J2.111 K0.000 F60.000
G3 X26.307 Y67.667 Z-3.000 I-0.004 J0.039 K0.000 F60.000
G1 X26.307 Y67.667 Z-3.300 F60.000
G3 X26.266 Y67.717 Z-3.300 I-0.037 J0.012 K0.000 F60.000
G2 X25.144 Y68.830 Z-3.300 I4.336 J5.493 K0.000 F60.000
G3 X25.125 Y68.823 Z-3.300 I-0.004 J-0.018 K0.000 F60.000
G3 X26.274 Y67.639 Z-3.300 I3.358 J2.111 K0.000 F60.000
G3 X26.307 Y67.667 Z-3.300 I-0.004 J0.039 K0.000 F60.000
G1 X26.307 Y67.667 Z-3.600 F60.000
G3 X26.266 Y67.717 Z-3.600 I-0.037 J0.012 K0.000 F60.000
G2 X25.144 Y68.830 Z-3.600 I4.336 J5.493 K0.000 F60.000
G3 X25.125 Y68.823 Z-3.600 I-0.004 J-0.018 K0.000 F60.000
G3 X26.274 Y67.639 Z-3.600 I3.358 J2.111 K0.000 F60.000
G3 X26.307 Y67.667 Z-3.600 I-0.004 J0.039 K0.000 F60.000
G1 X26.307 Y67.667 Z-3.900 F60.000
G3 X26.266 Y67.717 Z-3.900 I-0.037 J0.012 K0.000 F60.000
G2 X25.144 Y68.830 Z-3.900 I4.336 J5.493 K0.000 F60.000
G3 X25.125 Y68.823 Z-3.900 I-0.004 J-0.018 K0.000 F60.000
G3 X26.274 Y67.639 Z-3.900 I3.358 J2.111 K0.000 F60.000
G3 X26.307 Y67.667 Z-3.900 I-0.004 J0.039 K0.000 F60.000
G1 X26.307 Y67.667 Z-4.000 F60.000
G3 X26.266 Y67.717 Z-4.000 I-0.037 J0.012 K0.000 F60.000
G2 X25.144 Y68.830 Z-4.000 I4.336 J5.493 K0.000 F60.000
G3 X25.125 Y68.823 Z-4.000 I-0.004 J-0.018 K0.000 F60.000
G3 X26.274 Y67.639 Z-4.000 I3.358 J2.111 K0.000 F60.000
G3 X26.307 Y67.667 Z-4.000 I-0.004 J0.039 K0.000 F60.000
G0 Z5.000
G0 Z5.000
G0 X26.307 Y67.667
G0 X25.441 Y70.245
G0 X25.441 Y70.245 Z3.000
G1 X25.441 Y70.245 Z-0.300 F60.000
G3 X26.089 Y70.909 Z-0.300 I-0.324 J0.965 K0.000 F60.000
G3 X26.079 Y71.113 Z-0.300 I-0.425 J0.082 K0.000 F60.000
G3 X26.040 Y71.096 Z-0.300 I-0.014 J-0.022 K0.000 F60.000
G2 X25.122 Y70.226 Z-0.300 I-0.962 J0.096 K0.000 F60.000
G3 X25.157 Y70.193 Z-0.300 I0.026 J-0.007 K0.000 F60.000
G3 X25.441 Y70.245 Z-0.300 I-0.040 J1.017 K0.000 F60.000
G1 X25.441 Y70.245 Z-0.600 F60.000
G3 X26.089 Y70.909 Z-0.600 I-0.324 J0.965 K0.000 F60.000
G3 X26.079 Y71.113 Z-0.600 I-0.425 J0.082 K0.000 F60.000
G3 X26.040 Y71.096 Z-0.600 I-0.014 J-0.022 K0.000 F60.000
G2 X25.122 Y70.226 Z-0.600 I-0.962 J0.096 K0.000 F60.000
G3 X25.157 Y70.193 Z-0.600 I0.026 J-0.007 K0.000 F60.000
G3 X25.441 Y70.245 Z-0.600 I-0.040 J1.017 K0.000 F60.000
G1 X25.441 Y70.245 Z-0.900 F60.000
G3 X26.089 Y70.909 Z-0.900 I-0.324 J0.965 K0.000 F60.000
G3 X26.079 Y71.113 Z-0.900 I-0.425 J0.082 K0.000 F60.000
G3 X26.040 Y71.096 Z-0.900 I-0.014 J-0.022 K0.000 F60.000
G2 X25.122 Y70.226 Z-0.900 I-0.962 J0.096 K0.000 F60.000
G3 X25.157 Y70.193 Z-0.900 I0.026 J-0.007 K0.000 F60.000
G3 X25.441 Y70.245 Z-0.900 I-0.040 J1.017 K0.000 F60.000
G1 X25.441 Y70.245 Z-1.200 F60.000
G3 X26.089 Y70.909 Z-1.200 I-0.324 J0.965 K0.000 F60.000
G3 X26.079 Y71.113 Z-1.200 I-0.425 J0.082 K0.000 F60.000
G3 X26.040 Y71.096 Z-1.200 I-0.014 J-0.022 K0.000 F60.000
G2 X25.122 Y70.226 Z-1.200 I-0.962 J0.096 K0.000 F60.000
G3 X25.157 Y70.193 Z-1.200 I0.026 J-0.007 K0.000 F60.000
G3 X25.441 Y70.245 Z-1.200 I-0.040 J1.017 K0.000 F60.000
G1 X25.441 Y70.245 Z-1.500 F60.000
G3 X26.089 Y70.909 Z-1.500 I-0.324 J0.965 K0.000 F60.000
G3 X26.079 Y71.113 Z-1.500 I-0.425 J0.082 K0.000 F60.000
G3 X26.040 Y71.096 Z-1.500 I-0.014 J-0.022 K0.000 F60.000
G2 X25.122 Y70.226 Z-1.500 I-0.962 J0.096 K0.000 F60.000
G3 X25.157 Y70.193 Z-1.500 I0.026 J-0.007 K0.000 F60.000
G3 X25.441 Y70.245 Z-1.500 I-0.040 J1.017 K0.000 F60.000
G1 X25.441 Y70.245 Z-1.800 F60.000
G3 X26.089 Y70.909 Z-1.800 I-0.324 J0.965 K0.000 F60.000
G3 X26.079 Y71.113 Z-1.800 I-0.425 J0.082 K0.000 F60.000
G3 X26.040 Y71.096 Z-1.800 I-0.014 J-0.022 K0.000 F60.000
G2 X25.122 Y70.226 Z-1.800 I-0.962 J0.096 K0.000 F60.000
G3 X25.157 Y70.193 Z-1.800 I0.026 J-0.007 K0.000 F60.000
G3 X25.441 Y70.245 Z-1.800 I-0.040 J1.017 K0.000 F60.000
G1 X25.441 Y70.245 Z-2.100 F60.000
G3 X26.089 Y70.909 Z-2.100 I-0.324 J0.965 K0.000 F60.000
G3 X26.079 Y71.113 Z-2.100 I-0.425 J0.082 K0.000 F60.000
G3 X26.040 Y71.096 Z-2.100 I-0.014 J-0.022 K0.000 F60.000
G2 X25.122 Y70.226 Z-2.100 I-0.962 J0.096 K0.000 F60.000
G3 X25.157 Y70.193 Z-2.100 I0.026 J-0.007 K0.000 F60.000
G3 X25.441 Y70.245 Z-2.100 I-0.040 J1.017 K0.000 F60.000
G1 X25.441 Y70.245 Z-2.400 F60.000
G3 X26.089 Y70.909 Z-2.400 I-0.324 J0.965 K0.000 F60.000
G3 X26.079 Y71.113 Z-2.400 I-0.425 J0.082 K0.000 F60.000
G3 X26.040 Y71.096 Z-2.400 I-0.014 J-0.022 K0.000 F60.000
G2 X25.122 Y70.226 Z-2.400 I-0.962 J0.096 K0.000 F60.000
G3 X25.157 Y70.193 Z-2.400 I0.026 J-0.007 K0.000 F60.000
G3 X25.441 Y70.245 Z-2.400 I-0.040 J1.017 K0.000 F60.000
G1 X25.441 Y70.245 Z-2.700 F60.000
G3 X26.089 Y70.909 Z-2.700 I-0.324 J0.965 K0.000 F60.000
G3 X26.079 Y71.113 Z-2.700 I-0.425 J0.082 K0.000 F60.000
G3 X26.040 Y71.096 Z-2.700 I-0.014 J-0.022 K0.000 F60.000
G2 X25.122 Y70.226 Z-2.700 I-0.962 J0.096 K0.000 F60.000
G3 X25.157 Y70.193 Z-2.700 I0.026 J-0.007 K0.000 F60.000
G3 X25.441 Y70.245 Z-2.700 I-0.040 J1.017 K0.000 F60.000
G1 X25.441 Y70.245 Z-3.000 F60.000
G3 X26.089 Y70.909 Z-3.000 I-0.324 J0.965 K0.000 F60.000
G3 X26.079 Y71.113 Z-3.000 I-0.425 J0.082 K0.000 F60.000
G3 X26.040 Y71.096 Z-3.000 I-0.014 J-0.022 K0.000 F60.000
G2 X25.122 Y70.226 Z-3.000 I-0.962 J0.096 K0.000 F60.000
G3 X25.157 Y70.193 Z-3.000 I0.026 J-0.007 K0.000 F60.000
G3 X25.441 Y70.245 Z-3.000 I-0.040 J1.017 K0.000 F60.000
G1 X25.441 Y70.245 Z-3.300 F60.000
G3 X26.089 Y70.909 Z-3.300 I-0.324 J0.965 K0.000 F60.000
G3 X26.079 Y71.113 Z-3.300 I-0.425 J0.082 K0.000 F60.000
G3 X26.040 Y71.096 Z-3.300 I-0.014 J-0.022 K0.000 F60.000
G2 X25.122 Y70.226 Z-3.300 I-0.962 J0.096 K0.000 F60.000
G3 X25.157 Y70.193 Z-3.300 I0.026 J-0.007 K0.000 F60.000
G3 X25.441 Y70.245 Z-3.300 I-0.040 J1.017 K0.000 F60.000
G1 X25.441 Y70.245 Z-3.600 F60.000
G3 X26.089 Y70.909 Z-3.600 I-0.324 J0.965 K0.000 F60.000
G3 X26.079 Y71.113 Z-3.600 I-0.425 J0.082 K0.000 F60.000
G3 X26.040 Y71.096 Z-3.600 I-0.014 J-0.022 K0.000 F60.000
G2 X25.122 Y70.226 Z-3.600 I-0.962 J0.096 K0.000 F60.000
G3 X25.157 Y70.193 Z-3.600 I0.026 J-0.007 K0.000 F60.000
G3 X25.441 Y70.245 Z-3.600 I-0.040 J1.017 K0.000 F60.000
G1 X25.441 Y70.245 Z-3.900 F60.000
G3 X26.089 Y70.909 Z-3.900 I-0.324 J0.965 K0.000 F60.000
G3 X26.079 Y71.113 Z-3.900 I-0.425 J0.082 K0.000 F60.000
G3 X26.040 Y71.096 Z-3.900 I-0.014 J-0.022 K0.000 F60.000
G2 X25.122 Y70.226 Z-3.900 I-0.962 J0.096 K0.000 F60.000
G3 X25.157 Y70.193 Z-3.900 I0.026 J-0.007 K0.000 F60.000
G3 X25.441 Y70.245 Z-3.900 I-0.040 J1.017 K0.000 F60.000
G1 X25.441 Y70.245 Z-4.000 F60.000
G3 X26.089 Y70.909 Z-4.000 I-0.324 J0.965 K0.000 F60.000
G3 X26.079 Y71.113 Z-4.000 I-0.425 J0.082 K0.000 F60.000
G3 X26.040 Y71.096 Z-4.000 I-0.014 J-0.022 K0.000 F60.000
G2 X25.122 Y70.226 Z-4.000 I-0.962 J0.096 K0.000 F60.000
G3 X25.157 Y70.193 Z-4.000 I0.026 J-0.007 K0.000 F60.000
G3 X25.441 Y70.245 Z-4.000 I-0.040 J1.017 K0.000 F60.000
G0 Z5.000
G0 Z5.000
G0 X25.441 Y70.245
G0 X23.883 Y69.751
G0 X23.883 Y69.751 Z3.000
G1 X23.883 Y69.751 Z-0.300 F60.000
G3 X23.823 Y69.772 Z-0.300 I-0.038 J-0.012 K0.000 F60.000
G2 X22.335 Y71.098 Z-0.300 I0.282 J1.815 K0.000 F60.000
G2 X22.546 Y74.095 Z-0.300 I5.718 J1.104 K0.000 F60.000
G3 X22.529 Y74.113 Z-0.300 I-0.031 J-0.012 K0.000 F60.000
G2 X20.727 Y72.519 Z-0.300 I-11.306 J10.968 K0.000 F60.000
G3 X18.981 Y70.867 Z-0.300 I10.022 J-12.336 K0.000 F60.000
G3 X19.002 Y70.828 Z-0.300 I0.026 J-0.011 K0.000 F60.000
G2 X21.597 Y73.145 Z-0.300 I17.746 J-17.269 K0.000 F60.000
G2 X22.196 Y72.812 Z-0.300 I0.231 J-0.289 K0.000 F60.000
G3 X22.296 Y70.951 Z-0.300 I4.376 J-0.698 K0.000 F60.000
G3 X23.876 Y69.714 Z-0.300 I1.801 J0.672 K0.000 F60.000
G3 X23.883 Y69.751 Z-0.300 I-0.030 J0.026 K0.000 F60.000
G1 X23.883 Y69.751 Z-0.600 F60.000
G3 X23.823 Y69.772 Z-0.600 I-0.038 J-0.012 K0.000 F60.000
G2 X22.335 Y71.098 Z-0.600 I0.282 J1.815 K0.000 F60.000
G2 X22.546 Y74.095 Z-0.600 I5.718 J1.104 K0.000 F60.000
G3 X22.529 Y74.113 Z-0.600 I-0.031 J-0.012 K0.000 F60.000
G2 X20.727 Y72.519 Z-0.600 I-11.306 J10.968 K0.000 F60.000
G3 X18.981 Y70.867 Z-0.600 I10.022 J-12.336 K0.000 F60.000
G3 X19.002 Y70.828 Z-0.600 I0.026 J-0.011 K0.000 F60.000
G2 X21.597 Y73.145 Z-0.600 I17.746 J-17.269 K0.000 F60.000
G2 X22.196 Y72.812 Z-0.600 I0.231 J-0.289 K0.000 F60.000
G3 X22.296 Y70.951 Z-0.600 I4.376 J-0.698 K0.000 F60.000
G3 X23.876 Y69.714 Z-0.600 I1.801 J0.672 K0.000 F60.000
G3 X23.883 Y69.751 Z-0.600 I-0.030 J0.026 K0.000 F60.000
G1 X23.883 Y69.751 Z-0.900 F60.000
G3 X23.823 Y69.772 Z-0.900 I-0.038 J-0.012 K0.000 F60.000
G2 X22.335 Y71.098 Z-0.900 I0.282 J1.815 K0.000 F60.000
G2 X22.546 Y74.095 Z-0.900 I5.718 J1.104 K0.000 F60.000
G3 X22.529 Y74.113 Z-0.900 I-0.031 J-0.012 K0.000 F60.000
G2 X20.727 Y72.519 Z-0.900 I-11.306 J10.968 K0.000 F60.000
G3 X18.981 Y70.867 Z-0.900 I10.022 J-12.336 K0.000 F60.000
G3 X19.002 Y70.828 Z-0.900 I0.026 J-0.011 K0.000 F60.000
G2 X21.597 Y73.145 Z-0.900 I17.746 J-17.269 K0.000 F60.000
G2 X22.196 Y72.812 Z-0.900 I0.231 J-0.289 K0.000 F60.000
G3 X22.296 Y70.951 Z-0.900 I4.376 J-0.698 K0.000 F60.000
G3 X23.876 Y69.714 Z-0.900 I1.801 J0.672 K0.000 F60.000
G3 X23.883 Y69.751 Z-0.900 I-0.030 J0.026 K0.000 F60.000
G1 X23.883 Y69.751 Z-1.200 F60.000
G3 X23.823 Y69.772 Z-1.200 I-0.038 J-0.012 K0.000 F60.000
G2 X22.335 Y71.098 Z-1.200 I0.282 J1.815 K0.000 F60.000
G2 X22.546 Y74.095 Z-1.200 I5.718 J1.104 K0.000 F60.000
G3 X22.529 Y74.113 Z-1.200 I-0.031 J-0.012 K0.000 F60.000
G2 X20.727 Y72.519 Z-1.200 I-11.306 J10.968 K0.000 F60.000
G3 X18.981 Y70.867 Z-1.200 I10.022 J-12.336 K0.000 F60.000
G3 X19.002 Y70.828 Z-1.200 I0.026 J-0.011 K0.000 F60.000
G2 X21.597 Y73.145 Z-1.200 I17.746 J-17.269 K0.000 F60.000
G2 X22.196 Y72.812 Z-1.200 I0.231 J-0.289 K0.000 F60.000
G3 X22.296 Y70.951 Z-1.200 I4.376 J-0.698 K0.000 F60.000
G3 X23.876 Y69.714 Z-1.200 I1.801 J0.672 K0.000 F60.000
G3 X23.883 Y69.751 Z-1.200 I-0.030 J0.026 K0.000 F60.000
G1 X23.883 Y69.751 Z-1.500 F60.000
G3 X23.823 Y69.772 Z-1.500 I-0.038 J-0.012 K0.000 F60.000
G2 X22.335 Y71.098 Z-1.500 I0.282 J1.815 K0.000 F60.000
G2 X22.546 Y74.095 Z-1.500 I5.718 J1.104 K0.000 F60.000
G3 X22.529 Y74.113 Z-1.500 I-0.031 J-0.012 K0.000 F60.000
G2 X20.727 Y72.519 Z-1.500 I-11.306 J10.968 K0.000 F60.000
G3 X18.981 Y70.867 Z-1.500 I10.022 J-12.336 K0.000 F60.000
G3 X19.002 Y70.828 Z-1.500 I0.026 J-0.011 K0.000 F60.000
G2 X21.597 Y73.145 Z-1.500 I17.746 J-17.269 K0.000 F60.000
G2 X22.196 Y72.812 Z-1.500 I0.231 J-0.289 K0.000 F60.000
G3 X22.296 Y70.951 Z-1.500 I4.376 J-0.698 K0.000 F60.000
G3 X23.876 Y69.714 Z-1.500 I1.801 J0.672 K0.000 F60.000
G3 X23.883 Y69.751 Z-1.500 I-0.030 J0.026 K0.000 F60.000
G1 X23.883 Y69.751 Z-1.800 F60.000
G3 X23.823 Y69.772 Z-1.800 I-0.038 J-0.012 K0.000 F60.000
G2 X22.335 Y71.098 Z-1.800 I0.282 J1.815 K0.000 F60.000
G2 X22.546 Y74.095 Z-1.800 I5.718 J1.104 K0.000 F60.000
G3 X22.529 Y74.113 Z-1.800 I-0.031 J-0.012 K0.000 F60.000
G2 X20.727 Y72.519 Z-1.800 I-11.306 J10.968 K0.000 F60.000
G3 X18.981 Y70.867 Z-1.800 I10.022 J-12.336 K0.000 F60.000
G3 X19.002 Y70.828 Z-1.800 I0.026 J-0.011 K0.000 F60.000
G2 X21.597 Y73.145 Z-1.800 I17.746 J-17.269 K0.000 F60.000
G2 X22.196 Y72.812 Z-1.800 I0.231 J-0.289 K0.000 F60.000
G3 X22.296 Y70.951 Z-1.800 I4.376 J-0.698 K0.000 F60.000
G3 X23.876 Y69.714 Z-1.800 I1.801 J0.672 K0.000 F60.000
G3 X23.883 Y69.751 Z-1.800 I-0.030 J0.026 K0.000 F60.000
G1 X23.883 Y69.751 Z-2.100 F60.000
G3 X23.823 Y69.772 Z-2.100 I-0.038 J-0.012 K0.000 F60.000
G2 X22.335 Y71.098 Z-2.100 I0.282 J1.815 K0.000 F60.000
G2 X22.546 Y74.095 Z-2.100 I5.718 J1.104 K0.000 F60.000
G3 X22.529 Y74.113 Z-2.100 I-0.031 J-0.012 K0.000 F60.000
G2 X20.727 Y72.519 Z-2.100 I-11.306 J10.968 K0.000 F60.000
G3 X18.981 Y70.867 Z-2.100 I10.022 J-12.336 K0.000 F60.000
G3 X19.002 Y70.828 Z-2.100 I0.026 J-0.011 K0.000 F60.000
G2 X21.597 Y73.145 Z-2.100 I17.746 J-17.269 K0.000 F60.000
G2 X22.196 Y72.812 Z-2.100 I0.231 J-0.289 K0.000 F60.000
G3 X22.296 Y70.951 Z-2.100 I4.376 J-0.698 K0.000 F60.000
G3 X23.876 Y69.714 Z-2.100 I1.801 J0.672 K0.000 F60.000
G3 X23.883 Y69.751 Z-2.100 I-0.030 J0.026 K0.000 F60.000
G1 X23.883 Y69.751 Z-2.400 F60.000
G3 X23.823 Y69.772 Z-2.400 I-0.038 J-0.012 K0.000 F60.000
G2 X22.335 Y71.098 Z-2.400 I0.282 J1.815 K0.000 F60.000
G2 X22.546 Y74.095 Z-2.400 I5.718 J1.104 K0.000 F60.000
G3 X22.529 Y74.113 Z-2.400 I-0.031 J-0.012 K0.000 F60.000
G2 X20.727 Y72.519 Z-2.400 I-11.306 J10.968 K0.000 F60.000
G3 X18.981 Y70.867 Z-2.400 I10.022 J-12.336 K0.000 F60.000
G3 X19.002 Y70.828 Z-2.400 I0.026 J-0.011 K0.000 F60.000
G2 X21.597 Y73.145 Z-2.400 I17.746 J-17.269 K0.000 F60.000
G2 X22.196 Y72.812 Z-2.400 I0.231 J-0.289 K0.000 F60.000
G3 X22.296 Y70.951 Z-2.400 I4.376 J-0.698 K0.000 F60.000
G3 X23.876 Y69.714 Z-2.400 I1.801 J0.672 K0.000 F60.000
G3 X23.883 Y69.751 Z-2.400 I-0.030 J0.026 K0.000 F60.000
G1 X23.883 Y69.751 Z-2.700 F60.000
G3 X23.823 Y69.772 Z-2.700 I-0.038 J-0.012 K0.000 F60.000
G2 X22.335 Y71.098 Z-2.700 I0.282 J1.815 K0.000 F60.000
G2 X22.546 Y74.095 Z-2.700 I5.718 J1.104 K0.000 F60.000
G3 X22.529 Y74.113 Z-2.700 I-0.031 J-0.012 K0.000 F60.000
G2 X20.727 Y72.519 Z-2.700 I-11.306 J10.968 K0.000 F60.000
G3 X18.981 Y70.867 Z-2.700 I10.022 J-12.336 K0.000 F60.000
G3 X19.002 Y70.828 Z-2.700 I0.026 J-0.011 K0.000 F60.000
G2 X21.597 Y73.145 Z-2.700 I17.746 J-17.269 K0.000 F60.000
G2 X22.196 Y72.812 Z-2.700 I0.231 J-0.289 K0.000 F60.000
G3 X22.296 Y70.951 Z-2.700 I4.376 J-0.698 K0.000 F60.000
G3 X23.876 Y69.714 Z-2.700 I1.801 J0.672 K0.000 F60.000
G3 X23.883 Y69.751 Z-2.700 I-0.030 J0.026 K0.000 F60.000
G1 X23.883 Y69.751 Z-3.000 F60.000
G3 X23.823 Y69.772 Z-3.000 I-0.038 J-0.012 K0.000 F60.000
G2 X22.335 Y71.098 Z-3.000 I0.282 J1.815 K0.000 F60.000
G2 X22.546 Y74.095 Z-3.000 I5.718 J1.104 K0.000 F60.000
G3 X22.529 Y74.113 Z-3.000 I-0.031 J-0.012 K0.000 F60.000
G2 X20.727 Y72.519 Z-3.000 I-11.306 J10.968 K0.000 F60.000
G3 X18.981 Y70.867 Z-3.000 I10.022 J-12.336 K0.000 F60.000
G3 X19.002 Y70.828 Z-3.000 I0.026 J-0.011 K0.000 F60.000
G2 X21.597 Y73.145 Z-3.000 I17.746 J-17.269 K0.000 F60.000
G2 X22.196 Y72.812 Z-3.000 I0.231 J-0.289 K0.000 F60.000
G3 X22.296 Y70.951 Z-3.000 I4.376 J-0.698 K0.000 F60.000
G3 X23.876 Y69.714 Z-3.000 I1.801 J0.672 K0.000 F60.000
G3 X23.883 Y69.751 Z-3.000 I-0.030 J0.026 K0.000 F60.000
G1 X23.883 Y69.751 Z-3.300 F60.000
G3 X23.823 Y69.772 Z-3.300 I-0.038 J-0.012 K0.000 F60.000
G2 X22.335 Y71.098 Z-3.300 I0.282 J1.815 K0.000 F60.000
G2 X22.546 Y74.095 Z-3.300 I5.718 J1.104 K0.000 F60.000
G3 X22.529 Y74.113 Z-3.300 I-0.031 J-0.012 K0.000 F60.000
G2 X20.727 Y72.519 Z-3.300 I-11.306 J10.968 K0.000 F60.000
G3 X18.981 Y70.867 Z-3.300 I10.022 J-12.336 K0.000 F60.000
G3 X19.002 Y70.828 Z-3.300 I0.026 J-0.011 K0.000 F60.000
G2 X21.597 Y73.145 Z-3.300 I17.746 J-17.269 K0.000 F60.000
G2 X22.196 Y72.812 Z-3.300 I0.231 J-0.289 K0.000 F60.000
G3 X22.296 Y70.951 Z-3.300 I4.376 J-0.698 K0.000 F60.000
G3 X23.876 Y69.714 Z-3.300 I1.801 J0.672 K0.000 F60.000
G3 X23.883 Y69.751 Z-3.300 I-0.030 J0.026 K0.000 F60.000
G1 X23.883 Y69.751 Z-3.600 F60.000
G3 X23.823 Y69.772 Z-3.600 I-0.038 J-0.012 K0.000 F60.000
G2 X22.335 Y71.098 Z-3.600 I0.282 J1.815 K0.000 F60.000
G2 X22.546 Y74.095 Z-3.600 I5.718 J1.104 K0.000 F60.000
G3 X22.529 Y74.113 Z-3.600 I-0.031 J-0.012 K0.000 F60.000
G2 X20.727 Y72.519 Z-3.600 I-11.306 J10.968 K0.000 F60.000
G3 X18.981 Y70.867 Z-3.600 I10.022 J-12.336 K0.000 F60.000
G3 X19.002 Y70.828 Z-3.600 I0.026 J-0.011 K0.000 F60.000
G2 X21.597 Y73.145 Z-3.600 I17.746 J-17.269 K0.000 F60.000
G2 X22.196 Y72.812 Z-3.600 I0.231 J-0.289 K0.000 F60.000
G3 X22.296 Y70.951 Z-3.600 I4.376 J-0.698 K0.000 F60.000
G3 X23.876 Y69.714 Z-3.600 I1.801 J0.672 K0.000 F60.000
G3 X23.883 Y69.751 Z-3.600 I-0.030 J0.026 K0.000 F60.000
G1 X23.883 Y69.751 Z-3.900 F60.000
G3 X23.823 Y69.772 Z-3.900 I-0.038 J-0.012 K0.000 F60.000
G2 X22.335 Y71.098 Z-3.900 I0.282 J1.815 K0.000 F60.000
G2 X22.546 Y74.095 Z-3.900 I5.718 J1.104 K0.000 F60.000
G3 X22.529 Y74.113 Z-3.900 I-0.031 J-0.012 K0.000 F60.000
G2 X20.727 Y72.519 Z-3.900 I-11.306 J10.968 K0.000 F60.000
G3 X18.981 Y70.867 Z-3.900 I10.022 J-12.336 K0.000 F60.000
G3 X19.002 Y70.828 Z-3.900 I0.026 J-0.011 K0.000 F60.000
G2 X21.597 Y73.145 Z-3.900 I17.746 J-17.269 K0.000 F60.000
G2 X22.196 Y72.812 Z-3.900 I0.231 J-0.289 K0.000 F60.000
G3 X22.296 Y70.951 Z-3.900 I4.376 J-0.698 K0.000 F60.000
G3 X23.876 Y69.714 Z-3.900 I1.801 J0.672 K0.000 F60.000
G3 X23.883 Y69.751 Z-3.900 I-0.030 J0.026 K0.000 F60.000
G1 X23.883 Y69.751 Z-4.000 F60.000
G3 X23.823 Y69.772 Z-4.000 I-0.038 J-0.012 K0.000 F60.000
G2 X22.335 Y71.098 Z-4.000 I0.282 J1.815 K0.000 F60.000
G2 X22.546 Y74.095 Z-4.000 I5.718 J1.104 K0.000 F60.000
G3 X22.529 Y74.113 Z-4.000 I-0.031 J-0.012 K0.000 F60.000
G2 X20.727 Y72.519 Z-4.000 I-11.306 J10.968 K0.000 F60.000
G3 X18.981 Y70.867 Z-4.000 I10.022 J-12.336 K0.000 F60.000
G3 X19.002 Y70.828 Z-4.000 I0.026 J-0.011 K0.000 F60.000
G2 X21.597 Y73.145 Z-4.000 I17.746 J-17.269 K0.000 F60.000
G2 X22.196 Y72.812 Z-4.000 I0.231 J-0.289 K0.000 F60.000
G3 X22.296 Y70.951 Z-4.000 I4.376 J-0.698 K0.000 F60.000
G3 X23.876 Y69.714 Z-4.000 I1.801 J0.672 K0.000 F60.000
G3 X23.883 Y69.751 Z-4.000 I-0.030 J0.026 K0.000 F60.000
G0 Z5.000
G0 Z5.000
G0 X23.883 Y69.751
G0 X25.883 Y73.196
G0 X25.883 Y73.196 Z3.000
G1 X25.883 Y73.196 Z-0.300 F60.000
G3 X25.915 Y73.201 Z-0.300 I0.014 J0.018 K0.000 F60.000
G3 X25.883 Y73.683 Z-0.300 I-1.241 J0.160 K0.000 F60.000
G2 X26.023 Y75.003 Z-0.300 I5.090 J0.131 K0.000 F60.000
G3 X26.004 Y75.022 Z-0.300 I-0.022 J-0.002 K0.000 F60.000
G3 X25.883 Y73.196 Z-0.300 I3.170 J-1.126 K0.000 F60.000
G1 X25.883 Y73.196 Z-0.600 F60.000
G3 X25.915 Y73.201 Z-0.600 I0.014 J0.018 K0.000 F60.000
G3 X25.883 Y73.683 Z-0.600 I-1.241 J0.160 K0.000 F60.000
