(Exported by FreeCAD)
(Post Processor: grbl_post)
(Output Time:2024-11-15 23:58:43.131833)
(Begin preamble)
G17 G90
G21
(Begin operation: G54)
(Path: G54)
G54
G0 Z5.000
(Finish operation: G54)
(Begin operation: TC: Default Tool)
(Path: TC: Default Tool)
(TC: Default Tool)
(Begin toolchange)
( M6 T1 )
M3 S10000
(Finish operation: TC: Default Tool)
(Begin operation: Profile069)
(Path: Profile069)
(Profile069)
(Compensated Tool Path. Diameter: 5.0)
G0 Z2.000
G0 X11.410 Y21.410
G1 X11.410 Y21.410 Z-0.500 F60.000
G2 X10.516 Y18.073 Z-0.500 I-1.410 J-1.410 K0.000 F60.000
G2 X9.484 Y21.927 Z-0.500 I-0.516 J1.927 K0.000 F60.000
G2 X11.410 Y21.410 Z-0.500 I0.516 J-1.927 K0.000 F60.000
G1 X11.410 Y21.410 Z-1.000 F60.000
G2 X10.516 Y18.073 Z-1.000 I-1.410 J-1.410 K0.000 F60.000
G2 X9.484 Y21.927 Z-1.000 I-0.516 J1.927 K0.000 F60.000
G2 X11.410 Y21.410 Z-1.000 I0.516 J-1.927 K0.000 F60.000
G1 X11.410 Y21.410 Z-1.500 F60.000
G2 X10.516 Y18.073 Z-1.500 I-1.410 J-1.410 K0.000 F60.000
G2 X9.484 Y21.927 Z-1.500 I-0.516 J1.927 K0.000 F60.000
G2 X11.410 Y21.410 Z-1.500 I0.516 J-1.927 K0.000 F60.000
G1 X11.410 Y21.410 Z-2.000 F60.000
G2 X10.516 Y18.073 Z-2.000 I-1.410 J-1.410 K0.000 F60.000
G2 X9.484 Y21.927 Z-2.000 I-0.516 J1.927 K0.000 F60.000
G2 X11.410 Y21.410 Z-2.000 I0.516 J-1.927 K0.000 F60.000
G1 X11.410 Y21.410 Z-2.500 F60.000
G2 X10.516 Y18.073 Z-2.500 I-1.410 J-1.410 K0.000 F60.000
G2 X9.484 Y21.927 Z-2.500 I-0.516 J1.927 K0.000 F60.000
G2 X11.410 Y21.410 Z-2.500 I0.516 J-1.927 K0.000 F60.000
G1 X11.410 Y21.410 Z-3.000 F60.000
G2 X10.516 Y18.073 Z-3.000 I-1.410 J-1.410 K0.000 F60.000
G2 X9.484 Y21.927 Z-3.000 I-0.516 J1.927 K0.000 F60.000
G2 X11.410 Y21.410 Z-3.000 I0.516 J-1.927 K0.000 F60.000
G1 X11.410 Y21.410 Z-3.500 F60.000
G2 X10.516 Y18.073 Z-3.500 I-1.410 J-1.410 K0.000 F60.000
G2 X9.484 Y21.927 Z-3.500 I-0.516 J1.927 K0.000 F60.000
G2 X11.410 Y21.410 Z-3.500 I0.516 J-1.927 K0.000 F60.000
G1 X11.410 Y21.410 Z-4.000 F60.000
G2 X10.516 Y18.073 Z-4.000 I-1.410 J-1.410 K0.000 F60.000
G2 X9.484 Y21.927 Z-4.000 I-0.516 J1.927 K0.000 F60.000
G2 X11.410 Y21.410 Z-4.000 I0.516 J-1.927 K0.000 F60.000
G1 X11.410 Y21.410 Z-4.100 F60.000
G2 X10.516 Y18.073 Z-4.100 I-1.410 J-1.410 K0.000 F60.000
G2 X9.484 Y21.927 Z-4.100 I-0.516 J1.927 K0.000 F60.000
G2 X11.410 Y21.410 Z-4.100 I0.516 J-1.927 K0.000 F60.000
G0 Z2.000
G0 Z2.000
G0 X11.410 Y21.410
G0 X7.108 Y101.008
G0 X7.108 Y101.008
G1 X7.108 Y101.008 Z-0.500 F60.000
G2 X5.073 Y102.484 Z-0.500 I-0.108 J1.992 K0.000 F60.000
G2 X6.484 Y104.927 Z-0.500 I1.927 J0.516 K0.000 F60.000
G2 X8.927 Y103.516 Z-0.500 I0.516 J-1.927 K0.000 F60.000
G2 X7.108 Y101.008 Z-0.500 I-1.927 J-0.516 K0.000 F60.000
G1 X7.108 Y101.008 Z-1.000 F60.000
G2 X5.073 Y102.484 Z-1.000 I-0.108 J1.992 K0.000 F60.000
G2 X6.484 Y104.927 Z-1.000 I1.927 J0.516 K0.000 F60.000
G2 X8.927 Y103.516 Z-1.000 I0.516 J-1.927 K0.000 F60.000
G2 X7.108 Y101.008 Z-1.000 I-1.927 J-0.516 K0.000 F60.000
G1 X7.108 Y101.008 Z-1.500 F60.000
G2 X5.073 Y102.484 Z-1.500 I-0.108 J1.992 K0.000 F60.000
G2 X6.484 Y104.927 Z-1.500 I1.927 J0.516 K0.000 F60.000
G2 X8.927 Y103.516 Z-1.500 I0.516 J-1.927 K0.000 F60.000
G2 X7.108 Y101.008 Z-1.500 I-1.927 J-0.516 K0.000 F60.000
G1 X7.108 Y101.008 Z-2.000 F60.000
G2 X5.073 Y102.484 Z-2.000 I-0.108 J1.992 K0.000 F60.000
G2 X6.484 Y104.927 Z-2.000 I1.927 J0.516 K0.000 F60.000
G2 X8.927 Y103.516 Z-2.000 I0.516 J-1.927 K0.000 F60.000
G2 X7.108 Y101.008 Z-2.000 I-1.927 J-0.516 K0.000 F60.000
G1 X7.108 Y101.008 Z-2.500 F60.000
G2 X5.073 Y102.484 Z-2.500 I-0.108 J1.992 K0.000 F60.000
G2 X6.484 Y104.927 Z-2.500 I1.927 J0.516 K0.000 F60.000
G2 X8.927 Y103.516 Z-2.500 I0.516 J-1.927 K0.000 F60.000
G2 X7.108 Y101.008 Z-2.500 I-1.927 J-0.516 K0.000 F60.000
G1 X7.108 Y101.008 Z-3.000 F60.000
G2 X5.073 Y102.484 Z-3.000 I-0.108 J1.992 K0.000 F60.000
G2 X6.484 Y104.927 Z-3.000 I1.927 J0.516 K0.000 F60.000
G2 X8.927 Y103.516 Z-3.000 I0.516 J-1.927 K0.000 F60.000
G2 X7.108 Y101.008 Z-3.000 I-1.927 J-0.516 K0.000 F60.000
G1 X7.108 Y101.008 Z-3.500 F60.000
G2 X5.073 Y102.484 Z-3.500 I-0.108 J1.992 K0.000 F60.000
G2 X6.484 Y104.927 Z-3.500 I1.927 J0.516 K0.000 F60.000
G2 X8.927 Y103.516 Z-3.500 I0.516 J-1.927 K0.000 F60.000
G2 X7.108 Y101.008 Z-3.500 I-1.927 J-0.516 K0.000 F60.000
G1 X7.108 Y101.008 Z-4.000 F60.000
G2 X5.073 Y102.484 Z-4.000 I-0.108 J1.992 K0.000 F60.000
G2 X6.484 Y104.927 Z-4.000 I1.927 J0.516 K0.000 F60.000
G2 X8.927 Y103.516 Z-4.000 I0.516 J-1.927 K0.000 F60.000
G2 X7.108 Y101.008 Z-4.000 I-1.927 J-0.516 K0.000 F60.000
G1 X7.108 Y101.008 Z-4.100 F60.000
G2 X5.073 Y102.484 Z-4.100 I-0.108 J1.992 K0.000 F60.000
G2 X6.484 Y104.927 Z-4.100 I1.927 J0.516 K0.000 F60.000
G2 X8.927 Y103.516 Z-4.100 I0.516 J-1.927 K0.000 F60.000
G2 X7.108 Y101.008 Z-4.100 I-1.927 J-0.516 K0.000 F60.000
G0 Z2.000
G0 Z2.000
G0 X7.108 Y101.008
G0 X151.006 Y102.973
G0 X151.006 Y102.973
G1 X151.006 Y102.973 Z-0.500 F60.000
G2 X152.484 Y104.927 Z-0.500 I1.994 J0.027 K0.000 F60.000
G2 X154.927 Y103.516 Z-0.500 I0.516 J-1.927 K0.000 F60.000
G2 X153.516 Y101.073 Z-0.500 I-1.927 J-0.516 K0.000 F60.000
G2 X151.006 Y102.973 Z-0.500 I-0.516 J1.927 K0.000 F60.000
G1 X151.006 Y102.973 Z-1.000 F60.000
G2 X152.484 Y104.927 Z-1.000 I1.994 J0.027 K0.000 F60.000
G2 X154.927 Y103.516 Z-1.000 I0.516 J-1.927 K0.000 F60.000
G2 X153.516 Y101.073 Z-1.000 I-1.927 J-0.516 K0.000 F60.000
G2 X151.006 Y102.973 Z-1.000 I-0.516 J1.927 K0.000 F60.000
G1 X151.006 Y102.973 Z-1.500 F60.000
G2 X152.484 Y104.927 Z-1.500 I1.994 J0.027 K0.000 F60.000
G2 X154.927 Y103.516 Z-1.500 I0.516 J-1.927 K0.000 F60.000
G2 X153.516 Y101.073 Z-1.500 I-1.927 J-0.516 K0.000 F60.000
G2 X151.006 Y102.973 Z-1.500 I-0.516 J1.927 K0.000 F60.000
G1 X151.006 Y102.973 Z-2.000 F60.000
G2 X152.484 Y104.927 Z-2.000 I1.994 J0.027 K0.000 F60.000
G2 X154.927 Y103.516 Z-2.000 I0.516 J-1.927 K0.000 F60.000
G2 X153.516 Y101.073 Z-2.000 I-1.927 J-0.516 K0.000 F60.000
G2 X151.006 Y102.973 Z-2.000 I-0.516 J1.927 K0.000 F60.000
G1 X151.006 Y102.973 Z-2.500 F60.000
G2 X152.484 Y104.927 Z-2.500 I1.994 J0.027 K0.000 F60.000
G2 X154.927 Y103.516 Z-2.500 I0.516 J-1.927 K0.000 F60.000
G2 X153.516 Y101.073 Z-2.500 I-1.927 J-0.516 K0.000 F60.000
G2 X151.006 Y102.973 Z-2.500 I-0.516 J1.927 K0.000 F60.000
G1 X151.006 Y102.973 Z-3.000 F60.000
G2 X152.484 Y104.927 Z-3.000 I1.994 J0.027 K0.000 F60.000
G2 X154.927 Y103.516 Z-3.000 I0.516 J-1.927 K0.000 F60.000
G2 X153.516 Y101.073 Z-3.000 I-1.927 J-0.516 K0.000 F60.000
G2 X151.006 Y102.973 Z-3.000 I-0.516 J1.927 K0.000 F60.000
G1 X151.006 Y102.973 Z-3.500 F60.000
G2 X152.484 Y104.927 Z-3.500 I1.994 J0.027 K0.000 F60.000
G2 X154.927 Y103.516 Z-3.500 I0.516 J-1.927 K0.000 F60.000
G2 X153.516 Y101.073 Z-3.500 I-1.927 J-0.516 K0.000 F60.000
G2 X151.006 Y102.973 Z-3.500 I-0.516 J1.927 K0.000 F60.000
G1 X151.006 Y102.973 Z-4.000 F60.000
G2 X152.484 Y104.927 Z-4.000 I1.994 J0.027 K0.000 F60.000
G2 X154.927 Y103.516 Z-4.000 I0.516 J-1.927 K0.000 F60.000
G2 X153.516 Y101.073 Z-4.000 I-1.927 J-0.516 K0.000 F60.000
G2 X151.006 Y102.973 Z-4.000 I-0.516 J1.927 K0.000 F60.000
G1 X151.006 Y102.973 Z-4.100 F60.000
G2 X152.484 Y104.927 Z-4.100 I1.994 J0.027 K0.000 F60.000
G2 X154.927 Y103.516 Z-4.100 I0.516 J-1.927 K0.000 F60.000
G2 X153.516 Y101.073 Z-4.100 I-1.927 J-0.516 K0.000 F60.000
G2 X151.006 Y102.973 Z-4.100 I-0.516 J1.927 K0.000 F60.000
G0 Z2.000
G0 Z2.000
G0 X151.006 Y102.973
G0 X150.024 Y21.994
G0 X150.024 Y21.994
G1 X150.024 Y21.994 Z-0.500 F60.000
G2 X150.516 Y18.073 Z-0.500 I-0.024 J-1.994 K0.000 F60.000
G2 X149.484 Y21.927 Z-0.500 I-0.516 J1.927 K0.000 F60.000
G2 X150.024 Y21.994 Z-0.500 I0.516 J-1.927 K0.000 F60.000
G1 X150.024 Y21.994 Z-1.000 F60.000
G2 X150.516 Y18.073 Z-1.000 I-0.024 J-1.994 K0.000 F60.000
G2 X149.484 Y21.927 Z-1.000 I-0.516 J1.927 K0.000 F60.000
G2 X150.024 Y21.994 Z-1.000 I0.516 J-1.927 K0.000 F60.000
G1 X150.024 Y21.994 Z-1.500 F60.000
G2 X150.516 Y18.073 Z-1.500 I-0.024 J-1.994 K0.000 F60.000
G2 X149.484 Y21.927 Z-1.500 I-0.516 J1.927 K0.000 F60.000
G2 X150.024 Y21.994 Z-1.500 I0.516 J-1.927 K0.000 F60.000
G1 X150.024 Y21.994 Z-2.000 F60.000
G2 X150.516 Y18.073 Z-2.000 I-0.024 J-1.994 K0.000 F60.000
G2 X149.484 Y21.927 Z-2.000 I-0.516 J1.927 K0.000 F60.000
G2 X150.024 Y21.994 Z-2.000 I0.516 J-1.927 K0.000 F60.000
G1 X150.024 Y21.994 Z-2.500 F60.000
G2 X150.516 Y18.073 Z-2.500 I-0.024 J-1.994 K0.000 F60.000
G2 X149.484 Y21.927 Z-2.500 I-0.516 J1.927 K0.000 F60.000
G2 X150.024 Y21.994 Z-2.500 I0.516 J-1.927 K0.000 F60.000
G1 X150.024 Y21.994 Z-3.000 F60.000
G2 X150.516 Y18.073 Z-3.000 I-0.024 J-1.994 K0.000 F60.000
G2 X149.484 Y21.927 Z-3.000 I-0.516 J1.927 K0.000 F60.000
G2 X150.024 Y21.994 Z-3.000 I0.516 J-1.927 K0.000 F60.000
G1 X150.024 Y21.994 Z-3.500 F60.000
G2 X150.516 Y18.073 Z-3.500 I-0.024 J-1.994 K0.000 F60.000
G2 X149.484 Y21.927 Z-3.500 I-0.516 J1.927 K0.000 F60.000
G2 X150.024 Y21.994 Z-3.500 I0.516 J-1.927 K0.000 F60.000
G1 X150.024 Y21.994 Z-4.000 F60.000
G2 X150.516 Y18.073 Z-4.000 I-0.024 J-1.994 K0.000 F60.000
G2 X149.484 Y21.927 Z-4.000 I-0.516 J1.927 K0.000 F60.000
G2 X150.024 Y21.994 Z-4.000 I0.516 J-1.927 K0.000 F60.000
G1 X150.024 Y21.994 Z-4.100 F60.000
G2 X150.516 Y18.073 Z-4.100 I-0.024 J-1.994 K0.000 F60.000
G2 X149.484 Y21.927 Z-4.100 I-0.516 J1.927 K0.000 F60.000
G2 X150.024 Y21.994 Z-4.100 I0.516 J-1.927 K0.000 F60.000
G0 Z2.000
G0 Z2.000
(Finish operation: Profile069)
(Begin operation: Profile070)
(Path: Profile070)
(Profile070)
(Compensated Tool Path. Diameter: 5.0)
G0 Z5.000
G0 X161.470 Y111.470
G0 Z3.000
G1 X161.470 Y111.470 Z-1.000 F60.000
G2 X162.500 Y109.000 Z-1.000 I-2.486 J-2.486 K0.000 F60.000
G1 X162.500 Y1.000 Z-1.000 F60.000
G2 X159.000 Y-2.500 Z-1.000 I-3.515 J0.015 K0.000 F60.000
G1 X1.000 Y-2.500 Z-1.000 F60.000
G2 X-2.500 Y1.000 Z-1.000 I0.015 J3.515 K0.000 F60.000
G1 X-2.500 Y109.000 Z-1.000 F60.000
G2 X1.000 Y112.500 Z-1.000 I3.502 J-0.002 K0.000 F60.000
G1 X159.000 Y112.500 Z-1.000 F60.000
G2 X161.470 Y111.470 Z-1.000 I-0.015 J-3.515 K0.000 F60.000
G1 X161.470 Y111.470 Z-2.000 F60.000
G2 X162.500 Y109.000 Z-2.000 I-2.486 J-2.486 K0.000 F60.000
G1 X162.500 Y1.000 Z-2.000 F60.000
G2 X159.000 Y-2.500 Z-2.000 I-3.515 J0.015 K0.000 F60.000
G1 X1.000 Y-2.500 Z-2.000 F60.000
G2 X-2.500 Y1.000 Z-2.000 I0.015 J3.515 K0.000 F60.000
G1 X-2.500 Y109.000 Z-2.000 F60.000
G2 X1.000 Y112.500 Z-2.000 I3.502 J-0.002 K0.000 F60.000
G1 X159.000 Y112.500 Z-2.000 F60.000
G2 X161.470 Y111.470 Z-2.000 I-0.015 J-3.515 K0.000 F60.000
G1 X161.470 Y111.470 Z-3.000 F60.000
G2 X162.500 Y109.000 Z-3.000 I-2.486 J-2.486 K0.000 F60.000
G1 X162.500 Y1.000 Z-3.000 F60.000
G2 X159.000 Y-2.500 Z-3.000 I-3.515 J0.015 K0.000 F60.000
G1 X1.000 Y-2.500 Z-3.000 F60.000
G2 X-2.500 Y1.000 Z-3.000 I0.015 J3.515 K0.000 F60.000
G1 X-2.500 Y109.000 Z-3.000 F60.000
G2 X1.000 Y112.500 Z-3.000 I3.502 J-0.002 K0.000 F60.000
G1 X159.000 Y112.500 Z-3.000 F60.000
G2 X161.470 Y111.470 Z-3.000 I-0.015 J-3.515 K0.000 F60.000
G1 X161.470 Y111.470 Z-4.000 F60.000
G2 X162.500 Y109.000 Z-4.000 I-2.486 J-2.486 K0.000 F60.000
G1 X162.500 Y1.000 Z-4.000 F60.000
G2 X159.000 Y-2.500 Z-4.000 I-3.515 J0.015 K0.000 F60.000
G1 X1.000 Y-2.500 Z-4.000 F60.000
G2 X-2.500 Y1.000 Z-4.000 I0.015 J3.515 K0.000 F60.000
G1 X-2.500 Y109.000 Z-4.000 F60.000
G2 X1.000 Y112.500 Z-4.000 I3.502 J-0.002 K0.000 F60.000
G1 X159.000 Y112.500 Z-4.000 F60.000
G2 X161.470 Y111.470 Z-4.000 I-0.015 J-3.515 K0.000 F60.000
G1 X161.470 Y111.470 Z-4.100 F60.000
G2 X162.500 Y109.000 Z-4.100 I-2.486 J-2.486 K0.000 F60.000
G1 X162.500 Y1.000 Z-4.100 F60.000
G2 X159.000 Y-2.500 Z-4.100 I-3.515 J0.015 K0.000 F60.000
G1 X1.000 Y-2.500 Z-4.100 F60.000
G2 X-2.500 Y1.000 Z-4.100 I0.015 J3.515 K0.000 F60.000
G1 X-2.500 Y109.000 Z-4.100 F60.000
G2 X1.000 Y112.500 Z-4.100 I3.502 J-0.002 K0.000 F60.000
G1 X159.000 Y112.500 Z-4.100 F60.000
G2 X161.470 Y111.470 Z-4.100 I-0.015 J-3.515 K0.000 F60.000
G0 Z5.000
G0 Z5.000
(Finish operation: Profile070)
G0 X0 Y0
(Begin postamble)
M5
G17 G90
M2
