(Exported by FreeCAD)
(Post Processor: grbl_post)
(Output Time:2024-11-17 08:33:15.123451)
(Begin preamble)
G17 G90
G21
(Begin operation: G54)
(Path: G54)
G54
G0 Z5.000
(Finish operation: G54)
(Begin operation: Bit_1,021)
(Path: Bit_1,021)
(Bit_1,021)
(Begin toolchange)
( M6 T2 )
M3 S100000
(Finish operation: Bit_1,021)
(Begin operation: Profile069)
(Path: Profile069)
(Profile069)
(Compensated Tool Path. Diameter: 1.4)
G0 Z2.000
G0 X12.686 Y22.686
G1 X12.686 Y22.686 Z-0.500 F60.000
G2 X10.983 Y16.331 Z-0.500 I-2.686 J-2.686 K0.000 F60.000
G2 X9.017 Y23.669 Z-0.500 I-0.983 J3.669 K0.000 F60.000
G2 X12.686 Y22.686 Z-0.500 I0.983 J-3.669 K0.000 F60.000
G1 X12.686 Y22.686 Z-1.000 F60.000
G2 X10.983 Y16.331 Z-1.000 I-2.686 J-2.686 K0.000 F60.000
G2 X9.017 Y23.669 Z-1.000 I-0.983 J3.669 K0.000 F60.000
G2 X12.686 Y22.686 Z-1.000 I0.983 J-3.669 K0.000 F60.000
G1 X12.686 Y22.686 Z-1.500 F60.000
G2 X10.983 Y16.331 Z-1.500 I-2.686 J-2.686 K0.000 F60.000
G2 X9.017 Y23.669 Z-1.500 I-0.983 J3.669 K0.000 F60.000
G2 X12.686 Y22.686 Z-1.500 I0.983 J-3.669 K0.000 F60.000
G1 X12.686 Y22.686 Z-2.000 F60.000
G2 X10.983 Y16.331 Z-2.000 I-2.686 J-2.686 K0.000 F60.000
G2 X9.017 Y23.669 Z-2.000 I-0.983 J3.669 K0.000 F60.000
G2 X12.686 Y22.686 Z-2.000 I0.983 J-3.669 K0.000 F60.000
G1 X12.686 Y22.686 Z-2.500 F60.000
G2 X10.983 Y16.331 Z-2.500 I-2.686 J-2.686 K0.000 F60.000
G2 X9.017 Y23.669 Z-2.500 I-0.983 J3.669 K0.000 F60.000
G2 X12.686 Y22.686 Z-2.500 I0.983 J-3.669 K0.000 F60.000
G1 X12.686 Y22.686 Z-3.000 F60.000
G2 X10.983 Y16.331 Z-3.000 I-2.686 J-2.686 K0.000 F60.000
G2 X9.017 Y23.669 Z-3.000 I-0.983 J3.669 K0.000 F60.000
G2 X12.686 Y22.686 Z-3.000 I0.983 J-3.669 K0.000 F60.000
G1 X12.686 Y22.686 Z-3.500 F60.000
G2 X10.983 Y16.331 Z-3.500 I-2.686 J-2.686 K0.000 F60.000
G2 X9.017 Y23.669 Z-3.500 I-0.983 J3.669 K0.000 F60.000
G2 X12.686 Y22.686 Z-3.500 I0.983 J-3.669 K0.000 F60.000
G1 X12.686 Y22.686 Z-4.000 F60.000
G2 X10.983 Y16.331 Z-4.000 I-2.686 J-2.686 K0.000 F60.000
G2 X9.017 Y23.669 Z-4.000 I-0.983 J3.669 K0.000 F60.000
G2 X12.686 Y22.686 Z-4.000 I0.983 J-3.669 K0.000 F60.000
G1 X12.686 Y22.686 Z-4.100 F60.000
G2 X10.983 Y16.331 Z-4.100 I-2.686 J-2.686 K0.000 F60.000
G2 X9.017 Y23.669 Z-4.100 I-0.983 J3.669 K0.000 F60.000
G2 X12.686 Y22.686 Z-4.100 I0.983 J-3.669 K0.000 F60.000
G0 Z2.000
G0 Z2.000
G0 X12.686 Y22.686
G0 X7.268 Y99.211
G0 X7.268 Y99.211
G1 X7.268 Y99.211 Z-0.500 F60.000
G2 X3.331 Y102.017 Z-0.500 I-0.268 J3.789 K0.000 F60.000
G2 X6.017 Y106.669 Z-0.500 I3.669 J0.983 K0.000 F60.000
G2 X10.669 Y103.983 Z-0.500 I0.983 J-3.669 K0.000 F60.000
G2 X7.268 Y99.211 Z-0.500 I-3.669 J-0.983 K0.000 F60.000
G1 X7.268 Y99.211 Z-1.000 F60.000
G2 X3.331 Y102.017 Z-1.000 I-0.268 J3.789 K0.000 F60.000
G2 X6.017 Y106.669 Z-1.000 I3.669 J0.983 K0.000 F60.000
G2 X10.669 Y103.983 Z-1.000 I0.983 J-3.669 K0.000 F60.000
G2 X7.268 Y99.211 Z-1.000 I-3.669 J-0.983 K0.000 F60.000
G1 X7.268 Y99.211 Z-1.500 F60.000
G2 X3.331 Y102.017 Z-1.500 I-0.268 J3.789 K0.000 F60.000
G2 X6.017 Y106.669 Z-1.500 I3.669 J0.983 K0.000 F60.000
G2 X10.669 Y103.983 Z-1.500 I0.983 J-3.669 K0.000 F60.000
G2 X7.268 Y99.211 Z-1.500 I-3.669 J-0.983 K0.000 F60.000
G1 X7.268 Y99.211 Z-2.000 F60.000
G2 X3.331 Y102.017 Z-2.000 I-0.268 J3.789 K0.000 F60.000
G2 X6.017 Y106.669 Z-2.000 I3.669 J0.983 K0.000 F60.000
G2 X10.669 Y103.983 Z-2.000 I0.983 J-3.669 K0.000 F60.000
G2 X7.268 Y99.211 Z-2.000 I-3.669 J-0.983 K0.000 F60.000
G1 X7.268 Y99.211 Z-2.500 F60.000
G2 X3.331 Y102.017 Z-2.500 I-0.268 J3.789 K0.000 F60.000
G2 X6.017 Y106.669 Z-2.500 I3.669 J0.983 K0.000 F60.000
G2 X10.669 Y103.983 Z-2.500 I0.983 J-3.669 K0.000 F60.000
G2 X7.268 Y99.211 Z-2.500 I-3.669 J-0.983 K0.000 F60.000
G1 X7.268 Y99.211 Z-3.000 F60.000
G2 X3.331 Y102.017 Z-3.000 I-0.268 J3.789 K0.000 F60.000
G2 X6.017 Y106.669 Z-3.000 I3.669 J0.983 K0.000 F60.000
G2 X10.669 Y103.983 Z-3.000 I0.983 J-3.669 K0.000 F60.000
G2 X7.268 Y99.211 Z-3.000 I-3.669 J-0.983 K0.000 F60.000
G1 X7.268 Y99.211 Z-3.500 F60.000
G2 X3.331 Y102.017 Z-3.500 I-0.268 J3.789 K0.000 F60.000
G2 X6.017 Y106.669 Z-3.500 I3.669 J0.983 K0.000 F60.000
G2 X10.669 Y103.983 Z-3.500 I0.983 J-3.669 K0.000 F60.000
G2 X7.268 Y99.211 Z-3.500 I-3.669 J-0.983 K0.000 F60.000
G1 X7.268 Y99.211 Z-4.000 F60.000
G2 X3.331 Y102.017 Z-4.000 I-0.268 J3.789 K0.000 F60.000
G2 X6.017 Y106.669 Z-4.000 I3.669 J0.983 K0.000 F60.000
G2 X10.669 Y103.983 Z-4.000 I0.983 J-3.669 K0.000 F60.000
G2 X7.268 Y99.211 Z-4.000 I-3.669 J-0.983 K0.000 F60.000
G1 X7.268 Y99.211 Z-4.100 F60.000
G2 X3.331 Y102.017 Z-4.100 I-0.268 J3.789 K0.000 F60.000
G2 X6.017 Y106.669 Z-4.100 I3.669 J0.983 K0.000 F60.000
G2 X10.669 Y103.983 Z-4.100 I0.983 J-3.669 K0.000 F60.000
G2 X7.268 Y99.211 Z-4.100 I-3.669 J-0.983 K0.000 F60.000
G0 Z2.000
G0 Z2.000
G0 X7.268 Y99.211
G0 X149.203 Y102.901
G0 X149.203 Y102.901
G1 X149.203 Y102.901 Z-0.500 F60.000
G2 X152.017 Y106.669 Z-0.500 I3.797 J0.099 K0.000 F60.000
G2 X153.983 Y99.331 Z-0.500 I0.983 J-3.669 K0.000 F60.000
G2 X149.203 Y102.901 Z-0.500 I-0.983 J3.669 K0.000 F60.000
G1 X149.203 Y102.901 Z-1.000 F60.000
G2 X152.017 Y106.669 Z-1.000 I3.797 J0.099 K0.000 F60.000
G2 X153.983 Y99.331 Z-1.000 I0.983 J-3.669 K0.000 F60.000
G2 X149.203 Y102.901 Z-1.000 I-0.983 J3.669 K0.000 F60.000
G1 X149.203 Y102.901 Z-1.500 F60.000
G2 X152.017 Y106.669 Z-1.500 I3.797 J0.099 K0.000 F60.000
G2 X153.983 Y99.331 Z-1.500 I0.983 J-3.669 K0.000 F60.000
G2 X149.203 Y102.901 Z-1.500 I-0.983 J3.669 K0.000 F60.000
G1 X149.203 Y102.901 Z-2.000 F60.000
G2 X152.017 Y106.669 Z-2.000 I3.797 J0.099 K0.000 F60.000
G2 X153.983 Y99.331 Z-2.000 I0.983 J-3.669 K0.000 F60.000
G2 X149.203 Y102.901 Z-2.000 I-0.983 J3.669 K0.000 F60.000
G1 X149.203 Y102.901 Z-2.500 F60.000
G2 X152.017 Y106.669 Z-2.500 I3.797 J0.099 K0.000 F60.000
G2 X153.983 Y99.331 Z-2.500 I0.983 J-3.669 K0.000 F60.000
G2 X149.203 Y102.901 Z-2.500 I-0.983 J3.669 K0.000 F60.000
G1 X149.203 Y102.901 Z-3.000 F60.000
G2 X152.017 Y106.669 Z-3.000 I3.797 J0.099 K0.000 F60.000
G2 X153.983 Y99.331 Z-3.000 I0.983 J-3.669 K0.000 F60.000
G2 X149.203 Y102.901 Z-3.000 I-0.983 J3.669 K0.000 F60.000
G1 X149.203 Y102.901 Z-3.500 F60.000
G2 X152.017 Y106.669 Z-3.500 I3.797 J0.099 K0.000 F60.000
G2 X153.983 Y99.331 Z-3.500 I0.983 J-3.669 K0.000 F60.000
G2 X149.203 Y102.901 Z-3.500 I-0.983 J3.669 K0.000 F60.000
G1 X149.203 Y102.901 Z-4.000 F60.000
G2 X152.017 Y106.669 Z-4.000 I3.797 J0.099 K0.000 F60.000
G2 X153.983 Y99.331 Z-4.000 I0.983 J-3.669 K0.000 F60.000
G2 X149.203 Y102.901 Z-4.000 I-0.983 J3.669 K0.000 F60.000
G1 X149.203 Y102.901 Z-4.100 F60.000
G2 X152.017 Y106.669 Z-4.100 I3.797 J0.099 K0.000 F60.000
G2 X153.983 Y99.331 Z-4.100 I0.983 J-3.669 K0.000 F60.000
G2 X149.203 Y102.901 Z-4.100 I-0.983 J3.669 K0.000 F60.000
G0 Z2.000
G0 Z2.000
G0 X149.203 Y102.901
G0 X149.963 Y23.798
G0 X149.963 Y23.798
G1 X149.963 Y23.798 Z-0.500 F60.000
G2 X150.983 Y16.331 Z-0.500 I0.037 J-3.798 K0.000 F60.000
G2 X146.331 Y19.017 Z-0.500 I-0.983 J3.669 K0.000 F60.000
G2 X149.017 Y23.669 Z-0.500 I3.669 J0.983 K0.000 F60.000
G2 X149.963 Y23.798 Z-0.500 I0.983 J-3.669 K0.000 F60.000
G1 X149.963 Y23.798 Z-1.000 F60.000
G2 X150.983 Y16.331 Z-1.000 I0.037 J-3.798 K0.000 F60.000
G2 X146.331 Y19.017 Z-1.000 I-0.983 J3.669 K0.000 F60.000
G2 X149.017 Y23.669 Z-1.000 I3.669 J0.983 K0.000 F60.000
G2 X149.963 Y23.798 Z-1.000 I0.983 J-3.669 K0.000 F60.000
G1 X149.963 Y23.798 Z-1.500 F60.000
G2 X150.983 Y16.331 Z-1.500 I0.037 J-3.798 K0.000 F60.000
G2 X146.331 Y19.017 Z-1.500 I-0.983 J3.669 K0.000 F60.000
G2 X149.017 Y23.669 Z-1.500 I3.669 J0.983 K0.000 F60.000
G2 X149.963 Y23.798 Z-1.500 I0.983 J-3.669 K0.000 F60.000
G1 X149.963 Y23.798 Z-2.000 F60.000
G2 X150.983 Y16.331 Z-2.000 I0.037 J-3.798 K0.000 F60.000
G2 X146.331 Y19.017 Z-2.000 I-0.983 J3.669 K0.000 F60.000
G2 X149.017 Y23.669 Z-2.000 I3.669 J0.983 K0.000 F60.000
G2 X149.963 Y23.798 Z-2.000 I0.983 J-3.669 K0.000 F60.000
G1 X149.963 Y23.798 Z-2.500 F60.000
G2 X150.983 Y16.331 Z-2.500 I0.037 J-3.798 K0.000 F60.000
G2 X146.331 Y19.017 Z-2.500 I-0.983 J3.669 K0.000 F60.000
G2 X149.017 Y23.669 Z-2.500 I3.669 J0.983 K0.000 F60.000
G2 X149.963 Y23.798 Z-2.500 I0.983 J-3.669 K0.000 F60.000
G1 X149.963 Y23.798 Z-3.000 F60.000
G2 X150.983 Y16.331 Z-3.000 I0.037 J-3.798 K0.000 F60.000
G2 X146.331 Y19.017 Z-3.000 I-0.983 J3.669 K0.000 F60.000
G2 X149.017 Y23.669 Z-3.000 I3.669 J0.983 K0.000 F60.000
G2 X149.963 Y23.798 Z-3.000 I0.983 J-3.669 K0.000 F60.000
G1 X149.963 Y23.798 Z-3.500 F60.000
G2 X150.983 Y16.331 Z-3.500 I0.037 J-3.798 K0.000 F60.000
G2 X146.331 Y19.017 Z-3.500 I-0.983 J3.669 K0.000 F60.000
G2 X149.017 Y23.669 Z-3.500 I3.669 J0.983 K0.000 F60.000
G2 X149.963 Y23.798 Z-3.500 I0.983 J-3.669 K0.000 F60.000
G1 X149.963 Y23.798 Z-4.000 F60.000
G2 X150.983 Y16.331 Z-4.000 I0.037 J-3.798 K0.000 F60.000
G2 X146.331 Y19.017 Z-4.000 I-0.983 J3.669 K0.000 F60.000
G2 X149.017 Y23.669 Z-4.000 I3.669 J0.983 K0.000 F60.000
G2 X149.963 Y23.798 Z-4.000 I0.983 J-3.669 K0.000 F60.000
G1 X149.963 Y23.798 Z-4.100 F60.000
G2 X150.983 Y16.331 Z-4.100 I0.037 J-3.798 K0.000 F60.000
G2 X146.331 Y19.017 Z-4.100 I-0.983 J3.669 K0.000 F60.000
G2 X149.017 Y23.669 Z-4.100 I3.669 J0.983 K0.000 F60.000
G2 X149.963 Y23.798 Z-4.100 I0.983 J-3.669 K0.000 F60.000
G0 Z2.000
G0 Z2.000
(Finish operation: Profile069)
(Begin operation: Profile070)
(Path: Profile070)
(Profile070)
(Compensated Tool Path. Diameter: 1.4)
G0 Z5.000
G0 X160.199 Y110.200
G0 Z3.000
G1 X160.199 Y110.200 Z-1.000 F60.000
G2 X160.694 Y109.091 Z-1.000 I-1.205 J-1.203 K0.000 F60.000
G1 X160.700 Y1.000 Z-1.000 F60.000
G2 X159.091 Y-0.694 Z-1.000 I-1.703 J0.006 K0.000 F60.000
G1 X1.000 Y-0.700 Z-1.000 F60.000
G2 X-0.694 Y0.909 Z-1.000 I0.006 J1.703 K0.000 F60.000
G1 X-0.700 Y109.000 Z-1.000 F60.000
G2 X0.909 Y110.694 Z-1.000 I1.703 J-0.006 K0.000 F60.000
G1 X159.000 Y110.700 Z-1.000 F60.000
G2 X160.199 Y110.200 Z-1.000 I-0.006 J-1.703 K0.000 F60.000
G1 X160.199 Y110.200 Z-2.000 F60.000
G2 X160.694 Y109.091 Z-2.000 I-1.205 J-1.203 K0.000 F60.000
G1 X160.700 Y1.000 Z-2.000 F60.000
G2 X159.091 Y-0.694 Z-2.000 I-1.703 J0.006 K0.000 F60.000
G1 X1.000 Y-0.700 Z-2.000 F60.000
G2 X-0.694 Y0.909 Z-2.000 I0.006 J1.703 K0.000 F60.000
G1 X-0.700 Y109.000 Z-2.000 F60.000
G2 X0.909 Y110.694 Z-2.000 I1.703 J-0.006 K0.000 F60.000
G1 X159.000 Y110.700 Z-2.000 F60.000
G2 X160.199 Y110.200 Z-2.000 I-0.006 J-1.703 K0.000 F60.000
G1 X160.199 Y110.200 Z-3.000 F60.000
G2 X160.694 Y109.091 Z-3.000 I-1.205 J-1.203 K0.000 F60.000
G1 X160.700 Y1.000 Z-3.000 F60.000
G2 X159.091 Y-0.694 Z-3.000 I-1.703 J0.006 K0.000 F60.000
G1 X1.000 Y-0.700 Z-3.000 F60.000
G2 X-0.694 Y0.909 Z-3.000 I0.006 J1.703 K0.000 F60.000
G1 X-0.700 Y109.000 Z-3.000 F60.000
G2 X0.909 Y110.694 Z-3.000 I1.703 J-0.006 K0.000 F60.000
G1 X159.000 Y110.700 Z-3.000 F60.000
G2 X160.199 Y110.200 Z-3.000 I-0.006 J-1.703 K0.000 F60.000
G1 X160.199 Y110.200 Z-4.000 F60.000
G2 X160.694 Y109.091 Z-4.000 I-1.205 J-1.203 K0.000 F60.000
G1 X160.700 Y1.000 Z-4.000 F60.000
G2 X159.091 Y-0.694 Z-4.000 I-1.703 J0.006 K0.000 F60.000
G1 X1.000 Y-0.700 Z-4.000 F60.000
G2 X-0.694 Y0.909 Z-4.000 I0.006 J1.703 K0.000 F60.000
G1 X-0.700 Y109.000 Z-4.000 F60.000
G2 X0.909 Y110.694 Z-4.000 I1.703 J-0.006 K0.000 F60.000
G1 X159.000 Y110.700 Z-4.000 F60.000
G2 X160.199 Y110.200 Z-4.000 I-0.006 J-1.703 K0.000 F60.000
G1 X160.199 Y110.200 Z-4.100 F60.000
G2 X160.694 Y109.091 Z-4.100 I-1.205 J-1.203 K0.000 F60.000
G1 X160.700 Y1.000 Z-4.100 F60.000
G2 X159.091 Y-0.694 Z-4.100 I-1.703 J0.006 K0.000 F60.000
G1 X1.000 Y-0.700 Z-4.100 F60.000
G2 X-0.694 Y0.909 Z-4.100 I0.006 J1.703 K0.000 F60.000
G1 X-0.700 Y109.000 Z-4.100 F60.000
G2 X0.909 Y110.694 Z-4.100 I1.703 J-0.006 K0.000 F60.000
G1 X159.000 Y110.700 Z-4.100 F60.000
G2 X160.199 Y110.200 Z-4.100 I-0.006 J-1.703 K0.000 F60.000
G0 Z5.000
G0 Z5.000
(Finish operation: Profile070)
G0 X0 Y0
(Begin postamble)
M5
G17 G90
M2
