(Exported by FreeCAD)
(Post Processor: grbl_post)
(Output Time:2024-10-19 08:20:42.969858)
(Begin preamble)
G17 G90
G21
(Begin operation: G54)
(Path: G54)
G54
G0 Z3.000
(Finish operation: G54)
(Begin operation: Bit_1,005)
(Path: Bit_1,005)
(Bit_1,005)
(Begin toolchange)
( M6 T3 )
M3 S10000
(Finish operation: Bit_1,005)
(Begin operation: Profile)
(Path: Profile)
(Profile)
(Compensated Tool Path. Diameter: 1.4)
G0 Z5.000
G0 X10.563 Y20.563
G0 Z3.000
G1 X10.563 Y20.563 Z-0.800 F60.000
G3 X9.655 Y20.717 Z-0.800 I-0.563 J-0.563 K0.000 F120.000
G3 X10.345 Y19.283 Z-0.800 I0.345 J-0.717 K0.000 F120.000
G3 X10.563 Y20.563 Z-0.800 I-0.345 J0.717 K0.000 F120.000
G1 X10.563 Y20.563 Z-1.600 F60.000
G3 X9.655 Y20.717 Z-1.600 I-0.563 J-0.563 K0.000 F120.000
G3 X10.345 Y19.283 Z-1.600 I0.345 J-0.717 K0.000 F120.000
G3 X10.563 Y20.563 Z-1.600 I-0.345 J0.717 K0.000 F120.000
G1 X10.563 Y20.563 Z-2.400 F60.000
G3 X9.655 Y20.717 Z-2.400 I-0.563 J-0.563 K0.000 F120.000
G3 X10.345 Y19.283 Z-2.400 I0.345 J-0.717 K0.000 F120.000
G3 X10.563 Y20.563 Z-2.400 I-0.345 J0.717 K0.000 F120.000
G1 X10.563 Y20.563 Z-3.200 F60.000
G3 X9.655 Y20.717 Z-3.200 I-0.563 J-0.563 K0.000 F120.000
G3 X10.345 Y19.283 Z-3.200 I0.345 J-0.717 K0.000 F120.000
G3 X10.563 Y20.563 Z-3.200 I-0.345 J0.717 K0.000 F120.000
G1 X10.563 Y20.563 Z-4.000 F60.000
G3 X9.655 Y20.717 Z-4.000 I-0.563 J-0.563 K0.000 F120.000
G3 X10.345 Y19.283 Z-4.000 I0.345 J-0.717 K0.000 F120.000
G3 X10.563 Y20.563 Z-4.000 I-0.345 J0.717 K0.000 F120.000
G1 X10.563 Y20.563 Z-4.800 F60.000
G3 X9.655 Y20.717 Z-4.800 I-0.563 J-0.563 K0.000 F120.000
G3 X10.345 Y19.283 Z-4.800 I0.345 J-0.717 K0.000 F120.000
G3 X10.563 Y20.563 Z-4.800 I-0.345 J0.717 K0.000 F120.000
G1 X10.563 Y20.563 Z-5.600 F60.000
G3 X9.655 Y20.717 Z-5.600 I-0.563 J-0.563 K0.000 F120.000
G3 X10.345 Y19.283 Z-5.600 I0.345 J-0.717 K0.000 F120.000
G3 X10.563 Y20.563 Z-5.600 I-0.345 J0.717 K0.000 F120.000
G1 X10.563 Y20.563 Z-6.400 F60.000
G3 X9.655 Y20.717 Z-6.400 I-0.563 J-0.563 K0.000 F120.000
G3 X10.345 Y19.283 Z-6.400 I0.345 J-0.717 K0.000 F120.000
G3 X10.563 Y20.563 Z-6.400 I-0.345 J0.717 K0.000 F120.000
G1 X10.563 Y20.563 Z-7.200 F60.000
G3 X9.655 Y20.717 Z-7.200 I-0.563 J-0.563 K0.000 F120.000
G3 X10.345 Y19.283 Z-7.200 I0.345 J-0.717 K0.000 F120.000
G3 X10.563 Y20.563 Z-7.200 I-0.345 J0.717 K0.000 F120.000
G1 X10.563 Y20.563 Z-8.000 F60.000
G3 X9.655 Y20.717 Z-8.000 I-0.563 J-0.563 K0.000 F120.000
G3 X10.345 Y19.283 Z-8.000 I0.345 J-0.717 K0.000 F120.000
G3 X10.563 Y20.563 Z-8.000 I-0.345 J0.717 K0.000 F120.000
G1 X10.563 Y20.563 Z-8.800 F60.000
G3 X9.655 Y20.717 Z-8.800 I-0.563 J-0.563 K0.000 F120.000
G3 X10.345 Y19.283 Z-8.800 I0.345 J-0.717 K0.000 F120.000
G3 X10.563 Y20.563 Z-8.800 I-0.345 J0.717 K0.000 F120.000
G1 X10.563 Y20.563 Z-9.600 F60.000
G3 X9.655 Y20.717 Z-9.600 I-0.563 J-0.563 K0.000 F120.000
G3 X10.345 Y19.283 Z-9.600 I0.345 J-0.717 K0.000 F120.000
G3 X10.563 Y20.563 Z-9.600 I-0.345 J0.717 K0.000 F120.000
G1 X10.563 Y20.563 Z-10.000 F60.000
G3 X9.655 Y20.717 Z-10.000 I-0.563 J-0.563 K0.000 F120.000
G3 X10.345 Y19.283 Z-10.000 I0.345 J-0.717 K0.000 F120.000
G3 X10.563 Y20.563 Z-10.000 I-0.345 J0.717 K0.000 F120.000
G0 Z5.000
G0 Z5.000
G0 X10.563 Y20.563
G0 X7.034 Y102.205
G0 X7.034 Y102.205 Z3.000
G1 X7.034 Y102.205 Z-0.800 F60.000
G3 X7.345 Y102.283 Z-0.800 I-0.034 J0.795 K0.000 F120.000
G3 X6.655 Y103.717 Z-0.800 I-0.345 J0.717 K0.000 F120.000
G3 X7.034 Y102.205 Z-0.800 I0.345 J-0.717 K0.000 F120.000
G1 X7.034 Y102.205 Z-1.600 F60.000
G3 X7.345 Y102.283 Z-1.600 I-0.034 J0.795 K0.000 F120.000
G3 X6.655 Y103.717 Z-1.600 I-0.345 J0.717 K0.000 F120.000
G3 X7.034 Y102.205 Z-1.600 I0.345 J-0.717 K0.000 F120.000
G1 X7.034 Y102.205 Z-2.400 F60.000
G3 X7.345 Y102.283 Z-2.400 I-0.034 J0.795 K0.000 F120.000
G3 X6.655 Y103.717 Z-2.400 I-0.345 J0.717 K0.000 F120.000
G3 X7.034 Y102.205 Z-2.400 I0.345 J-0.717 K0.000 F120.000
G1 X7.034 Y102.205 Z-3.200 F60.000
G3 X7.345 Y102.283 Z-3.200 I-0.034 J0.795 K0.000 F120.000
G3 X6.655 Y103.717 Z-3.200 I-0.345 J0.717 K0.000 F120.000
G3 X7.034 Y102.205 Z-3.200 I0.345 J-0.717 K0.000 F120.000
G1 X7.034 Y102.205 Z-4.000 F60.000
G3 X7.345 Y102.283 Z-4.000 I-0.034 J0.795 K0.000 F120.000
G3 X6.655 Y103.717 Z-4.000 I-0.345 J0.717 K0.000 F120.000
G3 X7.034 Y102.205 Z-4.000 I0.345 J-0.717 K0.000 F120.000
G1 X7.034 Y102.205 Z-4.800 F60.000
G3 X7.345 Y102.283 Z-4.800 I-0.034 J0.795 K0.000 F120.000
G3 X6.655 Y103.717 Z-4.800 I-0.345 J0.717 K0.000 F120.000
G3 X7.034 Y102.205 Z-4.800 I0.345 J-0.717 K0.000 F120.000
G1 X7.034 Y102.205 Z-5.600 F60.000
G3 X7.345 Y102.283 Z-5.600 I-0.034 J0.795 K0.000 F120.000
G3 X6.655 Y103.717 Z-5.600 I-0.345 J0.717 K0.000 F120.000
G3 X7.034 Y102.205 Z-5.600 I0.345 J-0.717 K0.000 F120.000
G1 X7.034 Y102.205 Z-6.400 F60.000
G3 X7.345 Y102.283 Z-6.400 I-0.034 J0.795 K0.000 F120.000
G3 X6.655 Y103.717 Z-6.400 I-0.345 J0.717 K0.000 F120.000
G3 X7.034 Y102.205 Z-6.400 I0.345 J-0.717 K0.000 F120.000
G1 X7.034 Y102.205 Z-7.200 F60.000
G3 X7.345 Y102.283 Z-7.200 I-0.034 J0.795 K0.000 F120.000
G3 X6.655 Y103.717 Z-7.200 I-0.345 J0.717 K0.000 F120.000
G3 X7.034 Y102.205 Z-7.200 I0.345 J-0.717 K0.000 F120.000
G1 X7.034 Y102.205 Z-8.000 F60.000
G3 X7.345 Y102.283 Z-8.000 I-0.034 J0.795 K0.000 F120.000
G3 X6.655 Y103.717 Z-8.000 I-0.345 J0.717 K0.000 F120.000
G3 X7.034 Y102.205 Z-8.000 I0.345 J-0.717 K0.000 F120.000
G1 X7.034 Y102.205 Z-8.800 F60.000
G3 X7.345 Y102.283 Z-8.800 I-0.034 J0.795 K0.000 F120.000
G3 X6.655 Y103.717 Z-8.800 I-0.345 J0.717 K0.000 F120.000
G3 X7.034 Y102.205 Z-8.800 I0.345 J-0.717 K0.000 F120.000
G1 X7.034 Y102.205 Z-9.600 F60.000
G3 X7.345 Y102.283 Z-9.600 I-0.034 J0.795 K0.000 F120.000
G3 X6.655 Y103.717 Z-9.600 I-0.345 J0.717 K0.000 F120.000
G3 X7.034 Y102.205 Z-9.600 I0.345 J-0.717 K0.000 F120.000
G1 X7.034 Y102.205 Z-10.000 F60.000
G3 X7.345 Y102.283 Z-10.000 I-0.034 J0.795 K0.000 F120.000
G3 X6.655 Y103.717 Z-10.000 I-0.345 J0.717 K0.000 F120.000
G3 X7.034 Y102.205 Z-10.000 I0.345 J-0.717 K0.000 F120.000
G0 Z5.000
G0 Z5.000
G0 X7.034 Y102.205
G0 X152.204 Y102.996
G0 X152.204 Y102.996 Z3.000
G1 X152.204 Y102.996 Z-0.800 F60.000
G3 X153.345 Y102.283 Z-0.800 I0.796 J0.004 K0.000 F120.000
G3 X152.655 Y103.717 Z-0.800 I-0.345 J0.717 K0.000 F120.000
G3 X152.204 Y102.996 Z-0.800 I0.345 J-0.717 K0.000 F120.000
G1 X152.204 Y102.996 Z-1.600 F60.000
G3 X153.345 Y102.283 Z-1.600 I0.796 J0.004 K0.000 F120.000
G3 X152.655 Y103.717 Z-1.600 I-0.345 J0.717 K0.000 F120.000
G3 X152.204 Y102.996 Z-1.600 I0.345 J-0.717 K0.000 F120.000
G1 X152.204 Y102.996 Z-2.400 F60.000
G3 X153.345 Y102.283 Z-2.400 I0.796 J0.004 K0.000 F120.000
G3 X152.655 Y103.717 Z-2.400 I-0.345 J0.717 K0.000 F120.000
G3 X152.204 Y102.996 Z-2.400 I0.345 J-0.717 K0.000 F120.000
G1 X152.204 Y102.996 Z-3.200 F60.000
G3 X153.345 Y102.283 Z-3.200 I0.796 J0.004 K0.000 F120.000
G3 X152.655 Y103.717 Z-3.200 I-0.345 J0.717 K0.000 F120.000
G3 X152.204 Y102.996 Z-3.200 I0.345 J-0.717 K0.000 F120.000
G1 X152.204 Y102.996 Z-4.000 F60.000
G3 X153.345 Y102.283 Z-4.000 I0.796 J0.004 K0.000 F120.000
G3 X152.655 Y103.717 Z-4.000 I-0.345 J0.717 K0.000 F120.000
G3 X152.204 Y102.996 Z-4.000 I0.345 J-0.717 K0.000 F120.000
G1 X152.204 Y102.996 Z-4.800 F60.000
G3 X153.345 Y102.283 Z-4.800 I0.796 J0.004 K0.000 F120.000
G3 X152.655 Y103.717 Z-4.800 I-0.345 J0.717 K0.000 F120.000
G3 X152.204 Y102.996 Z-4.800 I0.345 J-0.717 K0.000 F120.000
G1 X152.204 Y102.996 Z-5.600 F60.000
G3 X153.345 Y102.283 Z-5.600 I0.796 J0.004 K0.000 F120.000
G3 X152.655 Y103.717 Z-5.600 I-0.345 J0.717 K0.000 F120.000
G3 X152.204 Y102.996 Z-5.600 I0.345 J-0.717 K0.000 F120.000
G1 X152.204 Y102.996 Z-6.400 F60.000
G3 X153.345 Y102.283 Z-6.400 I0.796 J0.004 K0.000 F120.000
G3 X152.655 Y103.717 Z-6.400 I-0.345 J0.717 K0.000 F120.000
G3 X152.204 Y102.996 Z-6.400 I0.345 J-0.717 K0.000 F120.000
G1 X152.204 Y102.996 Z-7.200 F60.000
G3 X153.345 Y102.283 Z-7.200 I0.796 J0.004 K0.000 F120.000
G3 X152.655 Y103.717 Z-7.200 I-0.345 J0.717 K0.000 F120.000
G3 X152.204 Y102.996 Z-7.200 I0.345 J-0.717 K0.000 F120.000
G1 X152.204 Y102.996 Z-8.000 F60.000
G3 X153.345 Y102.283 Z-8.000 I0.796 J0.004 K0.000 F120.000
G3 X152.655 Y103.717 Z-8.000 I-0.345 J0.717 K0.000 F120.000
G3 X152.204 Y102.996 Z-8.000 I0.345 J-0.717 K0.000 F120.000
G1 X152.204 Y102.996 Z-8.800 F60.000
G3 X153.345 Y102.283 Z-8.800 I0.796 J0.004 K0.000 F120.000
G3 X152.655 Y103.717 Z-8.800 I-0.345 J0.717 K0.000 F120.000
G3 X152.204 Y102.996 Z-8.800 I0.345 J-0.717 K0.000 F120.000
G1 X152.204 Y102.996 Z-9.600 F60.000
G3 X153.345 Y102.283 Z-9.600 I0.796 J0.004 K0.000 F120.000
G3 X152.655 Y103.717 Z-9.600 I-0.345 J0.717 K0.000 F120.000
G3 X152.204 Y102.996 Z-9.600 I0.345 J-0.717 K0.000 F120.000
G1 X152.204 Y102.996 Z-10.000 F60.000
G3 X153.345 Y102.283 Z-10.000 I0.796 J0.004 K0.000 F120.000
G3 X152.655 Y103.717 Z-10.000 I-0.345 J0.717 K0.000 F120.000
G3 X152.204 Y102.996 Z-10.000 I0.345 J-0.717 K0.000 F120.000
G0 Z5.000
G0 Z5.000
G0 X152.204 Y102.996
G0 X150.021 Y20.795
G0 X150.021 Y20.795 Z3.000
G1 X150.021 Y20.795 Z-0.800 F60.000
G3 X149.655 Y20.717 Z-0.800 I-0.021 J-0.795 K0.000 F120.000
G3 X150.345 Y19.283 Z-0.800 I0.345 J-0.717 K0.000 F120.000
G3 X150.021 Y20.795 Z-0.800 I-0.345 J0.717 K0.000 F120.000
G1 X150.021 Y20.795 Z-1.600 F60.000
G3 X149.655 Y20.717 Z-1.600 I-0.021 J-0.795 K0.000 F120.000
G3 X150.345 Y19.283 Z-1.600 I0.345 J-0.717 K0.000 F120.000
G3 X150.021 Y20.795 Z-1.600 I-0.345 J0.717 K0.000 F120.000
G1 X150.021 Y20.795 Z-2.400 F60.000
G3 X149.655 Y20.717 Z-2.400 I-0.021 J-0.795 K0.000 F120.000
G3 X150.345 Y19.283 Z-2.400 I0.345 J-0.717 K0.000 F120.000
G3 X150.021 Y20.795 Z-2.400 I-0.345 J0.717 K0.000 F120.000
G1 X150.021 Y20.795 Z-3.200 F60.000
G3 X149.655 Y20.717 Z-3.200 I-0.021 J-0.795 K0.000 F120.000
G3 X150.345 Y19.283 Z-3.200 I0.345 J-0.717 K0.000 F120.000
G3 X150.021 Y20.795 Z-3.200 I-0.345 J0.717 K0.000 F120.000
G1 X150.021 Y20.795 Z-4.000 F60.000
G3 X149.655 Y20.717 Z-4.000 I-0.021 J-0.795 K0.000 F120.000
G3 X150.345 Y19.283 Z-4.000 I0.345 J-0.717 K0.000 F120.000
G3 X150.021 Y20.795 Z-4.000 I-0.345 J0.717 K0.000 F120.000
G1 X150.021 Y20.795 Z-4.800 F60.000
G3 X149.655 Y20.717 Z-4.800 I-0.021 J-0.795 K0.000 F120.000
G3 X150.345 Y19.283 Z-4.800 I0.345 J-0.717 K0.000 F120.000
G3 X150.021 Y20.795 Z-4.800 I-0.345 J0.717 K0.000 F120.000
G1 X150.021 Y20.795 Z-5.600 F60.000
G3 X149.655 Y20.717 Z-5.600 I-0.021 J-0.795 K0.000 F120.000
G3 X150.345 Y19.283 Z-5.600 I0.345 J-0.717 K0.000 F120.000
G3 X150.021 Y20.795 Z-5.600 I-0.345 J0.717 K0.000 F120.000
G1 X150.021 Y20.795 Z-6.400 F60.000
G3 X149.655 Y20.717 Z-6.400 I-0.021 J-0.795 K0.000 F120.000
G3 X150.345 Y19.283 Z-6.400 I0.345 J-0.717 K0.000 F120.000
G3 X150.021 Y20.795 Z-6.400 I-0.345 J0.717 K0.000 F120.000
G1 X150.021 Y20.795 Z-7.200 F60.000
G3 X149.655 Y20.717 Z-7.200 I-0.021 J-0.795 K0.000 F120.000
G3 X150.345 Y19.283 Z-7.200 I0.345 J-0.717 K0.000 F120.000
G3 X150.021 Y20.795 Z-7.200 I-0.345 J0.717 K0.000 F120.000
G1 X150.021 Y20.795 Z-8.000 F60.000
G3 X149.655 Y20.717 Z-8.000 I-0.021 J-0.795 K0.000 F120.000
G3 X150.345 Y19.283 Z-8.000 I0.345 J-0.717 K0.000 F120.000
G3 X150.021 Y20.795 Z-8.000 I-0.345 J0.717 K0.000 F120.000
G1 X150.021 Y20.795 Z-8.800 F60.000
G3 X149.655 Y20.717 Z-8.800 I-0.021 J-0.795 K0.000 F120.000
G3 X150.345 Y19.283 Z-8.800 I0.345 J-0.717 K0.000 F120.000
G3 X150.021 Y20.795 Z-8.800 I-0.345 J0.717 K0.000 F120.000
G1 X150.021 Y20.795 Z-9.600 F60.000
G3 X149.655 Y20.717 Z-9.600 I-0.021 J-0.795 K0.000 F120.000
G3 X150.345 Y19.283 Z-9.600 I0.345 J-0.717 K0.000 F120.000
G3 X150.021 Y20.795 Z-9.600 I-0.345 J0.717 K0.000 F120.000
G1 X150.021 Y20.795 Z-10.000 F60.000
G3 X149.655 Y20.717 Z-10.000 I-0.021 J-0.795 K0.000 F120.000
G3 X150.345 Y19.283 Z-10.000 I0.345 J-0.717 K0.000 F120.000
G3 X150.021 Y20.795 Z-10.000 I-0.345 J0.717 K0.000 F120.000
G0 Z5.000
G0 Z5.000
(Finish operation: Profile)
(Begin operation: Profile056)
(Path: Profile056)
(Profile056)
(Compensated Tool Path. Diameter: 1.4)
G0 Z3.000
G0 X52.301 Y98.991 Z2.000
G0 Z3.000
G1 X52.301 Y98.991 Z-1.000 F60.000
G2 X52.300 Y98.954 Z-1.000 I-0.319 J-0.008 K0.000 F120.000
G1 X52.300 Y37.000 Z-1.000 F120.000
G3 X53.909 Y35.306 Z-1.000 I1.703 J0.006 K0.000 F120.000
G1 X63.954 Y35.300 Z-1.000 F120.000
G2 X64.300 Y34.954 Z-1.000 I0.028 J-0.318 K0.000 F120.000
G1 X64.300 Y29.046 Z-1.000 F120.000
G2 X63.954 Y28.700 Z-1.000 I-0.318 J-0.028 K0.000 F120.000
G1 X11.046 Y28.700 Z-1.000 F120.000
G2 X10.700 Y29.046 Z-1.000 I-0.028 J0.318 K0.000 F120.000
G1 X10.700 Y95.876 Z-1.000 F120.000
G2 X11.241 Y96.343 Z-1.000 I0.648 J-0.204 K0.000 F120.000
G3 X13.748 Y98.906 Z-1.000 I-3.670 J6.098 K0.000 F120.000
G2 X14.176 Y99.300 Z-1.000 I1.048 J-0.709 K0.000 F120.000
G1 X51.954 Y99.300 Z-1.000 F120.000
G2 X52.301 Y98.991 Z-1.000 I0.028 J-0.318 K0.000 F120.000
G1 X52.301 Y98.991 Z-2.000 F60.000
G2 X52.300 Y98.954 Z-2.000 I-0.319 J-0.008 K0.000 F120.000
G1 X52.300 Y37.000 Z-2.000 F120.000
G3 X53.909 Y35.306 Z-2.000 I1.703 J0.006 K0.000 F120.000
G1 X63.954 Y35.300 Z-2.000 F120.000
G2 X64.300 Y34.954 Z-2.000 I0.028 J-0.318 K0.000 F120.000
G1 X64.300 Y29.046 Z-2.000 F120.000
G2 X63.954 Y28.700 Z-2.000 I-0.318 J-0.028 K0.000 F120.000
G1 X11.046 Y28.700 Z-2.000 F120.000
G2 X10.700 Y29.046 Z-2.000 I-0.028 J0.318 K0.000 F120.000
G1 X10.700 Y95.876 Z-2.000 F120.000
G2 X11.241 Y96.343 Z-2.000 I0.648 J-0.204 K0.000 F120.000
G3 X13.748 Y98.906 Z-2.000 I-3.670 J6.098 K0.000 F120.000
G2 X14.176 Y99.300 Z-2.000 I1.048 J-0.709 K0.000 F120.000
G1 X51.954 Y99.300 Z-2.000 F120.000
G2 X52.301 Y98.991 Z-2.000 I0.028 J-0.318 K0.000 F120.000
G1 X52.301 Y98.991 Z-3.000 F60.000
G2 X52.300 Y98.954 Z-3.000 I-0.319 J-0.008 K0.000 F120.000
G1 X52.300 Y37.000 Z-3.000 F120.000
G3 X53.909 Y35.306 Z-3.000 I1.703 J0.006 K0.000 F120.000
G1 X63.954 Y35.300 Z-3.000 F120.000
G2 X64.300 Y34.954 Z-3.000 I0.028 J-0.318 K0.000 F120.000
G1 X64.300 Y29.046 Z-3.000 F120.000
G2 X63.954 Y28.700 Z-3.000 I-0.318 J-0.028 K0.000 F120.000
G1 X11.046 Y28.700 Z-3.000 F120.000
G2 X10.700 Y29.046 Z-3.000 I-0.028 J0.318 K0.000 F120.000
G1 X10.700 Y95.876 Z-3.000 F120.000
G2 X11.241 Y96.343 Z-3.000 I0.648 J-0.204 K0.000 F120.000
G3 X13.748 Y98.906 Z-3.000 I-3.670 J6.098 K0.000 F120.000
G2 X14.176 Y99.300 Z-3.000 I1.048 J-0.709 K0.000 F120.000
G1 X51.954 Y99.300 Z-3.000 F120.000
G2 X52.301 Y98.991 Z-3.000 I0.028 J-0.318 K0.000 F120.000
G1 X52.301 Y98.991 Z-4.000 F60.000
G2 X52.300 Y98.954 Z-4.000 I-0.319 J-0.008 K0.000 F120.000
G1 X52.300 Y37.000 Z-4.000 F120.000
G3 X53.909 Y35.306 Z-4.000 I1.703 J0.006 K0.000 F120.000
G1 X63.954 Y35.300 Z-4.000 F120.000
G2 X64.300 Y34.954 Z-4.000 I0.028 J-0.318 K0.000 F120.000
G1 X64.300 Y29.046 Z-4.000 F120.000
G2 X63.954 Y28.700 Z-4.000 I-0.318 J-0.028 K0.000 F120.000
G1 X11.046 Y28.700 Z-4.000 F120.000
G2 X10.700 Y29.046 Z-4.000 I-0.028 J0.318 K0.000 F120.000
G1 X10.700 Y95.876 Z-4.000 F120.000
G2 X11.241 Y96.343 Z-4.000 I0.648 J-0.204 K0.000 F120.000
G3 X13.748 Y98.906 Z-4.000 I-3.670 J6.098 K0.000 F120.000
G2 X14.176 Y99.300 Z-4.000 I1.048 J-0.709 K0.000 F120.000
G1 X51.954 Y99.300 Z-4.000 F120.000
G2 X52.301 Y98.991 Z-4.000 I0.028 J-0.318 K0.000 F120.000
G1 X52.301 Y98.991 Z-5.000 F60.000
G2 X52.300 Y98.954 Z-5.000 I-0.319 J-0.008 K0.000 F120.000
G1 X52.300 Y37.000 Z-5.000 F120.000
G3 X53.909 Y35.306 Z-5.000 I1.703 J0.006 K0.000 F120.000
G1 X63.954 Y35.300 Z-5.000 F120.000
G2 X64.300 Y34.954 Z-5.000 I0.028 J-0.318 K0.000 F120.000
G1 X64.300 Y29.046 Z-5.000 F120.000
G2 X63.954 Y28.700 Z-5.000 I-0.318 J-0.028 K0.000 F120.000
G1 X11.046 Y28.700 Z-5.000 F120.000
G2 X10.700 Y29.046 Z-5.000 I-0.028 J0.318 K0.000 F120.000
G1 X10.700 Y95.876 Z-5.000 F120.000
G2 X11.241 Y96.343 Z-5.000 I0.648 J-0.204 K0.000 F120.000
G3 X13.748 Y98.906 Z-5.000 I-3.670 J6.098 K0.000 F120.000
G2 X14.176 Y99.300 Z-5.000 I1.048 J-0.709 K0.000 F120.000
G1 X51.954 Y99.300 Z-5.000 F120.000
G2 X52.301 Y98.991 Z-5.000 I0.028 J-0.318 K0.000 F120.000
G1 X52.301 Y98.991 Z-6.000 F60.000
G2 X52.300 Y98.954 Z-6.000 I-0.319 J-0.008 K0.000 F120.000
G1 X52.300 Y37.000 Z-6.000 F120.000
G3 X53.909 Y35.306 Z-6.000 I1.703 J0.006 K0.000 F120.000
G1 X63.954 Y35.300 Z-6.000 F120.000
G2 X64.300 Y34.954 Z-6.000 I0.028 J-0.318 K0.000 F120.000
G1 X64.300 Y29.046 Z-6.000 F120.000
G2 X63.954 Y28.700 Z-6.000 I-0.318 J-0.028 K0.000 F120.000
G1 X11.046 Y28.700 Z-6.000 F120.000
G2 X10.700 Y29.046 Z-6.000 I-0.028 J0.318 K0.000 F120.000
G1 X10.700 Y95.876 Z-6.000 F120.000
G2 X11.241 Y96.343 Z-6.000 I0.648 J-0.204 K0.000 F120.000
G3 X13.748 Y98.906 Z-6.000 I-3.670 J6.098 K0.000 F120.000
G2 X14.176 Y99.300 Z-6.000 I1.048 J-0.709 K0.000 F120.000
G1 X51.954 Y99.300 Z-6.000 F120.000
G2 X52.301 Y98.991 Z-6.000 I0.028 J-0.318 K0.000 F120.000
G1 X52.301 Y98.991 Z-7.000 F60.000
G2 X52.300 Y98.954 Z-7.000 I-0.319 J-0.008 K0.000 F120.000
G1 X52.300 Y37.000 Z-7.000 F120.000
G3 X53.909 Y35.306 Z-7.000 I1.703 J0.006 K0.000 F120.000
G1 X63.954 Y35.300 Z-7.000 F120.000
G2 X64.300 Y34.954 Z-7.000 I0.028 J-0.318 K0.000 F120.000
G1 X64.300 Y29.046 Z-7.000 F120.000
G2 X63.954 Y28.700 Z-7.000 I-0.318 J-0.028 K0.000 F120.000
G1 X11.046 Y28.700 Z-7.000 F120.000
G2 X10.700 Y29.046 Z-7.000 I-0.028 J0.318 K0.000 F120.000
G1 X10.700 Y95.876 Z-7.000 F120.000
G2 X11.241 Y96.343 Z-7.000 I0.648 J-0.204 K0.000 F120.000
G3 X13.748 Y98.906 Z-7.000 I-3.670 J6.098 K0.000 F120.000
G2 X14.176 Y99.300 Z-7.000 I1.048 J-0.709 K0.000 F120.000
G1 X51.954 Y99.300 Z-7.000 F120.000
G2 X52.301 Y98.991 Z-7.000 I0.028 J-0.318 K0.000 F120.000
G1 X52.301 Y98.991 Z-8.000 F60.000
G2 X52.300 Y98.954 Z-8.000 I-0.319 J-0.008 K0.000 F120.000
G1 X52.300 Y37.000 Z-8.000 F120.000
G3 X53.909 Y35.306 Z-8.000 I1.703 J0.006 K0.000 F120.000
G1 X63.954 Y35.300 Z-8.000 F120.000
G2 X64.300 Y34.954 Z-8.000 I0.028 J-0.318 K0.000 F120.000
G1 X64.300 Y29.046 Z-8.000 F120.000
G2 X63.954 Y28.700 Z-8.000 I-0.318 J-0.028 K0.000 F120.000
G1 X11.046 Y28.700 Z-8.000 F120.000
G2 X10.700 Y29.046 Z-8.000 I-0.028 J0.318 K0.000 F120.000
G1 X10.700 Y95.876 Z-8.000 F120.000
G2 X11.241 Y96.343 Z-8.000 I0.648 J-0.204 K0.000 F120.000
G3 X13.748 Y98.906 Z-8.000 I-3.670 J6.098 K0.000 F120.000
G2 X14.176 Y99.300 Z-8.000 I1.048 J-0.709 K0.000 F120.000
G1 X51.954 Y99.300 Z-8.000 F120.000
G2 X52.301 Y98.991 Z-8.000 I0.028 J-0.318 K0.000 F120.000
G1 X52.301 Y98.991 Z-9.000 F60.000
G2 X52.300 Y98.954 Z-9.000 I-0.319 J-0.008 K0.000 F120.000
G1 X52.300 Y37.000 Z-9.000 F120.000
G3 X53.909 Y35.306 Z-9.000 I1.703 J0.006 K0.000 F120.000
G1 X63.954 Y35.300 Z-9.000 F120.000
G2 X64.300 Y34.954 Z-9.000 I0.028 J-0.318 K0.000 F120.000
G1 X64.300 Y29.046 Z-9.000 F120.000
G2 X63.954 Y28.700 Z-9.000 I-0.318 J-0.028 K0.000 F120.000
G1 X11.046 Y28.700 Z-9.000 F120.000
G2 X10.700 Y29.046 Z-9.000 I-0.028 J0.318 K0.000 F120.000
G1 X10.700 Y95.876 Z-9.000 F120.000
G2 X11.241 Y96.343 Z-9.000 I0.648 J-0.204 K0.000 F120.000
G3 X13.748 Y98.906 Z-9.000 I-3.670 J6.098 K0.000 F120.000
G2 X14.176 Y99.300 Z-9.000 I1.048 J-0.709 K0.000 F120.000
G1 X51.954 Y99.300 Z-9.000 F120.000
G2 X52.301 Y98.991 Z-9.000 I0.028 J-0.318 K0.000 F120.000
G1 X52.301 Y98.991 Z-10.000 F60.000
G2 X52.300 Y98.954 Z-10.000 I-0.319 J-0.008 K0.000 F120.000
G1 X52.300 Y37.000 Z-10.000 F120.000
G3 X53.909 Y35.306 Z-10.000 I1.703 J0.006 K0.000 F120.000
G1 X63.954 Y35.300 Z-10.000 F120.000
G2 X64.300 Y34.954 Z-10.000 I0.028 J-0.318 K0.000 F120.000
G1 X64.300 Y29.046 Z-10.000 F120.000
G2 X63.954 Y28.700 Z-10.000 I-0.318 J-0.028 K0.000 F120.000
G1 X11.046 Y28.700 Z-10.000 F120.000
G2 X10.700 Y29.046 Z-10.000 I-0.028 J0.318 K0.000 F120.000
G1 X10.700 Y95.876 Z-10.000 F120.000
G2 X11.241 Y96.343 Z-10.000 I0.648 J-0.204 K0.000 F120.000
G3 X13.748 Y98.906 Z-10.000 I-3.670 J6.098 K0.000 F120.000
G2 X14.176 Y99.300 Z-10.000 I1.048 J-0.709 K0.000 F120.000
G1 X51.954 Y99.300 Z-10.000 F120.000
G2 X52.301 Y98.991 Z-10.000 I0.028 J-0.318 K0.000 F120.000
G0 Z2.000
G0 Z2.000
G0 X52.301 Y98.991
G0 X107.699 Y98.982
G0 X107.699 Y98.982 Z3.000
G1 X107.699 Y98.982 Z-1.000 F60.000
G2 X108.046 Y99.300 Z-1.000 I0.319 J-0.000 K0.000 F120.000
G1 X145.815 Y99.300 Z-1.000 F120.000
G2 X146.244 Y98.913 Z-1.000 I-0.486 J-0.971 K0.000 F120.000
G3 X148.759 Y96.343 Z-1.000 I6.349 J3.696 K0.000 F120.000
G2 X149.300 Y95.876 Z-1.000 I-0.121 J-0.686 K0.000 F120.000
G1 X149.300 Y29.046 Z-1.000 F120.000
G2 X148.954 Y28.700 Z-1.000 I-0.318 J-0.028 K0.000 F120.000
G1 X96.046 Y28.700 Z-1.000 F120.000
G2 X95.700 Y29.046 Z-1.000 I-0.028 J0.318 K0.000 F120.000
G1 X95.700 Y34.954 Z-1.000 F120.000
G2 X96.046 Y35.300 Z-1.000 I0.318 J0.028 K0.000 F120.000
G1 X106.000 Y35.300 Z-1.000 F120.000
G3 X107.694 Y36.909 Z-1.000 I-0.006 J1.703 K0.000 F120.000
G1 X107.700 Y98.954 Z-1.000 F120.000
G2 X107.699 Y98.982 Z-1.000 I0.318 J0.028 K0.000 F120.000
G1 X107.699 Y98.982 Z-2.000 F60.000
G2 X108.046 Y99.300 Z-2.000 I0.319 J-0.000 K0.000 F120.000
G1 X145.815 Y99.300 Z-2.000 F120.000
G2 X146.244 Y98.913 Z-2.000 I-0.486 J-0.971 K0.000 F120.000
G3 X148.759 Y96.343 Z-2.000 I6.349 J3.696 K0.000 F120.000
G2 X149.300 Y95.876 Z-2.000 I-0.121 J-0.686 K0.000 F120.000
G1 X149.300 Y29.046 Z-2.000 F120.000
G2 X148.954 Y28.700 Z-2.000 I-0.318 J-0.028 K0.000 F120.000
G1 X96.046 Y28.700 Z-2.000 F120.000
G2 X95.700 Y29.046 Z-2.000 I-0.028 J0.318 K0.000 F120.000
G1 X95.700 Y34.954 Z-2.000 F120.000
G2 X96.046 Y35.300 Z-2.000 I0.318 J0.028 K0.000 F120.000
G1 X106.000 Y35.300 Z-2.000 F120.000
G3 X107.694 Y36.909 Z-2.000 I-0.006 J1.703 K0.000 F120.000
G1 X107.700 Y98.954 Z-2.000 F120.000
G2 X107.699 Y98.982 Z-2.000 I0.318 J0.028 K0.000 F120.000
G1 X107.699 Y98.982 Z-3.000 F60.000
G2 X108.046 Y99.300 Z-3.000 I0.319 J-0.000 K0.000 F120.000
G1 X145.815 Y99.300 Z-3.000 F120.000
G2 X146.244 Y98.913 Z-3.000 I-0.486 J-0.971 K0.000 F120.000
G3 X148.759 Y96.343 Z-3.000 I6.349 J3.696 K0.000 F120.000
G2 X149.300 Y95.876 Z-3.000 I-0.121 J-0.686 K0.000 F120.000
G1 X149.300 Y29.046 Z-3.000 F120.000
G2 X148.954 Y28.700 Z-3.000 I-0.318 J-0.028 K0.000 F120.000
G1 X96.046 Y28.700 Z-3.000 F120.000
G2 X95.700 Y29.046 Z-3.000 I-0.028 J0.318 K0.000 F120.000
G1 X95.700 Y34.954 Z-3.000 F120.000
G2 X96.046 Y35.300 Z-3.000 I0.318 J0.028 K0.000 F120.000
G1 X106.000 Y35.300 Z-3.000 F120.000
G3 X107.694 Y36.909 Z-3.000 I-0.006 J1.703 K0.000 F120.000
G1 X107.700 Y98.954 Z-3.000 F120.000
G2 X107.699 Y98.982 Z-3.000 I0.318 J0.028 K0.000 F120.000
G1 X107.699 Y98.982 Z-4.000 F60.000
G2 X108.046 Y99.300 Z-4.000 I0.319 J-0.000 K0.000 F120.000
G1 X145.815 Y99.300 Z-4.000 F120.000
G2 X146.244 Y98.913 Z-4.000 I-0.486 J-0.971 K0.000 F120.000
G3 X148.759 Y96.343 Z-4.000 I6.349 J3.696 K0.000 F120.000
G2 X149.300 Y95.876 Z-4.000 I-0.121 J-0.686 K0.000 F120.000
G1 X149.300 Y29.046 Z-4.000 F120.000
G2 X148.954 Y28.700 Z-4.000 I-0.318 J-0.028 K0.000 F120.000
G1 X96.046 Y28.700 Z-4.000 F120.000
G2 X95.700 Y29.046 Z-4.000 I-0.028 J0.318 K0.000 F120.000
G1 X95.700 Y34.954 Z-4.000 F120.000
G2 X96.046 Y35.300 Z-4.000 I0.318 J0.028 K0.000 F120.000
G1 X106.000 Y35.300 Z-4.000 F120.000
G3 X107.694 Y36.909 Z-4.000 I-0.006 J1.703 K0.000 F120.000
G1 X107.700 Y98.954 Z-4.000 F120.000
G2 X107.699 Y98.982 Z-4.000 I0.318 J0.028 K0.000 F120.000
G1 X107.699 Y98.982 Z-5.000 F60.000
G2 X108.046 Y99.300 Z-5.000 I0.319 J-0.000 K0.000 F120.000
G1 X145.815 Y99.300 Z-5.000 F120.000
G2 X146.244 Y98.913 Z-5.000 I-0.486 J-0.971 K0.000 F120.000
G3 X148.759 Y96.343 Z-5.000 I6.349 J3.696 K0.000 F120.000
G2 X149.300 Y95.876 Z-5.000 I-0.121 J-0.686 K0.000 F120.000
G1 X149.300 Y29.046 Z-5.000 F120.000
G2 X148.954 Y28.700 Z-5.000 I-0.318 J-0.028 K0.000 F120.000
G1 X96.046 Y28.700 Z-5.000 F120.000
G2 X95.700 Y29.046 Z-5.000 I-0.028 J0.318 K0.000 F120.000
G1 X95.700 Y34.954 Z-5.000 F120.000
G2 X96.046 Y35.300 Z-5.000 I0.318 J0.028 K0.000 F120.000
G1 X106.000 Y35.300 Z-5.000 F120.000
G3 X107.694 Y36.909 Z-5.000 I-0.006 J1.703 K0.000 F120.000
G1 X107.700 Y98.954 Z-5.000 F120.000
G2 X107.699 Y98.982 Z-5.000 I0.318 J0.028 K0.000 F120.000
G1 X107.699 Y98.982 Z-6.000 F60.000
G2 X108.046 Y99.300 Z-6.000 I0.319 J-0.000 K0.000 F120.000
G1 X145.815 Y99.300 Z-6.000 F120.000
G2 X146.244 Y98.913 Z-6.000 I-0.486 J-0.971 K0.000 F120.000
G3 X148.759 Y96.343 Z-6.000 I6.349 J3.696 K0.000 F120.000
G2 X149.300 Y95.876 Z-6.000 I-0.121 J-0.686 K0.000 F120.000
G1 X149.300 Y29.046 Z-6.000 F120.000
G2 X148.954 Y28.700 Z-6.000 I-0.318 J-0.028 K0.000 F120.000
G1 X96.046 Y28.700 Z-6.000 F120.000
G2 X95.700 Y29.046 Z-6.000 I-0.028 J0.318 K0.000 F120.000
G1 X95.700 Y34.954 Z-6.000 F120.000
G2 X96.046 Y35.300 Z-6.000 I0.318 J0.028 K0.000 F120.000
G1 X106.000 Y35.300 Z-6.000 F120.000
G3 X107.694 Y36.909 Z-6.000 I-0.006 J1.703 K0.000 F120.000
G1 X107.700 Y98.954 Z-6.000 F120.000
G2 X107.699 Y98.982 Z-6.000 I0.318 J0.028 K0.000 F120.000
G1 X107.699 Y98.982 Z-7.000 F60.000
G2 X108.046 Y99.300 Z-7.000 I0.319 J-0.000 K0.000 F120.000
G1 X145.815 Y99.300 Z-7.000 F120.000
G2 X146.244 Y98.913 Z-7.000 I-0.486 J-0.971 K0.000 F120.000
G3 X148.759 Y96.343 Z-7.000 I6.349 J3.696 K0.000 F120.000
G2 X149.300 Y95.876 Z-7.000 I-0.121 J-0.686 K0.000 F120.000
G1 X149.300 Y29.046 Z-7.000 F120.000
G2 X148.954 Y28.700 Z-7.000 I-0.318 J-0.028 K0.000 F120.000
G1 X96.046 Y28.700 Z-7.000 F120.000
G2 X95.700 Y29.046 Z-7.000 I-0.028 J0.318 K0.000 F120.000
G1 X95.700 Y34.954 Z-7.000 F120.000
G2 X96.046 Y35.300 Z-7.000 I0.318 J0.028 K0.000 F120.000
G1 X106.000 Y35.300 Z-7.000 F120.000
G3 X107.694 Y36.909 Z-7.000 I-0.006 J1.703 K0.000 F120.000
G1 X107.700 Y98.954 Z-7.000 F120.000
G2 X107.699 Y98.982 Z-7.000 I0.318 J0.028 K0.000 F120.000
G1 X107.699 Y98.982 Z-8.000 F60.000
G2 X108.046 Y99.300 Z-8.000 I0.319 J-0.000 K0.000 F120.000
G1 X145.815 Y99.300 Z-8.000 F120.000
G2 X146.244 Y98.913 Z-8.000 I-0.486 J-0.971 K0.000 F120.000
G3 X148.759 Y96.343 Z-8.000 I6.349 J3.696 K0.000 F120.000
G2 X149.300 Y95.876 Z-8.000 I-0.121 J-0.686 K0.000 F120.000
G1 X149.300 Y29.046 Z-8.000 F120.000
G2 X148.954 Y28.700 Z-8.000 I-0.318 J-0.028 K0.000 F120.000
G1 X96.046 Y28.700 Z-8.000 F120.000
G2 X95.700 Y29.046 Z-8.000 I-0.028 J0.318 K0.000 F120.000
G1 X95.700 Y34.954 Z-8.000 F120.000
G2 X96.046 Y35.300 Z-8.000 I0.318 J0.028 K0.000 F120.000
G1 X106.000 Y35.300 Z-8.000 F120.000
G3 X107.694 Y36.909 Z-8.000 I-0.006 J1.703 K0.000 F120.000
G1 X107.700 Y98.954 Z-8.000 F120.000
G2 X107.699 Y98.982 Z-8.000 I0.318 J0.028 K0.000 F120.000
G1 X107.699 Y98.982 Z-9.000 F60.000
G2 X108.046 Y99.300 Z-9.000 I0.319 J-0.000 K0.000 F120.000
G1 X145.815 Y99.300 Z-9.000 F120.000
G2 X146.244 Y98.913 Z-9.000 I-0.486 J-0.971 K0.000 F120.000
G3 X148.759 Y96.343 Z-9.000 I6.349 J3.696 K0.000 F120.000
G2 X149.300 Y95.876 Z-9.000 I-0.121 J-0.686 K0.000 F120.000
G1 X149.300 Y29.046 Z-9.000 F120.000
G2 X148.954 Y28.700 Z-9.000 I-0.318 J-0.028 K0.000 F120.000
G1 X96.046 Y28.700 Z-9.000 F120.000
G2 X95.700 Y29.046 Z-9.000 I-0.028 J0.318 K0.000 F120.000
G1 X95.700 Y34.954 Z-9.000 F120.000
G2 X96.046 Y35.300 Z-9.000 I0.318 J0.028 K0.000 F120.000
G1 X106.000 Y35.300 Z-9.000 F120.000
G3 X107.694 Y36.909 Z-9.000 I-0.006 J1.703 K0.000 F120.000
G1 X107.700 Y98.954 Z-9.000 F120.000
G2 X107.699 Y98.982 Z-9.000 I0.318 J0.028 K0.000 F120.000
G1 X107.699 Y98.982 Z-10.000 F60.000
G2 X108.046 Y99.300 Z-10.000 I0.319 J-0.000 K0.000 F120.000
G1 X145.815 Y99.300 Z-10.000 F120.000
G2 X146.244 Y98.913 Z-10.000 I-0.486 J-0.971 K0.000 F120.000
G3 X148.759 Y96.343 Z-10.000 I6.349 J3.696 K0.000 F120.000
G2 X149.300 Y95.876 Z-10.000 I-0.121 J-0.686 K0.000 F120.000
G1 X149.300 Y29.046 Z-10.000 F120.000
G2 X148.954 Y28.700 Z-10.000 I-0.318 J-0.028 K0.000 F120.000
G1 X96.046 Y28.700 Z-10.000 F120.000
G2 X95.700 Y29.046 Z-10.000 I-0.028 J0.318 K0.000 F120.000
G1 X95.700 Y34.954 Z-10.000 F120.000
G2 X96.046 Y35.300 Z-10.000 I0.318 J0.028 K0.000 F120.000
G1 X106.000 Y35.300 Z-10.000 F120.000
G3 X107.694 Y36.909 Z-10.000 I-0.006 J1.703 K0.000 F120.000
G1 X107.700 Y98.954 Z-10.000 F120.000
G2 X107.699 Y98.982 Z-10.000 I0.318 J0.028 K0.000 F120.000
G0 Z2.000
G0 Z2.000
G0 X107.699 Y98.982
G0 Y23.300
G0 Y23.300 Z3.000
G1 X107.699 Y23.300 Z-1.000 F60.000
G1 X138.972 Y23.300 Z-1.000 F120.000
G2 X141.300 Y20.972 Z-1.000 I0.022 J-2.305 K0.000 F120.000
G1 X141.300 Y16.500 Z-1.000 F120.000
G2 X139.970 Y14.735 Z-1.000 I-1.313 J-0.394 K0.000 F120.000
G1 X20.055 Y14.766 Z-1.000 F120.000
G2 X18.700 Y15.966 Z-1.000 I-0.005 J1.359 K0.000 F120.000
G1 X18.700 Y21.469 Z-1.000 F120.000
G2 X20.531 Y23.300 Z-1.000 I1.807 J0.024 K0.000 F120.000
G1 X107.699 Y23.300 Z-1.000 F120.000
G1 X107.699 Y23.300 Z-2.000 F60.000
G1 X138.972 Y23.300 Z-2.000 F120.000
G2 X141.300 Y20.972 Z-2.000 I0.022 J-2.305 K0.000 F120.000
G1 X141.300 Y16.500 Z-2.000 F120.000
G2 X139.970 Y14.735 Z-2.000 I-1.313 J-0.394 K0.000 F120.000
G1 X20.055 Y14.766 Z-2.000 F120.000
G2 X18.700 Y15.966 Z-2.000 I-0.005 J1.359 K0.000 F120.000
G1 X18.700 Y21.469 Z-2.000 F120.000
G2 X20.531 Y23.300 Z-2.000 I1.807 J0.024 K0.000 F120.000
G1 X107.699 Y23.300 Z-2.000 F120.000
G1 X107.699 Y23.300 Z-3.000 F60.000
G1 X138.972 Y23.300 Z-3.000 F120.000
G2 X141.300 Y20.972 Z-3.000 I0.022 J-2.305 K0.000 F120.000
G1 X141.300 Y16.500 Z-3.000 F120.000
G2 X139.970 Y14.735 Z-3.000 I-1.313 J-0.394 K0.000 F120.000
G1 X20.055 Y14.766 Z-3.000 F120.000
G2 X18.700 Y15.966 Z-3.000 I-0.005 J1.359 K0.000 F120.000
G1 X18.700 Y21.469 Z-3.000 F120.000
G2 X20.531 Y23.300 Z-3.000 I1.807 J0.024 K0.000 F120.000
G1 X107.699 Y23.300 Z-3.000 F120.000
G1 X107.699 Y23.300 Z-4.000 F60.000
G1 X138.972 Y23.300 Z-4.000 F120.000
G2 X141.300 Y20.972 Z-4.000 I0.022 J-2.305 K0.000 F120.000
G1 X141.300 Y16.500 Z-4.000 F120.000
G2 X139.970 Y14.735 Z-4.000 I-1.313 J-0.394 K0.000 F120.000
G1 X20.055 Y14.766 Z-4.000 F120.000
G2 X18.700 Y15.966 Z-4.000 I-0.005 J1.359 K0.000 F120.000
G1 X18.700 Y21.469 Z-4.000 F120.000
G2 X20.531 Y23.300 Z-4.000 I1.807 J0.024 K0.000 F120.000
G1 X107.699 Y23.300 Z-4.000 F120.000
G1 X107.699 Y23.300 Z-5.000 F60.000
G1 X138.972 Y23.300 Z-5.000 F120.000
G2 X141.300 Y20.972 Z-5.000 I0.022 J-2.305 K0.000 F120.000
G1 X141.300 Y16.500 Z-5.000 F120.000
G2 X139.970 Y14.735 Z-5.000 I-1.313 J-0.394 K0.000 F120.000
G1 X20.055 Y14.766 Z-5.000 F120.000
G2 X18.700 Y15.966 Z-5.000 I-0.005 J1.359 K0.000 F120.000
G1 X18.700 Y21.469 Z-5.000 F120.000
G2 X20.531 Y23.300 Z-5.000 I1.807 J0.024 K0.000 F120.000
G1 X107.699 Y23.300 Z-5.000 F120.000
G1 X107.699 Y23.300 Z-6.000 F60.000
G1 X138.972 Y23.300 Z-6.000 F120.000
G2 X141.300 Y20.972 Z-6.000 I0.022 J-2.305 K0.000 F120.000
G1 X141.300 Y16.500 Z-6.000 F120.000
G2 X139.970 Y14.735 Z-6.000 I-1.313 J-0.394 K0.000 F120.000
G1 X20.055 Y14.766 Z-6.000 F120.000
G2 X18.700 Y15.966 Z-6.000 I-0.005 J1.359 K0.000 F120.000
G1 X18.700 Y21.469 Z-6.000 F120.000
G2 X20.531 Y23.300 Z-6.000 I1.807 J0.024 K0.000 F120.000
G1 X107.699 Y23.300 Z-6.000 F120.000
G1 X107.699 Y23.300 Z-7.000 F60.000
G1 X138.972 Y23.300 Z-7.000 F120.000
G2 X141.300 Y20.972 Z-7.000 I0.022 J-2.305 K0.000 F120.000
G1 X141.300 Y16.500 Z-7.000 F120.000
G2 X139.970 Y14.735 Z-7.000 I-1.313 J-0.394 K0.000 F120.000
G1 X20.055 Y14.766 Z-7.000 F120.000
G2 X18.700 Y15.966 Z-7.000 I-0.005 J1.359 K0.000 F120.000
G1 X18.700 Y21.469 Z-7.000 F120.000
G2 X20.531 Y23.300 Z-7.000 I1.807 J0.024 K0.000 F120.000
G1 X107.699 Y23.300 Z-7.000 F120.000
G1 X107.699 Y23.300 Z-8.000 F60.000
G1 X138.972 Y23.300 Z-8.000 F120.000
G2 X141.300 Y20.972 Z-8.000 I0.022 J-2.305 K0.000 F120.000
G1 X141.300 Y16.500 Z-8.000 F120.000
G2 X139.970 Y14.735 Z-8.000 I-1.313 J-0.394 K0.000 F120.000
G1 X20.055 Y14.766 Z-8.000 F120.000
G2 X18.700 Y15.966 Z-8.000 I-0.005 J1.359 K0.000 F120.000
G1 X18.700 Y21.469 Z-8.000 F120.000
G2 X20.531 Y23.300 Z-8.000 I1.807 J0.024 K0.000 F120.000
G1 X107.699 Y23.300 Z-8.000 F120.000
G1 X107.699 Y23.300 Z-9.000 F60.000
G1 X138.972 Y23.300 Z-9.000 F120.000
G2 X141.300 Y20.972 Z-9.000 I0.022 J-2.305 K0.000 F120.000
G1 X141.300 Y16.500 Z-9.000 F120.000
G2 X139.970 Y14.735 Z-9.000 I-1.313 J-0.394 K0.000 F120.000
G1 X20.055 Y14.766 Z-9.000 F120.000
G2 X18.700 Y15.966 Z-9.000 I-0.005 J1.359 K0.000 F120.000
G1 X18.700 Y21.469 Z-9.000 F120.000
G2 X20.531 Y23.300 Z-9.000 I1.807 J0.024 K0.000 F120.000
G1 X107.699 Y23.300 Z-9.000 F120.000
G1 X107.699 Y23.300 Z-10.000 F60.000
G1 X138.972 Y23.300 Z-10.000 F120.000
G2 X141.300 Y20.972 Z-10.000 I0.022 J-2.305 K0.000 F120.000
G1 X141.300 Y16.500 Z-10.000 F120.000
G2 X139.970 Y14.735 Z-10.000 I-1.313 J-0.394 K0.000 F120.000
G1 X20.055 Y14.766 Z-10.000 F120.000
G2 X18.700 Y15.966 Z-10.000 I-0.005 J1.359 K0.000 F120.000
G1 X18.700 Y21.469 Z-10.000 F120.000
G2 X20.531 Y23.300 Z-10.000 I1.807 J0.024 K0.000 F120.000
G1 X107.699 Y23.300 Z-10.000 F120.000
G0 Z2.000
G0 Z2.000
(Finish operation: Profile056)
(Begin operation: Pocket3D)
(Path: Pocket3D)
(Pocket3D)
G0 Z3.000
G0 X88.863 Y98.919 Z2.000
G0 Z3.000
G1 X88.863 Y98.919 Z-1.000 F60.000
G3 X87.919 Y99.300 Z-1.000 I-0.924 J-0.930 K0.000 F120.000
G1 X72.081 Y99.300 Z-1.000 F120.000
G3 X70.750 Y97.967 Z-1.000 I-0.020 J-1.311 K0.000 F120.000
G1 X70.750 Y32.033 Z-1.000 F120.000
G3 X72.081 Y30.700 Z-1.000 I1.311 J-0.022 K0.000 F120.000
G1 X87.919 Y30.700 Z-1.000 F120.000
G3 X89.250 Y32.033 Z-1.000 I0.020 J1.311 K0.000 F120.000
G1 X89.250 Y97.967 Z-1.000 F120.000
G3 X88.863 Y98.919 Z-1.000 I-1.311 J0.022 K0.000 F120.000
G0 Z2.000
G0 X87.850 Y97.900 Z2.000
G0 X87.850 Y97.900 Z3.000
G1 X87.850 Y97.900 Z-1.000 F60.000
G1 X72.150 Y97.900 Z-1.000 F120.000
G1 X72.150 Y97.900 Z-1.000 F120.000
G1 X72.150 Y32.100 Z-1.000 F120.000
G1 X72.150 Y32.100 Z-1.000 F120.000
G1 X87.850 Y32.100 Z-1.000 F120.000
G1 X87.850 Y32.100 Z-1.000 F120.000
G1 X87.850 Y97.900 Z-1.000 F120.000
G1 X87.850 Y97.900 Z-1.000 F120.000
G0 Z2.000
G0 X86.450 Y96.500 Z2.000
G0 X86.450 Y96.500 Z3.000
G1 X86.450 Y96.500 Z-1.000 F60.000
G1 X73.550 Y96.500 Z-1.000 F120.000
G1 X73.550 Y33.500 Z-1.000 F120.000
G1 X86.450 Y33.500 Z-1.000 F120.000
G1 X86.450 Y96.500 Z-1.000 F120.000
G0 Z2.000
G0 X85.050 Y95.100 Z2.000
G0 X85.050 Y95.100 Z3.000
G1 X85.050 Y95.100 Z-1.000 F60.000
G1 X74.950 Y95.100 Z-1.000 F120.000
G1 X74.950 Y34.900 Z-1.000 F120.000
G1 X85.050 Y34.900 Z-1.000 F120.000
G1 X85.050 Y95.100 Z-1.000 F120.000
G0 Z2.000
G0 X83.650 Y93.700 Z2.000
G0 X83.650 Y93.700 Z3.000
G1 X83.650 Y93.700 Z-1.000 F60.000
G1 X76.350 Y93.700 Z-1.000 F120.000
G1 X76.350 Y36.300 Z-1.000 F120.000
G1 X83.650 Y36.300 Z-1.000 F120.000
G1 X83.650 Y93.700 Z-1.000 F120.000
G0 Z2.000
G0 X82.250 Y92.300 Z2.000
G0 X82.250 Y92.300 Z3.000
G1 X82.250 Y92.300 Z-1.000 F60.000
G1 X77.750 Y92.300 Z-1.000 F120.000
G1 X77.750 Y37.700 Z-1.000 F120.000
G1 X82.250 Y37.700 Z-1.000 F120.000
G1 X82.250 Y92.300 Z-1.000 F120.000
G0 Z2.000
G0 X80.850 Y90.900 Z2.000
G0 X80.850 Y90.900 Z3.000
G1 X80.850 Y90.900 Z-1.000 F60.000
G1 X79.150 Y90.900 Z-1.000 F120.000
G1 X79.150 Y39.100 Z-1.000 F120.000
G1 X80.850 Y39.100 Z-1.000 F120.000
G1 X80.850 Y90.900 Z-1.000 F120.000
G0 Z2.000
G0 X80.500 Y90.550 Z2.000
G0 X80.500 Y90.550 Z3.000
G1 X80.500 Y90.550 Z-1.000 F60.000
G1 X79.500 Y90.550 Z-1.000 F120.000
G1 X79.500 Y39.450 Z-1.000 F120.000
G1 X80.500 Y39.450 Z-1.000 F120.000
G1 X80.500 Y90.550 Z-1.000 F120.000
G0 Z2.000
G0 X80.150 Y90.200 Z2.000
G0 X80.150 Y90.200 Z3.000
G1 X80.150 Y90.200 Z-1.000 F60.000
G1 X79.850 Y90.200 Z-1.000 F120.000
G1 X79.850 Y39.800 Z-1.000 F120.000
G1 X80.150 Y39.800 Z-1.000 F120.000
G1 X80.150 Y90.200 Z-1.000 F120.000
G0 Z2.000
G0 X80.348 Z2.000
G0 X80.348 Z3.000
G1 X80.348 Y90.200 Z-2.000 F60.000
G1 X80.348 Y90.550 Z-2.000 F120.000
G1 X79.652 Y90.550 Z-2.000 F120.000
G1 X79.652 Y39.450 Z-2.000 F120.000
G1 X80.348 Y39.450 Z-2.000 F120.000
G1 X80.348 Y90.200 Z-2.000 F120.000
G0 Z2.000
G0 X80.698 Z2.000
G0 X80.698 Z3.000
G1 X80.698 Y90.200 Z-2.000 F60.000
G1 X80.698 Y90.900 Z-2.000 F120.000
G1 X79.302 Y90.900 Z-2.000 F120.000
G1 X79.302 Y39.100 Z-2.000 F120.000
G1 X80.698 Y39.100 Z-2.000 F120.000
G1 X80.698 Y90.200 Z-2.000 F120.000
G0 Z2.000
G0 X82.098 Z2.000
G0 X82.098 Z3.000
G1 X82.098 Y90.200 Z-2.000 F60.000
G1 X82.098 Y92.300 Z-2.000 F120.000
G1 X77.902 Y92.300 Z-2.000 F120.000
G1 X77.902 Y37.700 Z-2.000 F120.000
G1 X82.098 Y37.700 Z-2.000 F120.000
G1 X82.098 Y90.200 Z-2.000 F120.000
G0 Z2.000
G0 X83.498 Z2.000
G0 X83.498 Z3.000
G1 X83.498 Y90.200 Z-2.000 F60.000
G1 X83.498 Y93.700 Z-2.000 F120.000
G1 X76.502 Y93.700 Z-2.000 F120.000
G1 X76.502 Y36.300 Z-2.000 F120.000
G1 X83.498 Y36.300 Z-2.000 F120.000
G1 X83.498 Y90.200 Z-2.000 F120.000
G0 Z2.000
G0 X84.898 Z2.000
G0 X84.898 Z3.000
G1 X84.898 Y90.200 Z-2.000 F60.000
G1 X84.898 Y95.100 Z-2.000 F120.000
G1 X75.102 Y95.100 Z-2.000 F120.000
G1 X75.102 Y34.900 Z-2.000 F120.000
G1 X84.898 Y34.900 Z-2.000 F120.000
G1 X84.898 Y90.200 Z-2.000 F120.000
G0 Z2.000
G0 X86.298 Z2.000
G0 X86.298 Z3.000
G1 X86.298 Y90.200 Z-2.000 F60.000
G1 X86.298 Y96.500 Z-2.000 F120.000
G1 X73.702 Y96.500 Z-2.000 F120.000
G1 X73.702 Y33.500 Z-2.000 F120.000
G1 X86.298 Y33.500 Z-2.000 F120.000
G1 X86.298 Y90.200 Z-2.000 F120.000
G0 Z2.000
G0 X87.698 Z2.000
G0 X87.698 Z3.000
G1 X87.698 Y90.200 Z-2.000 F60.000
G1 X87.698 Y97.899 Z-2.000 F120.000
G3 X87.690 Y97.900 Z-2.000 I-0.004 J0.000 K0.000 F120.000
G1 X72.310 Y97.900 Z-2.000 F120.000
G3 X72.302 Y97.899 Z-2.000 I-0.004 J-0.001 K0.000 F120.000
G1 X72.302 Y32.101 Z-2.000 F120.000
G3 X72.310 Y32.100 Z-2.000 I0.004 J-0.000 K0.000 F120.000
G1 X87.690 Y32.100 Z-2.000 F120.000
G3 X87.698 Y32.101 Z-2.000 I0.004 J0.001 K0.000 F120.000
G1 X87.698 Y90.200 Z-2.000 F120.000
G0 Z2.000
G0 X89.098 Z2.000
G0 X89.098 Z3.000
G1 X89.098 Y90.200 Z-2.000 F60.000
G1 X89.098 Y97.966 Z-2.000 F120.000
G3 X87.727 Y99.300 Z-2.000 I-1.330 J0.004 K0.000 F120.000
G1 X72.273 Y99.300 Z-2.000 F120.000
G3 X70.902 Y97.966 Z-2.000 I-0.040 J-1.330 K0.000 F120.000
G1 X70.902 Y32.034 Z-2.000 F120.000
G3 X72.273 Y30.700 Z-2.000 I1.330 J-0.004 K0.000 F120.000
G1 X87.727 Y30.700 Z-2.000 F120.000
G3 X89.098 Y32.034 Z-2.000 I0.040 J1.330 K0.000 F120.000
G1 X89.098 Y90.200 Z-2.000 F120.000
G0 Z2.000
G0 X88.839 Z2.000
G0 X88.839 Z3.000
G1 X88.839 Y90.200 Z-3.000 F60.000
G1 X88.839 Y97.966 Z-3.000 F120.000
G3 X87.397 Y99.300 Z-3.000 I-1.365 J-0.029 K0.000 F120.000
G1 X72.603 Y99.300 Z-3.000 F120.000
G3 X71.161 Y97.966 Z-3.000 I-0.077 J-1.363 K0.000 F120.000
G1 X71.161 Y32.034 Z-3.000 F120.000
G3 X72.603 Y30.700 Z-3.000 I1.365 J0.029 K0.000 F120.000
G1 X87.397 Y30.700 Z-3.000 F120.000
G3 X88.839 Y32.034 Z-3.000 I0.077 J1.363 K0.000 F120.000
G1 X88.839 Y90.200 Z-3.000 F120.000
G0 Z2.000
G0 X87.439 Z2.000
G0 X87.439 Z3.000
G1 X87.439 Y90.200 Z-3.000 F60.000
G1 X87.439 Y97.893 Z-3.000 F120.000
G3 X87.359 Y97.900 Z-3.000 I-0.054 J-0.150 K0.000 F120.000
G1 X72.641 Y97.900 Z-3.000 F120.000
G3 X72.561 Y97.893 Z-3.000 I-0.026 J-0.158 K0.000 F120.000
G1 X72.561 Y32.107 Z-3.000 F120.000
G3 X72.641 Y32.100 Z-3.000 I0.054 J0.150 K0.000 F120.000
G1 X87.359 Y32.100 Z-3.000 F120.000
G3 X87.439 Y32.107 Z-3.000 I0.026 J0.158 K0.000 F120.000
G1 X87.439 Y90.200 Z-3.000 F120.000
G0 Z2.000
G0 X86.039 Z2.000
G0 X86.039 Z3.000
G1 X86.039 Y90.200 Z-3.000 F60.000
G1 X86.039 Y96.500 Z-3.000 F120.000
G1 X73.961 Y96.500 Z-3.000 F120.000
G1 X73.961 Y33.500 Z-3.000 F120.000
G1 X86.039 Y33.500 Z-3.000 F120.000
G1 X86.039 Y90.200 Z-3.000 F120.000
G0 Z2.000
G0 X84.639 Z2.000
G0 X84.639 Z3.000
G1 X84.639 Y90.200 Z-3.000 F60.000
G1 X84.639 Y95.100 Z-3.000 F120.000
G1 X75.361 Y95.100 Z-3.000 F120.000
G1 X75.361 Y34.900 Z-3.000 F120.000
G1 X84.639 Y34.900 Z-3.000 F120.000
G1 X84.639 Y90.200 Z-3.000 F120.000
G0 Z2.000
G0 X83.239 Z2.000
G0 X83.239 Z3.000
G1 X83.239 Y90.200 Z-3.000 F60.000
G1 X83.239 Y93.700 Z-3.000 F120.000
G1 X76.761 Y93.700 Z-3.000 F120.000
G1 X76.761 Y36.300 Z-3.000 F120.000
G1 X83.239 Y36.300 Z-3.000 F120.000
G1 X83.239 Y90.200 Z-3.000 F120.000
G0 Z2.000
G0 X81.839 Z2.000
G0 X81.839 Z3.000
G1 X81.839 Y90.200 Z-3.000 F60.000
G1 X81.839 Y92.300 Z-3.000 F120.000
G1 X78.161 Y92.300 Z-3.000 F120.000
G1 X78.161 Y37.700 Z-3.000 F120.000
G1 X81.839 Y37.700 Z-3.000 F120.000
G1 X81.839 Y90.200 Z-3.000 F120.000
G0 Z2.000
G0 X80.439 Z2.000
G0 X80.439 Z3.000
G1 X80.439 Y90.200 Z-3.000 F60.000
G1 X80.439 Y90.900 Z-3.000 F120.000
G1 X79.561 Y90.900 Z-3.000 F120.000
G1 X79.561 Y39.100 Z-3.000 F120.000
G1 X80.439 Y39.100 Z-3.000 F120.000
G1 X80.439 Y90.200 Z-3.000 F120.000
G0 Z2.000
G0 X80.089 Z2.000
G0 X80.089 Z3.000
G1 X80.089 Y90.200 Z-3.000 F60.000
G1 X80.089 Y90.550 Z-3.000 F120.000
G1 X79.911 Y90.550 Z-3.000 F120.000
G1 X79.911 Y39.450 Z-3.000 F120.000
G1 X80.089 Y39.450 Z-3.000 F120.000
G1 X80.089 Y90.200 Z-3.000 F120.000
G0 Z2.000
G0 X80.065 Z2.000
G0 X80.065 Z3.000
G1 X80.065 Y90.200 Z-4.000 F60.000
G1 X80.065 Y90.900 Z-4.000 F120.000
G1 X79.935 Y90.900 Z-4.000 F120.000
G1 X79.935 Y39.100 Z-4.000 F120.000
G1 X80.065 Y39.100 Z-4.000 F120.000
G1 X80.065 Y90.200 Z-4.000 F120.000
G0 Z2.000
G0 X81.465 Z2.000
G0 X81.465 Z3.000
G1 X81.465 Y90.200 Z-4.000 F60.000
G1 X81.465 Y92.300 Z-4.000 F120.000
G1 X78.535 Y92.300 Z-4.000 F120.000
G1 X78.535 Y37.700 Z-4.000 F120.000
G1 X81.465 Y37.700 Z-4.000 F120.000
G1 X81.465 Y90.200 Z-4.000 F120.000
G0 Z2.000
G0 X82.865 Z2.000
G0 X82.865 Z3.000
G1 X82.865 Y90.200 Z-4.000 F60.000
G1 X82.865 Y93.700 Z-4.000 F120.000
G1 X77.135 Y93.700 Z-4.000 F120.000
G1 X77.135 Y36.300 Z-4.000 F120.000
G1 X82.865 Y36.300 Z-4.000 F120.000
G1 X82.865 Y90.200 Z-4.000 F120.000
G0 Z2.000
G0 X84.265 Z2.000
G0 X84.265 Z3.000
G1 X84.265 Y90.200 Z-4.000 F60.000
G1 X84.265 Y95.100 Z-4.000 F120.000
G1 X75.735 Y95.100 Z-4.000 F120.000
G1 X75.735 Y34.900 Z-4.000 F120.000
G1 X84.265 Y34.900 Z-4.000 F120.000
G1 X84.265 Y90.200 Z-4.000 F120.000
G0 Z2.000
G0 X85.665 Z2.000
G0 X85.665 Z3.000
G1 X85.665 Y90.200 Z-4.000 F60.000
G1 X85.665 Y96.500 Z-4.000 F120.000
G1 X74.335 Y96.500 Z-4.000 F120.000
G1 X74.335 Y33.500 Z-4.000 F120.000
G1 X85.665 Y33.500 Z-4.000 F120.000
G1 X85.665 Y90.200 Z-4.000 F120.000
G0 Z2.000
G0 X87.065 Z2.000
G0 X87.065 Z3.000
G1 X87.065 Y90.200 Z-4.000 F60.000
G1 X87.065 Y97.871 Z-4.000 F120.000
G3 X86.869 Y97.900 Z-4.000 I-0.163 J-0.424 K0.000 F120.000
G1 X73.131 Y97.900 Z-4.000 F120.000
G3 X72.935 Y97.871 Z-4.000 I-0.038 J-0.415 K0.000 F120.000
G1 X72.935 Y32.129 Z-4.000 F120.000
G3 X73.130 Y32.100 Z-4.000 I0.163 J0.424 K0.000 F120.000
G1 X86.870 Y32.100 Z-4.000 F120.000
G3 X87.065 Y32.129 Z-4.000 I0.038 J0.415 K0.000 F120.000
G1 X87.065 Y90.200 Z-4.000 F120.000
G0 Z2.000
G0 X88.465 Z2.000
G0 X88.465 Z3.000
G1 X88.465 Y90.200 Z-4.000 F60.000
G1 X88.465 Y97.965 Z-4.000 F120.000
G3 X87.143 Y99.287 Z-4.000 I-1.387 J-0.065 K0.000 F120.000
G1 X86.909 Y99.300 Z-4.000 F120.000
G1 X73.091 Y99.300 Z-4.000 F120.000
G3 X71.628 Y98.442 Z-4.000 I-0.099 J-1.508 K0.000 F120.000
G3 X71.535 Y97.965 Z-4.000 I1.143 J-0.470 K0.000 F120.000
G1 X71.535 Y32.035 Z-4.000 F120.000
G3 X72.857 Y30.713 Z-4.000 I1.387 J0.065 K0.000 F120.000
G1 X73.091 Y30.700 Z-4.000 F120.000
G1 X86.909 Y30.700 Z-4.000 F120.000
G3 X88.372 Y31.558 Z-4.000 I0.099 J1.509 K0.000 F120.000
G3 X88.465 Y32.035 Z-4.000 I-1.143 J0.470 K0.000 F120.000
G1 X88.465 Y90.200 Z-4.000 F120.000
G0 Z2.000
G0 X87.960 Z2.000
G0 X87.960 Z3.000
G1 X87.960 Y90.200 Z-5.000 F60.000
G1 X87.960 Y97.964 Z-5.000 F120.000
G3 X87.105 Y99.133 Z-5.000 I-1.275 J-0.036 K0.000 F120.000
G3 X86.230 Y99.300 Z-5.000 I-0.864 J-2.145 K0.000 F120.000
G1 X73.770 Y99.300 Z-5.000 F120.000
G3 X72.286 Y98.683 Z-5.000 I-0.098 J-1.856 K0.000 F120.000
G3 X72.040 Y97.964 Z-5.000 I0.911 J-0.714 K0.000 F120.000
G1 X72.040 Y32.036 Z-5.000 F120.000
G3 X72.897 Y30.867 Z-5.000 I1.275 J0.036 K0.000 F120.000
G3 X73.770 Y30.700 Z-5.000 I0.863 J2.146 K0.000 F120.000
G1 X86.230 Y30.700 Z-5.000 F120.000
G3 X87.713 Y31.317 Z-5.000 I0.098 J1.856 K0.000 F120.000
G3 X87.960 Y32.036 Z-5.000 I-0.910 J0.715 K0.000 F120.000
G1 X87.960 Y90.200 Z-5.000 F120.000
G0 Z2.000
G0 X86.560 Z2.000
G0 X86.560 Z3.000
G1 X86.560 Y90.200 Z-5.000 F60.000
G1 X86.560 Y97.837 Z-5.000 F120.000
G3 X86.199 Y97.900 Z-5.000 I-0.323 J-0.783 K0.000 F120.000
G1 X73.801 Y97.900 Z-5.000 F120.000
G3 X73.440 Y97.837 Z-5.000 I-0.038 J-0.846 K0.000 F120.000
G1 X73.440 Y32.163 Z-5.000 F120.000
G3 X73.800 Y32.100 Z-5.000 I0.323 J0.783 K0.000 F120.000
G1 X86.200 Y32.100 Z-5.000 F120.000
G3 X86.560 Y32.163 Z-5.000 I0.038 J0.846 K0.000 F120.000
G1 X86.560 Y90.200 Z-5.000 F120.000
G0 Z2.000
G0 X85.160 Z2.000
G0 X85.160 Z3.000
G1 X85.160 Y90.200 Z-5.000 F60.000
G1 X85.160 Y96.500 Z-5.000 F120.000
G1 X74.840 Y96.500 Z-5.000 F120.000
G1 X74.840 Y33.500 Z-5.000 F120.000
G1 X85.160 Y33.500 Z-5.000 F120.000
G1 X85.160 Y90.200 Z-5.000 F120.000
G0 Z2.000
G0 X83.760 Z2.000
G0 X83.760 Z3.000
G1 X83.760 Y90.200 Z-5.000 F60.000
G1 X83.760 Y95.100 Z-5.000 F120.000
G1 X76.240 Y95.100 Z-5.000 F120.000
G1 X76.240 Y34.900 Z-5.000 F120.000
G1 X83.760 Y34.900 Z-5.000 F120.000
G1 X83.760 Y90.200 Z-5.000 F120.000
G0 Z2.000
G0 X82.360 Z2.000
G0 X82.360 Z3.000
G1 X82.360 Y90.200 Z-5.000 F60.000
G1 X82.360 Y93.700 Z-5.000 F120.000
G1 X77.640 Y93.700 Z-5.000 F120.000
G1 X77.640 Y36.300 Z-5.000 F120.000
G1 X82.360 Y36.300 Z-5.000 F120.000
G1 X82.360 Y90.200 Z-5.000 F120.000
G0 Z2.000
G0 X80.960 Z2.000
G0 X80.960 Z3.000
G1 X80.960 Y90.200 Z-5.000 F60.000
G1 X80.960 Y92.300 Z-5.000 F120.000
G1 X79.040 Y92.300 Z-5.000 F120.000
G1 X79.040 Y37.700 Z-5.000 F120.000
G1 X80.960 Y37.700 Z-5.000 F120.000
G1 X80.960 Y90.200 Z-5.000 F120.000
G0 Z2.000
G0 X80.610 Z2.000
G0 X80.610 Z3.000
G1 X80.610 Y90.200 Z-5.000 F60.000
G1 X80.610 Y91.950 Z-5.000 F120.000
G1 X79.390 Y91.950 Z-5.000 F120.000
G1 X79.390 Y38.050 Z-5.000 F120.000
G1 X80.610 Y38.050 Z-5.000 F120.000
G1 X80.610 Y90.200 Z-5.000 F120.000
G0 Z2.000
G0 X80.260 Z2.000
G0 X80.260 Z3.000
G1 X80.260 Y90.200 Z-5.000 F60.000
G1 X80.260 Y91.600 Z-5.000 F120.000
G1 X79.740 Y91.600 Z-5.000 F120.000
G1 X79.740 Y38.400 Z-5.000 F120.000
G1 X80.260 Y38.400 Z-5.000 F120.000
G1 X80.260 Y90.200 Z-5.000 F120.000
G0 Z2.000
G0 X80.300 Z2.000
G0 X80.300 Z3.000
G1 X80.300 Y90.200 Z-6.000 F60.000
G1 X80.300 Y92.300 Z-6.000 F120.000
G1 X79.700 Y92.300 Z-6.000 F120.000
G1 X79.700 Y37.700 Z-6.000 F120.000
G1 X80.300 Y37.700 Z-6.000 F120.000
G1 X80.300 Y90.200 Z-6.000 F120.000
G0 Z2.000
G0 X81.700 Z2.000
G0 X81.700 Z3.000
G1 X81.700 Y90.200 Z-6.000 F60.000
G1 X81.700 Y93.700 Z-6.000 F120.000
G1 X78.300 Y93.700 Z-6.000 F120.000
G1 X78.300 Y36.300 Z-6.000 F120.000
G1 X81.700 Y36.300 Z-6.000 F120.000
G1 X81.700 Y90.200 Z-6.000 F120.000
G0 Z2.000
G0 X83.100 Z2.000
G0 X83.100 Z3.000
G1 X83.100 Y90.200 Z-6.000 F60.000
G1 X83.100 Y95.100 Z-6.000 F120.000
G1 X76.900 Y95.100 Z-6.000 F120.000
G1 X76.900 Y34.900 Z-6.000 F120.000
G1 X83.100 Y34.900 Z-6.000 F120.000
G1 X83.100 Y90.200 Z-6.000 F120.000
G0 Z2.000
G0 X84.500 Z2.000
G0 X84.500 Z3.000
G1 X84.500 Y90.200 Z-6.000 F60.000
G1 X84.500 Y96.500 Z-6.000 F120.000
G1 X75.500 Y96.500 Z-6.000 F120.000
G1 X75.500 Y33.500 Z-6.000 F120.000
G1 X84.500 Y33.500 Z-6.000 F120.000
G1 X84.500 Y90.200 Z-6.000 F120.000
G0 Z2.000
G0 X85.900 Z2.000
G0 X85.900 Z3.000
G1 X85.900 Y90.200 Z-6.000 F60.000
G1 X85.900 Y97.784 Z-6.000 F120.000
G3 X85.231 Y97.900 Z-6.000 I-0.564 J-1.270 K0.000 F120.000
G1 X74.769 Y97.900 Z-6.000 F120.000
G3 X74.100 Y97.784 Z-6.000 I-0.104 J-1.386 K0.000 F120.000
G1 X74.100 Y32.216 Z-6.000 F120.000
G3 X74.769 Y32.100 Z-6.000 I0.564 J1.270 K0.000 F120.000
G1 X85.231 Y32.100 Z-6.000 F120.000
G3 X85.900 Y32.216 Z-6.000 I0.105 J1.386 K0.000 F120.000
G1 X85.900 Y90.200 Z-6.000 F120.000
G0 Z2.000
G0 X87.300 Z2.000
G0 X87.300 Z3.000
G1 X87.300 Y90.200 Z-6.000 F60.000
G1 X87.300 Y97.963 Z-6.000 F120.000
G3 X86.425 Y99.089 Z-6.000 I-1.265 J-0.079 K0.000 F120.000
G3 X85.271 Y99.300 Z-6.000 I-1.112 J-2.826 K0.000 F120.000
G1 X74.729 Y99.300 Z-6.000 F120.000
G3 X73.121 Y98.815 Z-6.000 I-0.166 J-2.356 K0.000 F120.000
G3 X72.700 Y97.963 Z-6.000 I0.688 J-0.870 K0.000 F120.000
G1 X72.700 Y32.037 Z-6.000 F120.000
G3 X73.573 Y30.911 Z-6.000 I1.264 J0.079 K0.000 F120.000
G3 X74.729 Y30.700 Z-6.000 I1.113 J2.824 K0.000 F120.000
G1 X85.271 Y30.700 Z-6.000 F120.000
G3 X86.880 Y31.186 Z-6.000 I0.167 J2.355 K0.000 F120.000
G3 X87.300 Y32.037 Z-6.000 I-0.688 J0.868 K0.000 F120.000
G1 X87.300 Y90.200 Z-6.000 F120.000
G0 Z2.000
G0 X86.441 Z2.000
G0 X86.441 Z3.000
G1 X86.441 Y90.200 Z-7.000 F60.000
G1 X86.441 Y97.961 Z-7.000 F120.000
G3 X85.869 Y98.854 Z-7.000 I-1.100 J-0.074 K0.000 F120.000
G3 X84.601 Y99.259 Z-7.000 I-1.596 J-2.816 K0.000 F120.000
G1 X83.854 Y99.300 Z-7.000 F120.000
G1 X76.146 Y99.300 Z-7.000 F120.000
G3 X74.418 Y99.006 Z-7.000 I-0.200 J-4.051 K0.000 F120.000
G3 X73.581 Y98.159 Z-7.000 I0.386 J-1.219 K0.000 F120.000
G1 X73.559 Y97.961 Z-7.000 F120.000
G1 X73.559 Y32.039 Z-7.000 F120.000
G3 X74.132 Y31.145 Z-7.000 I1.100 J0.075 K0.000 F120.000
G3 X75.402 Y30.741 Z-7.000 I1.597 J2.822 K0.000 F120.000
G1 X76.146 Y30.700 Z-7.000 F120.000
G1 X83.854 Y30.700 Z-7.000 F120.000
G3 X85.580 Y30.993 Z-7.000 I0.199 J4.055 K0.000 F120.000
G3 X86.419 Y31.841 Z-7.000 I-0.385 J1.220 K0.000 F120.000
G1 X86.441 Y32.039 Z-7.000 F120.000
G1 X86.441 Y90.200 Z-7.000 F120.000
G0 Z2.000
G0 X85.041 Z2.000
G0 X85.041 Z3.000
G1 X85.041 Y90.200 Z-7.000 F60.000
G1 X85.041 Y97.708 Z-7.000 F120.000
G3 X84.440 Y97.865 Z-7.000 I-0.820 J-1.905 K0.000 F120.000
G1 X83.815 Y97.900 Z-7.000 F120.000
G1 X76.185 Y97.900 Z-7.000 F120.000
G3 X74.969 Y97.713 Z-7.000 I-0.203 J-2.733 K0.000 F120.000
G1 X74.959 Y97.708 Z-7.000 F120.000
G1 X74.959 Y32.292 Z-7.000 F120.000
G3 X75.562 Y32.134 Z-7.000 I0.821 J1.909 K0.000 F120.000
G1 X76.185 Y32.100 Z-7.000 F120.000
G1 X83.815 Y32.100 Z-7.000 F120.000
G3 X85.031 Y32.286 Z-7.000 I0.202 J2.736 K0.000 F120.000
G1 X85.041 Y32.292 Z-7.000 F120.000
G1 X85.041 Y90.200 Z-7.000 F120.000
G0 Z2.000
G0 X83.641 Z2.000
G0 X83.641 Z3.000
G1 X83.641 Y90.200 Z-7.000 F60.000
G1 X83.641 Y96.500 Z-7.000 F120.000
G1 X76.359 Y96.500 Z-7.000 F120.000
G1 X76.359 Y33.500 Z-7.000 F120.000
G1 X83.641 Y33.500 Z-7.000 F120.000
G1 X83.641 Y90.200 Z-7.000 F120.000
G0 Z2.000
G0 X82.241 Z2.000
G0 X82.241 Z3.000
G1 X82.241 Y90.200 Z-7.000 F60.000
G1 X82.241 Y95.100 Z-7.000 F120.000
G1 X77.759 Y95.100 Z-7.000 F120.000
G1 X77.759 Y34.900 Z-7.000 F120.000
G1 X82.241 Y34.900 Z-7.000 F120.000
G1 X82.241 Y90.200 Z-7.000 F120.000
G0 Z2.000
G0 X80.841 Z2.000
G0 X80.841 Z3.000
G1 X80.841 Y90.200 Z-7.000 F60.000
G1 X80.841 Y93.700 Z-7.000 F120.000
G1 X79.159 Y93.700 Z-7.000 F120.000
G1 X79.159 Y36.300 Z-7.000 F120.000
G1 X80.841 Y36.300 Z-7.000 F120.000
G1 X80.841 Y90.200 Z-7.000 F120.000
G0 Z2.000
G0 X80.491 Z2.000
G0 X80.491 Z3.000
G1 X80.491 Y90.200 Z-7.000 F60.000
G1 X80.491 Y93.350 Z-7.000 F120.000
G1 X79.509 Y93.350 Z-7.000 F120.000
G1 X79.509 Y36.650 Z-7.000 F120.000
G1 X80.491 Y36.650 Z-7.000 F120.000
G1 X80.491 Y90.200 Z-7.000 F120.000
G0 Z2.000
G0 X80.141 Z2.000
G0 X80.141 Z3.000
G1 X80.141 Y90.200 Z-7.000 F60.000
G1 X80.141 Y93.000 Z-7.000 F120.000
G1 X79.859 Y93.000 Z-7.000 F120.000
G1 X79.859 Y37.000 Z-7.000 F120.000
G1 X80.141 Y37.000 Z-7.000 F120.000
G1 X80.141 Y90.200 Z-7.000 F120.000
G0 Z2.000
G0 X80.050 Z2.000
G0 X80.050 Z3.000
G1 X80.050 Y90.200 Z-8.000 F60.000
G1 X80.050 Y94.050 Z-8.000 F120.000
G3 X79.950 Y94.050 Z-8.000 I-0.050 J-46.642 K0.000 F120.000
G1 X79.950 Y35.950 Z-8.000 F120.000
G3 X80.050 Y35.950 Z-8.000 I0.051 J50.451 K0.000 F120.000
G1 X80.050 Y90.200 Z-8.000 F120.000
G0 Z2.000
G0 X80.400 Z2.000
G0 X80.400 Z3.000
G1 X80.400 Y90.200 Z-8.000 F60.000
G1 X80.400 Y94.400 Z-8.000 F120.000
G3 X79.600 Y94.400 Z-8.000 I-0.400 J-373.134 K0.000 F120.000
G1 X79.600 Y35.600 Z-8.000 F120.000
G3 X80.400 Y35.600 Z-8.000 I0.393 J387.906 K0.000 F120.000
G1 X80.400 Y90.200 Z-8.000 F120.000
G0 Z2.000
G0 X80.750 Z2.000
G0 X80.750 Z3.000
G1 X80.750 Y90.200 Z-8.000 F60.000
G1 X80.750 Y94.750 Z-8.000 F120.000
G3 X79.250 Y94.750 Z-8.000 I-0.750 J-699.627 K0.000 F120.000
G1 X79.250 Y35.250 Z-8.000 F120.000
G3 X80.750 Y35.250 Z-8.000 I0.736 J725.097 K0.000 F120.000
G1 X80.750 Y90.200 Z-8.000 F120.000
G0 Z2.000
G0 X81.100 Z2.000
G0 X81.100 Z3.000
G1 X81.100 Y90.200 Z-8.000 F60.000
G1 X81.100 Y95.096 Z-8.000 F120.000
G3 X78.900 Y95.096 Z-8.000 I-1.100 J-146.441 K0.000 F120.000
G1 X78.900 Y34.904 Z-8.000 F120.000
G3 X81.100 Y34.906 Z-8.000 I1.028 J122.325 K0.000 F120.000
G1 X81.100 Y90.200 Z-8.000 F120.000
G0 Z2.000
G0 X82.500 Z2.000
G0 X82.500 Z3.000
G1 X82.500 Y90.200 Z-8.000 F60.000
G1 X82.500 Y96.449 Z-8.000 F120.000
G3 X77.500 Y96.449 Z-8.000 I-2.500 J-60.808 K0.000 F120.000
G1 X77.500 Y33.551 Z-8.000 F120.000
G3 X82.081 Y33.521 Z-8.000 I2.780 J74.430 K0.000 F120.000
G1 X82.500 Y33.548 Z-8.000 F120.000
G1 X82.500 Y90.200 Z-8.000 F120.000
G0 Z2.000
G0 X83.900 Z2.000
G0 X83.900 Z3.000
G1 X83.900 Y90.200 Z-8.000 F60.000
G1 X83.900 Y97.585 Z-8.000 F120.000
G3 X81.911 Y97.886 Z-8.000 I-1.900 J-5.828 K0.000 F120.000
G3 X77.138 Y97.826 Z-8.000 I-1.644 J-58.795 K0.000 F120.000
G3 X76.100 Y97.585 Z-8.000 I0.119 J-2.867 K0.000 F120.000
G1 X76.100 Y32.415 Z-8.000 F120.000
G3 X78.086 Y32.114 Z-8.000 I1.898 J5.813 K0.000 F120.000
G3 X82.138 Y32.122 Z-8.000 I1.789 J116.088 K0.000 F120.000
G3 X83.845 Y32.387 Z-8.000 I0.111 J4.918 K0.000 F120.000
G1 X83.900 Y32.413 Z-8.000 F120.000
G1 X83.900 Y90.200 Z-8.000 F120.000
G0 Z2.000
G0 X85.300 Z2.000
G0 X85.300 Z3.000
G1 X85.300 Y90.200 Z-8.000 F60.000
G1 X85.300 Y97.957 Z-8.000 F120.000
G3 X84.855 Y98.660 Z-8.000 I-0.882 J-0.066 K0.000 F120.000
G3 X83.017 Y99.219 Z-8.000 I-2.041 J-3.416 K0.000 F120.000
G3 X78.056 Y99.286 Z-8.000 I-3.291 J-59.456 K0.000 F120.000
G3 X75.880 Y99.003 Z-8.000 I-0.005 J-8.470 K0.000 F120.000
G3 X74.838 Y98.370 Z-8.000 I0.430 J-1.880 K0.000 F120.000
G3 X74.700 Y97.957 Z-8.000 I0.544 J-0.412 K0.000 F120.000
G1 X74.700 Y32.043 Z-8.000 F120.000
G3 X75.143 Y31.341 Z-8.000 I0.881 J0.065 K0.000 F120.000
G3 X76.979 Y30.782 Z-8.000 I2.040 J3.407 K0.000 F120.000
G3 X80.814 Y30.700 Z-8.000 I3.029 J52.317 K0.000 F120.000
G1 X82.194 Y30.723 Z-8.000 F120.000
G3 X84.363 Y31.083 Z-8.000 I0.052 J6.404 K0.000 F120.000
G3 X85.258 Y31.813 Z-8.000 I-0.375 J1.372 K0.000 F120.000
G1 X85.300 Y32.059 Z-8.000 F120.000
G1 X85.300 Y90.200 Z-8.000 F120.000
G0 Z2.000
G0 X83.659 Z2.000
G0 X83.659 Z3.000
G1 X83.659 Y90.200 Z-9.000 F60.000
G1 X83.659 Y97.961 Z-9.000 F120.000
G3 X83.547 Y98.215 Z-9.000 I-0.391 J-0.021 K0.000 F120.000
G3 X82.099 Y98.854 Z-9.000 I-1.786 J-2.084 K0.000 F120.000
G3 X77.348 Y98.715 Z-9.000 I-2.054 J-11.063 K0.000 F120.000
G3 X76.504 Y98.275 Z-9.000 I0.533 J-2.051 K0.000 F120.000
G3 X76.341 Y97.950 Z-9.000 I0.266 J-0.336 K0.000 F120.000
G1 X76.341 Y32.050 Z-9.000 F120.000
G3 X76.747 Y31.545 Z-9.000 I0.699 J0.147 K0.000 F120.000
G3 X78.228 Y31.088 Z-9.000 I1.934 J3.635 K0.000 F120.000
G3 X82.119 Y31.150 Z-9.000 I1.745 J12.660 K0.000 F120.000
G3 X83.548 Y31.786 Z-9.000 I-0.347 J2.702 K0.000 F120.000
G3 X83.659 Y32.038 Z-9.000 I-0.247 J0.260 K0.000 F120.000
G1 X83.659 Y90.200 Z-9.000 F120.000
G0 Z2.000
G0 X82.259 Z2.000
G0 X82.259 Z3.000
G1 X82.259 Y90.200 Z-9.000 F60.000
G1 X82.259 Y97.369 Z-9.000 F120.000
G3 X77.741 Y97.366 Z-9.000 I-2.254 J-9.216 K0.000 F120.000
G1 X77.741 Y32.634 Z-9.000 F120.000
G3 X79.996 Y32.369 Z-9.000 I1.953 J6.903 K0.000 F120.000
G3 X81.852 Y32.527 Z-9.000 I0.098 J9.846 K0.000 F120.000
G1 X82.259 Y32.632 Z-9.000 F120.000
G1 X82.259 Y90.200 Z-9.000 F120.000
G0 Z2.000
G0 X80.859 Z2.000
G0 X80.859 Z3.000
G1 X80.859 Y90.200 Z-9.000 F60.000
G1 X80.859 Y96.192 Z-9.000 F120.000
G3 X79.141 Y96.192 Z-9.000 I-0.861 J-9.745 K0.000 F120.000
G1 X79.141 Y33.807 Z-9.000 F120.000
G3 X80.859 Y33.809 Z-9.000 I0.851 J9.666 K0.000 F120.000
G1 X80.859 Y90.200 Z-9.000 F120.000
G0 Z2.000
G0 X80.509 Z2.000
G0 X80.509 Z3.000
G1 X80.509 Y90.200 Z-9.000 F60.000
G1 X80.509 Y95.861 Z-9.000 F120.000
G3 X79.491 Y95.864 Z-9.000 I-0.528 J-7.566 K0.000 F120.000
G1 X79.491 Y34.136 Z-9.000 F120.000
G3 X80.509 Y34.138 Z-9.000 I0.491 J7.575 K0.000 F120.000
G1 X80.509 Y90.200 Z-9.000 F120.000
G0 Z2.000
G0 X80.159 Z2.000
G0 X80.159 Z3.000
G1 X80.159 Y90.200 Z-9.000 F60.000
G1 X80.159 Y95.524 Z-9.000 F120.000
G3 X79.841 Y95.525 Z-9.000 I-0.165 J-2.362 K0.000 F120.000
G1 X79.841 Y34.475 Z-9.000 F120.000
G3 X80.159 Y34.476 Z-9.000 I0.151 J2.365 K0.000 F120.000
G1 X80.159 Y90.200 Z-9.000 F120.000
G0 Z2.000
G0 Z2.000
(Finish operation: Pocket3D)
(Begin operation: Pocket3D004)
(Path: Pocket3D004)
(Pocket3D004)
G0 Z3.000
G0 X154.087 Y9.350 Z2.000
G0 Z3.000
G1 X154.087 Y9.350 Z-1.000 F60.000
G3 X153.284 Y9.771 Z-1.000 I-1.089 J-1.101 K0.000 F120.000
G1 X152.968 Y9.800 Z-1.000 F120.000
G1 X7.031 Y9.814 Z-1.000 F120.000
G3 X6.712 Y6.716 Z-1.000 I-0.029 J-1.562 K0.000 F120.000
G1 X7.031 Y6.686 Z-1.000 F120.000
G1 X10.000 Y6.686 Z-1.000 F120.000
G2 X10.700 Y5.986 Z-1.000 I0.000 J-0.700 K0.000 F120.000
G1 X10.700 Y5.000 Z-1.000 F120.000
G2 X10.495 Y4.505 Z-1.000 I-0.700 J-0.000 K0.000 F120.000
G1 X6.690 Y0.700 Z-1.000 F120.000
G1 X153.310 Y0.700 Z-1.000 F120.000
G1 X149.505 Y4.505 Z-1.000 F120.000
G2 X149.300 Y5.000 Z-1.000 I0.495 J0.495 K0.000 F120.000
G1 X149.300 Y8.119 Z-1.000 F120.000
G2 X150.700 Y8.139 Z-1.000 I0.700 J-0.000 K0.000 F120.000
G2 X150.717 Y6.700 Z-1.000 I-25.734 J-1.029 K0.000 F120.000
G1 X152.968 Y6.700 Z-1.000 F120.000
G3 X154.087 Y9.350 Z-1.000 I0.030 J1.549 K0.000 F120.000
G0 Z2.000
G0 X153.099 Y8.350 Z2.000
G0 X153.099 Y8.350 Z3.000
G1 X153.099 Y8.350 Z-1.000 F60.000
G3 X153.026 Y8.389 Z-1.000 I-0.099 J-0.100 K0.000 F120.000
G3 X152.064 Y8.400 Z-1.000 I-0.543 J-5.189 K0.000 F120.000
G2 X152.101 Y8.100 Z-1.000 I-1.136 J-0.293 K0.000 F120.000
G3 X153.026 Y8.111 Z-1.000 I0.400 J5.000 K0.000 F120.000
G3 X153.099 Y8.350 Z-1.000 I-0.026 J0.139 K0.000 F120.000
G0 Z2.000
G0 X147.927 Y8.400 Z2.000
G0 X147.927 Y8.400 Z3.000
G1 X147.927 Y8.400 Z-1.000 F60.000
G1 X7.096 Y8.414 Z-1.000 F120.000
G3 X6.918 Y8.118 Z-1.000 I-0.076 J-0.156 K0.000 F120.000
G3 X7.096 Y8.086 Z-1.000 I0.145 J0.296 K0.000 F120.000
G1 X10.000 Y8.086 Z-1.000 F120.000
G2 X12.100 Y5.986 Z-1.000 I0.000 J-2.100 K0.000 F120.000
G2 X12.062 Y4.603 Z-1.000 I-7.265 J-0.493 K0.000 F120.000
G2 X11.485 Y3.515 Z-1.000 I-2.062 J0.397 K0.000 F120.000
G1 X10.070 Y2.100 Z-1.000 F120.000
G1 X149.930 Y2.100 Z-1.000 F120.000
G1 X148.515 Y3.515 Z-1.000 F120.000
G2 X147.900 Y5.000 Z-1.000 I1.485 J1.485 K0.000 F120.000
G1 X147.900 Y8.119 Z-1.000 F120.000
G1 X147.927 Y8.400 Z-1.000 F120.000
G0 Z2.000
G0 X146.500 Y7.001 Z2.000
G0 X146.500 Y7.001 Z3.000
G1 X146.500 Y7.001 Z-1.000 F60.000
G1 X13.336 Y7.013 Z-1.000 F120.000
G2 X13.500 Y5.986 Z-1.000 I-3.064 J-1.017 K0.000 F120.000
G2 X13.461 Y4.478 Z-1.000 I-10.082 J-0.493 K0.000 F120.000
G2 X13.161 Y3.500 Z-1.000 I-3.396 J0.507 K0.000 F120.000
G1 X146.847 Y3.500 Z-1.000 F120.000
G2 X146.500 Y5.000 Z-1.000 I3.019 J1.487 K0.000 F120.000
G1 X146.500 Y7.001 Z-1.000 F120.000
G0 Z2.000
G0 X145.100 Y5.601 Z2.000
G0 X145.100 Y5.601 Z3.000
G1 X145.100 Y5.601 Z-1.000 F60.000
G1 X14.900 Y5.613 Z-1.000 F120.000
G2 X14.894 Y4.900 Z-1.000 I-5.670 J-0.307 K0.000 F120.000
G1 X145.108 Y4.900 Z-1.000 F120.000
G2 X145.100 Y5.601 Z-1.000 I4.448 J0.400 K0.000 F120.000
G0 Z2.000
G0 X144.750 Y5.251 Z2.000
G0 X144.750 Y5.251 Z3.000
G1 X144.750 Y5.251 Z-1.000 F60.000
G1 X15.250 Y5.263 Z-1.000 F120.000
G1 X15.250 Y5.250 Z-1.000 F120.000
G1 X144.750 Y5.250 Z-1.000 F120.000
G1 X144.750 Y5.251 Z-1.000 F120.000
G1 X144.750 Y5.251 Z-2.000 F60.000
G1 X15.250 Y5.263 Z-2.000 F120.000
G1 X15.250 Y5.250 Z-2.000 F120.000
G1 X144.750 Y5.250 Z-2.000 F120.000
G1 X144.750 Y5.251 Z-2.000 F120.000
G0 Z2.000
G0 X145.090 Y5.254 Z2.000
G0 X145.090 Y5.254 Z3.000
G1 X145.090 Y5.254 Z-2.000 F60.000
G2 X145.100 Y5.601 Z-2.000 I4.466 J0.046 K0.000 F120.000
G1 X14.900 Y5.613 Z-2.000 F120.000
G2 X14.894 Y4.900 Z-2.000 I-5.670 J-0.307 K0.000 F120.000
G1 X145.108 Y4.900 Z-2.000 F120.000
G2 X145.090 Y5.254 Z-2.000 I4.448 J0.400 K0.000 F120.000
G0 Z2.000
G0 X146.500 Z2.000
G0 X146.500 Z3.000
G1 X146.500 Y5.254 Z-2.000 F60.000
G1 X146.500 Y7.001 Z-2.000 F120.000
G1 X13.336 Y7.013 Z-2.000 F120.000
G2 X13.500 Y5.986 Z-2.000 I-3.064 J-1.017 K0.000 F120.000
G2 X13.461 Y4.478 Z-2.000 I-10.082 J-0.493 K0.000 F120.000
G2 X13.161 Y3.500 Z-2.000 I-3.396 J0.507 K0.000 F120.000
G1 X146.847 Y3.500 Z-2.000 F120.000
G2 X146.500 Y5.000 Z-2.000 I3.019 J1.487 K0.000 F120.000
G1 X146.500 Y5.254 Z-2.000 F120.000
G0 Z2.000
G0 X147.900 Z2.000
G0 X147.900 Z3.000
G1 X147.900 Y5.254 Z-2.000 F60.000
G1 X147.900 Y8.119 Z-2.000 F120.000
G1 X147.927 Y8.400 Z-2.000 F120.000
G1 X7.096 Y8.414 Z-2.000 F120.000
G3 X6.918 Y8.118 Z-2.000 I-0.076 J-0.156 K0.000 F120.000
G3 X7.096 Y8.086 Z-2.000 I0.145 J0.296 K0.000 F120.000
G1 X10.000 Y8.086 Z-2.000 F120.000
G2 X12.100 Y5.986 Z-2.000 I0.000 J-2.100 K0.000 F120.000
G2 X12.062 Y4.603 Z-2.000 I-7.265 J-0.493 K0.000 F120.000
G2 X11.485 Y3.515 Z-2.000 I-2.062 J0.397 K0.000 F120.000
G1 X10.070 Y2.100 Z-2.000 F120.000
G1 X149.930 Y2.100 Z-2.000 F120.000
G1 X148.515 Y3.515 Z-2.000 F120.000
G2 X147.900 Y5.000 Z-2.000 I1.485 J1.485 K0.000 F120.000
G1 X147.900 Y5.254 Z-2.000 F120.000
G0 Z2.000
G0 X149.300 Z2.000
G0 X149.300 Z3.000
G1 X149.300 Y5.254 Z-2.000 F60.000
G1 X149.300 Y8.119 Z-2.000 F120.000
G2 X150.700 Y8.139 Z-2.000 I0.700 J-0.000 K0.000 F120.000
G2 X150.717 Y6.700 Z-2.000 I-25.734 J-1.029 K0.000 F120.000
G1 X152.968 Y6.700 Z-2.000 F120.000
G3 X153.284 Y9.771 Z-2.000 I0.030 J1.549 K0.000 F120.000
G1 X152.968 Y9.800 Z-2.000 F120.000
G1 X7.031 Y9.814 Z-2.000 F120.000
G3 X6.712 Y6.716 Z-2.000 I-0.029 J-1.562 K0.000 F120.000
G1 X7.031 Y6.686 Z-2.000 F120.000
G1 X10.000 Y6.686 Z-2.000 F120.000
G2 X10.700 Y5.986 Z-2.000 I0.000 J-0.700 K0.000 F120.000
G1 X10.700 Y5.000 Z-2.000 F120.000
G2 X10.495 Y4.505 Z-2.000 I-0.700 J-0.000 K0.000 F120.000
G1 X6.690 Y0.700 Z-2.000 F120.000
G1 X153.310 Y0.700 Z-2.000 F120.000
G1 X149.505 Y4.505 Z-2.000 F120.000
G2 X149.300 Y5.000 Z-2.000 I0.495 J0.495 K0.000 F120.000
G1 X149.300 Y5.254 Z-2.000 F120.000
G0 Z2.000
G0 X152.101 Y8.100 Z2.000
G0 X152.101 Y8.100 Z3.000
G1 X152.101 Y8.100 Z-2.000 F60.000
G3 X153.026 Y8.111 Z-2.000 I0.400 J5.000 K0.000 F120.000
G3 X153.026 Y8.389 Z-2.000 I-0.026 J0.139 K0.000 F120.000
G3 X152.064 Y8.400 Z-2.000 I-0.543 J-5.189 K0.000 F120.000
G2 X152.101 Y8.100 Z-2.000 I-1.136 J-0.293 K0.000 F120.000
G1 X152.101 Y8.100 Z-3.000 F60.000
G3 X153.026 Y8.111 Z-3.000 I0.400 J5.000 K0.000 F120.000
G3 X153.026 Y8.389 Z-3.000 I-0.026 J0.139 K0.000 F120.000
G3 X152.064 Y8.400 Z-3.000 I-0.543 J-5.189 K0.000 F120.000
G2 X152.101 Y8.100 Z-3.000 I-1.136 J-0.293 K0.000 F120.000
G0 Z2.000
G0 X150.703 Y8.049 Z2.000
G0 X150.703 Y8.049 Z3.000
G1 X150.703 Y8.049 Z-3.000 F60.000
G2 X150.717 Y6.700 Z-3.000 I-25.737 J-0.939 K0.000 F120.000
G1 X152.968 Y6.700 Z-3.000 F120.000
G3 X153.284 Y9.771 Z-3.000 I0.030 J1.549 K0.000 F120.000
G1 X152.968 Y9.800 Z-3.000 F120.000
G1 X7.031 Y9.814 Z-3.000 F120.000
G3 X6.712 Y6.716 Z-3.000 I-0.029 J-1.562 K0.000 F120.000
G1 X7.031 Y6.686 Z-3.000 F120.000
G1 X149.300 Y6.700 Z-3.000 F120.000
G1 X149.300 Y8.119 Z-3.000 F120.000
G2 X150.700 Y8.139 Z-3.000 I0.700 J-0.000 K0.000 F120.000
G2 X150.703 Y8.049 Z-3.000 I-25.734 J-1.029 K0.000 F120.000
G0 Z2.000
G0 X147.927 Y8.400 Z2.000
G0 X147.927 Y8.400 Z3.000
G1 X147.927 Y8.400 Z-3.000 F60.000
G1 X7.096 Y8.414 Z-3.000 F120.000
G3 X6.918 Y8.118 Z-3.000 I-0.076 J-0.156 K0.000 F120.000
G3 X7.096 Y8.086 Z-3.000 I0.145 J0.296 K0.000 F120.000
G1 X147.900 Y8.100 Z-3.000 F120.000
G2 X147.927 Y8.400 Z-3.000 I1.589 J0.010 K0.000 F120.000
G0 Z2.000
G0 Y4.300 Z2.000
G0 Y4.300 Z3.000
G1 X147.927 Y4.300 Z-3.000 F60.000
G1 X10.290 Y4.300 Z-3.000 F120.000
G1 X6.690 Y0.700 Z-3.000 F120.000
G1 X153.310 Y0.700 Z-3.000 F120.000
G1 X149.710 Y4.300 Z-3.000 F120.000
G1 X147.927 Y4.300 Z-3.000 F120.000
G0 Z2.000
G0 Y2.900 Z2.000
G0 Y2.900 Z3.000
G1 X147.927 Y2.900 Z-3.000 F60.000
G1 X10.870 Y2.900 Z-3.000 F120.000
G1 X10.070 Y2.100 Z-3.000 F120.000
G1 X149.930 Y2.100 Z-3.000 F120.000
G1 X149.130 Y2.900 Z-3.000 F120.000
G1 X147.927 Y2.900 Z-3.000 F120.000
G0 Z2.000
G0 Y2.550 Z2.000
G0 Y2.550 Z3.000
G1 X147.927 Y2.550 Z-3.000 F60.000
G1 X11.015 Y2.550 Z-3.000 F120.000
G1 X10.915 Y2.450 Z-3.000 F120.000
G1 X149.085 Y2.450 Z-3.000 F120.000
G1 X148.985 Y2.550 Z-3.000 F120.000
G1 X147.927 Y2.550 Z-3.000 F120.000
G0 Z2.000
G0 Y3.300 Z2.000
G0 Y3.300 Z3.000
G1 X147.927 Y3.300 Z-4.000 F60.000
G1 X9.290 Y3.300 Z-4.000 F120.000
G1 X6.690 Y0.700 Z-4.000 F120.000
G1 X153.310 Y0.700 Z-4.000 F120.000
G1 X150.710 Y3.300 Z-4.000 F120.000
G1 X147.927 Y3.300 Z-4.000 F120.000
G0 Z2.000
G0 X147.927 Y6.700 Z2.000
G0 X147.927 Y6.700 Z3.000
G1 X147.927 Y6.700 Z-4.000 F60.000
G1 X149.300 Y6.700 Z-4.000 F120.000
G1 X149.300 Y8.119 Z-4.000 F120.000
G2 X150.700 Y8.139 Z-4.000 I0.700 J-0.000 K0.000 F120.000
G2 X150.717 Y6.700 Z-4.000 I-25.734 J-1.029 K0.000 F120.000
G1 X152.968 Y6.700 Z-4.000 F120.000
G3 X153.284 Y9.771 Z-4.000 I0.030 J1.549 K0.000 F120.000
G1 X152.968 Y9.800 Z-4.000 F120.000
G1 X7.031 Y9.814 Z-4.000 F120.000
G3 X6.712 Y6.716 Z-4.000 I-0.029 J-1.562 K0.000 F120.000
G1 X7.031 Y6.686 Z-4.000 F120.000
G1 X147.927 Y6.700 Z-4.000 F120.000
G0 Z2.000
G0 X147.900 Y8.100 Z2.000
G0 X147.900 Y8.100 Z3.000
G1 X147.900 Y8.100 Z-4.000 F60.000
G2 X147.927 Y8.400 Z-4.000 I1.589 J0.010 K0.000 F120.000
G1 X7.096 Y8.414 Z-4.000 F120.000
G3 X6.918 Y8.118 Z-4.000 I-0.076 J-0.156 K0.000 F120.000
G3 X7.096 Y8.086 Z-4.000 I0.145 J0.296 K0.000 F120.000
G1 X147.900 Y8.100 Z-4.000 F120.000
G0 Z2.000
G0 X152.064 Y8.400 Z2.000
G0 X152.064 Y8.400 Z3.000
G1 X152.064 Y8.400 Z-4.000 F60.000
G2 X152.101 Y8.100 Z-4.000 I-1.136 J-0.293 K0.000 F120.000
G3 X153.026 Y8.111 Z-4.000 I0.400 J5.000 K0.000 F120.000
G3 X153.026 Y8.389 Z-4.000 I-0.026 J0.139 K0.000 F120.000
G3 X152.064 Y8.400 Z-4.000 I-0.543 J-5.189 K0.000 F120.000
G1 X152.064 Y8.400 Z-5.000 F60.000
G2 X152.101 Y8.100 Z-5.000 I-1.136 J-0.293 K0.000 F120.000
G3 X153.026 Y8.111 Z-5.000 I0.400 J5.000 K0.000 F120.000
G3 X153.026 Y8.389 Z-5.000 I-0.026 J0.139 K0.000 F120.000
G3 X152.064 Y8.400 Z-5.000 I-0.543 J-5.189 K0.000 F120.000
G0 Z2.000
G0 X150.694 Y8.214 Z2.000
G0 X150.694 Y8.214 Z3.000
G1 X150.694 Y8.214 Z-5.000 F60.000
G2 X150.700 Y8.139 Z-5.000 I-0.694 J-0.094 K0.000 F120.000
G2 X150.717 Y6.700 Z-5.000 I-25.734 J-1.029 K0.000 F120.000
G1 X152.968 Y6.700 Z-5.000 F120.000
G3 X153.284 Y9.771 Z-5.000 I0.030 J1.549 K0.000 F120.000
G1 X152.968 Y9.800 Z-5.000 F120.000
G1 X7.031 Y9.814 Z-5.000 F120.000
G3 X6.712 Y6.716 Z-5.000 I-0.029 J-1.562 K0.000 F120.000
G1 X7.031 Y6.686 Z-5.000 F120.000
G1 X149.300 Y6.700 Z-5.000 F120.000
G1 X149.300 Y8.119 Z-5.000 F120.000
G2 X150.694 Y8.214 Z-5.000 I0.700 J-0.000 K0.000 F120.000
G0 Z2.000
G0 X147.927 Y8.400 Z2.000
G0 X147.927 Y8.400 Z3.000
G1 X147.927 Y8.400 Z-5.000 F60.000
G1 X7.096 Y8.414 Z-5.000 F120.000
G3 X6.918 Y8.118 Z-5.000 I-0.076 J-0.156 K0.000 F120.000
G3 X7.096 Y8.086 Z-5.000 I0.145 J0.296 K0.000 F120.000
G1 X147.900 Y8.100 Z-5.000 F120.000
G2 X147.927 Y8.400 Z-5.000 I1.589 J0.010 K0.000 F120.000
G0 Z2.000
G0 Y2.300 Z2.000
G0 Y2.300 Z3.000
G1 X147.927 Y2.300 Z-5.000 F60.000
G1 X8.290 Y2.300 Z-5.000 F120.000
G1 X6.690 Y0.700 Z-5.000 F120.000
G1 X153.310 Y0.700 Z-5.000 F120.000
G1 X151.710 Y2.300 Z-5.000 F120.000
G1 X147.927 Y2.300 Z-5.000 F120.000
G0 Z2.000
G0 Y1.300 Z2.000
G0 Y1.300 Z3.000
G1 X147.927 Y1.300 Z-6.000 F60.000
G1 X7.290 Y1.300 Z-6.000 F120.000
G1 X6.690 Y0.700 Z-6.000 F120.000
G1 X153.310 Y0.700 Z-6.000 F120.000
G1 X152.710 Y1.300 Z-6.000 F120.000
G1 X147.927 Y1.300 Z-6.000 F120.000
G0 Z2.000
G0 X147.926 Y6.700 Z2.000
G0 X147.926 Y6.700 Z3.000
G1 X147.926 Y6.700 Z-6.000 F60.000
G1 X149.300 Y6.700 Z-6.000 F120.000
G1 X149.300 Y8.119 Z-6.000 F120.000
G2 X150.700 Y8.139 Z-6.000 I0.700 J-0.000 K0.000 F120.000
G2 X150.717 Y6.700 Z-6.000 I-25.734 J-1.029 K0.000 F120.000
G1 X152.968 Y6.700 Z-6.000 F120.000
G3 X153.284 Y9.771 Z-6.000 I0.030 J1.549 K0.000 F120.000
G1 X152.968 Y9.800 Z-6.000 F120.000
G1 X7.031 Y9.814 Z-6.000 F120.000
G3 X6.712 Y6.716 Z-6.000 I-0.029 J-1.562 K0.000 F120.000
G1 X7.031 Y6.686 Z-6.000 F120.000
G1 X147.926 Y6.700 Z-6.000 F120.000
G0 Z2.000
G0 X147.900 Y8.100 Z2.000
G0 X147.900 Y8.100 Z3.000
G1 X147.900 Y8.100 Z-6.000 F60.000
G2 X147.927 Y8.400 Z-6.000 I1.589 J0.010 K0.000 F120.000
G1 X7.096 Y8.414 Z-6.000 F120.000
G3 X6.918 Y8.118 Z-6.000 I-0.076 J-0.156 K0.000 F120.000
G3 X7.096 Y8.086 Z-6.000 I0.145 J0.296 K0.000 F120.000
G1 X147.900 Y8.100 Z-6.000 F120.000
G0 Z2.000
G0 X152.064 Y8.400 Z2.000
G0 X152.064 Y8.400 Z3.000
G1 X152.064 Y8.400 Z-6.000 F60.000
G2 X152.101 Y8.100 Z-6.000 I-1.136 J-0.293 K0.000 F120.000
G3 X153.026 Y8.111 Z-6.000 I0.400 J5.000 K0.000 F120.000
G3 X153.026 Y8.389 Z-6.000 I-0.026 J0.139 K0.000 F120.000
G3 X152.064 Y8.400 Z-6.000 I-0.543 J-5.189 K0.000 F120.000
G0 Z2.000
G0 Z2.000
(Finish operation: Pocket3D004)
(Begin operation: Profile058)
(Path: Profile058)
(Profile058)
(Compensated Tool Path. Diameter: 1.4)
G0 Z3.000
G0 X160.199 Y110.200 Z2.000
G0 Z3.000
G1 X160.199 Y110.200 Z-1.000 F60.000
G2 X160.694 Y109.091 Z-1.000 I-1.205 J-1.203 K0.000 F120.000
G1 X160.700 Y1.000 Z-1.000 F120.000
G2 X159.091 Y-0.694 Z-1.000 I-1.703 J0.006 K0.000 F120.000
G1 X1.000 Y-0.700 Z-1.000 F120.000
G2 X-0.694 Y0.909 Z-1.000 I0.006 J1.703 K0.000 F120.000
G1 X-0.700 Y109.000 Z-1.000 F120.000
G2 X0.909 Y110.694 Z-1.000 I1.703 J-0.006 K0.000 F120.000
G1 X159.000 Y110.700 Z-1.000 F120.000
G2 X160.199 Y110.200 Z-1.000 I-0.006 J-1.703 K0.000 F120.000
G1 X160.199 Y110.200 Z-2.000 F60.000
G2 X160.694 Y109.091 Z-2.000 I-1.205 J-1.203 K0.000 F120.000
G1 X160.700 Y1.000 Z-2.000 F120.000
G2 X159.091 Y-0.694 Z-2.000 I-1.703 J0.006 K0.000 F120.000
G1 X1.000 Y-0.700 Z-2.000 F120.000
G2 X-0.694 Y0.909 Z-2.000 I0.006 J1.703 K0.000 F120.000
G1 X-0.700 Y109.000 Z-2.000 F120.000
G2 X0.909 Y110.694 Z-2.000 I1.703 J-0.006 K0.000 F120.000
G1 X159.000 Y110.700 Z-2.000 F120.000
G2 X160.199 Y110.200 Z-2.000 I-0.006 J-1.703 K0.000 F120.000
G1 X160.199 Y110.200 Z-3.000 F60.000
G2 X160.694 Y109.091 Z-3.000 I-1.205 J-1.203 K0.000 F120.000
G1 X160.700 Y1.000 Z-3.000 F120.000
G2 X159.091 Y-0.694 Z-3.000 I-1.703 J0.006 K0.000 F120.000
G1 X1.000 Y-0.700 Z-3.000 F120.000
G2 X-0.694 Y0.909 Z-3.000 I0.006 J1.703 K0.000 F120.000
G1 X-0.700 Y109.000 Z-3.000 F120.000
G2 X0.909 Y110.694 Z-3.000 I1.703 J-0.006 K0.000 F120.000
G1 X159.000 Y110.700 Z-3.000 F120.000
G2 X160.199 Y110.200 Z-3.000 I-0.006 J-1.703 K0.000 F120.000
G1 X160.199 Y110.200 Z-4.000 F60.000
G2 X160.694 Y109.091 Z-4.000 I-1.205 J-1.203 K0.000 F120.000
G1 X160.700 Y1.000 Z-4.000 F120.000
G2 X159.091 Y-0.694 Z-4.000 I-1.703 J0.006 K0.000 F120.000
G1 X1.000 Y-0.700 Z-4.000 F120.000
G2 X-0.694 Y0.909 Z-4.000 I0.006 J1.703 K0.000 F120.000
G1 X-0.700 Y109.000 Z-4.000 F120.000
G2 X0.909 Y110.694 Z-4.000 I1.703 J-0.006 K0.000 F120.000
G1 X159.000 Y110.700 Z-4.000 F120.000
G2 X160.199 Y110.200 Z-4.000 I-0.006 J-1.703 K0.000 F120.000
G1 X160.199 Y110.200 Z-5.000 F60.000
G2 X160.694 Y109.091 Z-5.000 I-1.205 J-1.203 K0.000 F120.000
G1 X160.700 Y1.000 Z-5.000 F120.000
G2 X159.091 Y-0.694 Z-5.000 I-1.703 J0.006 K0.000 F120.000
G1 X1.000 Y-0.700 Z-5.000 F120.000
G2 X-0.694 Y0.909 Z-5.000 I0.006 J1.703 K0.000 F120.000
G1 X-0.700 Y109.000 Z-5.000 F120.000
G2 X0.909 Y110.694 Z-5.000 I1.703 J-0.006 K0.000 F120.000
G1 X159.000 Y110.700 Z-5.000 F120.000
G2 X160.199 Y110.200 Z-5.000 I-0.006 J-1.703 K0.000 F120.000
G1 X160.199 Y110.200 Z-6.000 F60.000
G2 X160.694 Y109.091 Z-6.000 I-1.205 J-1.203 K0.000 F120.000
G1 X160.700 Y1.000 Z-6.000 F120.000
G2 X159.091 Y-0.694 Z-6.000 I-1.703 J0.006 K0.000 F120.000
G1 X1.000 Y-0.700 Z-6.000 F120.000
G2 X-0.694 Y0.909 Z-6.000 I0.006 J1.703 K0.000 F120.000
G1 X-0.700 Y109.000 Z-6.000 F120.000
G2 X0.909 Y110.694 Z-6.000 I1.703 J-0.006 K0.000 F120.000
G1 X159.000 Y110.700 Z-6.000 F120.000
G2 X160.199 Y110.200 Z-6.000 I-0.006 J-1.703 K0.000 F120.000
G1 X160.199 Y110.200 Z-7.000 F60.000
G2 X160.694 Y109.091 Z-7.000 I-1.205 J-1.203 K0.000 F120.000
G1 X160.700 Y1.000 Z-7.000 F120.000
G2 X159.091 Y-0.694 Z-7.000 I-1.703 J0.006 K0.000 F120.000
G1 X1.000 Y-0.700 Z-7.000 F120.000
G2 X-0.694 Y0.909 Z-7.000 I0.006 J1.703 K0.000 F120.000
G1 X-0.700 Y109.000 Z-7.000 F120.000
G2 X0.909 Y110.694 Z-7.000 I1.703 J-0.006 K0.000 F120.000
G1 X159.000 Y110.700 Z-7.000 F120.000
G2 X160.199 Y110.200 Z-7.000 I-0.006 J-1.703 K0.000 F120.000
G1 X160.199 Y110.200 Z-8.000 F60.000
G2 X160.694 Y109.091 Z-8.000 I-1.205 J-1.203 K0.000 F120.000
G1 X160.700 Y1.000 Z-8.000 F120.000
G2 X159.091 Y-0.694 Z-8.000 I-1.703 J0.006 K0.000 F120.000
G1 X1.000 Y-0.700 Z-8.000 F120.000
G2 X-0.694 Y0.909 Z-8.000 I0.006 J1.703 K0.000 F120.000
G1 X-0.700 Y109.000 Z-8.000 F120.000
G2 X0.909 Y110.694 Z-8.000 I1.703 J-0.006 K0.000 F120.000
G1 X159.000 Y110.700 Z-8.000 F120.000
G2 X160.199 Y110.200 Z-8.000 I-0.006 J-1.703 K0.000 F120.000
G1 X160.199 Y110.200 Z-9.000 F60.000
G2 X160.694 Y109.091 Z-9.000 I-1.205 J-1.203 K0.000 F120.000
G1 X160.700 Y1.000 Z-9.000 F120.000
G2 X159.091 Y-0.694 Z-9.000 I-1.703 J0.006 K0.000 F120.000
G1 X1.000 Y-0.700 Z-9.000 F120.000
G2 X-0.694 Y0.909 Z-9.000 I0.006 J1.703 K0.000 F120.000
G1 X-0.700 Y109.000 Z-9.000 F120.000
G2 X0.909 Y110.694 Z-9.000 I1.703 J-0.006 K0.000 F120.000
G1 X159.000 Y110.700 Z-9.000 F120.000
G2 X160.199 Y110.200 Z-9.000 I-0.006 J-1.703 K0.000 F120.000
G1 X160.199 Y110.200 Z-10.000 F60.000
G2 X160.694 Y109.091 Z-10.000 I-1.205 J-1.203 K0.000 F120.000
G1 X160.700 Y1.000 Z-10.000 F120.000
G2 X159.091 Y-0.694 Z-10.000 I-1.703 J0.006 K0.000 F120.000
G1 X1.000 Y-0.700 Z-10.000 F120.000
G2 X-0.694 Y0.909 Z-10.000 I0.006 J1.703 K0.000 F120.000
G1 X-0.700 Y109.000 Z-10.000 F120.000
G2 X0.909 Y110.694 Z-10.000 I1.703 J-0.006 K0.000 F120.000
G1 X159.000 Y110.700 Z-10.000 F120.000
G2 X160.199 Y110.200 Z-10.000 I-0.006 J-1.703 K0.000 F120.000
G0 Z2.000
G0 Z2.000
(Finish operation: Profile058)
G0 X0 Y0
(Begin postamble)
M5
G17 G90
M2
