(Exported by FreeCAD)
(Post Processor: grbl_post)
(Output Time:2024-10-19 08:21:44.069639)
(Begin preamble)
G17 G90
G21
(Begin operation: G54)
(Path: G54)
G54
G0 Z5.000
(Finish operation: G54)
(Begin operation: Bit_1,008)
(Path: Bit_1,008)
(Bit_1,008)
(Begin toolchange)
( M6 T2 )
M3 S10000
(Finish operation: Bit_1,008)
(Begin operation: Profile051)
(Path: Profile051)
(Profile051)
(Compensated Tool Path. Diameter: 1.4)
G0 Z2.000
G0 X10.563 Y20.563
G1 X10.563 Y20.563 Z-1.000 F60.000
G2 X10.345 Y19.283 Z-1.000 I-0.563 J-0.563 K0.000 F120.000
G2 X9.655 Y20.717 Z-1.000 I-0.345 J0.717 K0.000 F120.000
G2 X10.563 Y20.563 Z-1.000 I0.345 J-0.717 K0.000 F120.000
G1 X10.563 Y20.563 Z-2.000 F60.000
G2 X10.345 Y19.283 Z-2.000 I-0.563 J-0.563 K0.000 F120.000
G2 X9.655 Y20.717 Z-2.000 I-0.345 J0.717 K0.000 F120.000
G2 X10.563 Y20.563 Z-2.000 I0.345 J-0.717 K0.000 F120.000
G1 X10.563 Y20.563 Z-3.000 F60.000
G2 X10.345 Y19.283 Z-3.000 I-0.563 J-0.563 K0.000 F120.000
G2 X9.655 Y20.717 Z-3.000 I-0.345 J0.717 K0.000 F120.000
G2 X10.563 Y20.563 Z-3.000 I0.345 J-0.717 K0.000 F120.000
G1 X10.563 Y20.563 Z-4.000 F60.000
G2 X10.345 Y19.283 Z-4.000 I-0.563 J-0.563 K0.000 F120.000
G2 X9.655 Y20.717 Z-4.000 I-0.345 J0.717 K0.000 F120.000
G2 X10.563 Y20.563 Z-4.000 I0.345 J-0.717 K0.000 F120.000
G1 X10.563 Y20.563 Z-5.000 F60.000
G2 X10.345 Y19.283 Z-5.000 I-0.563 J-0.563 K0.000 F120.000
G2 X9.655 Y20.717 Z-5.000 I-0.345 J0.717 K0.000 F120.000
G2 X10.563 Y20.563 Z-5.000 I0.345 J-0.717 K0.000 F120.000
G1 X10.563 Y20.563 Z-6.000 F60.000
G2 X10.345 Y19.283 Z-6.000 I-0.563 J-0.563 K0.000 F120.000
G2 X9.655 Y20.717 Z-6.000 I-0.345 J0.717 K0.000 F120.000
G2 X10.563 Y20.563 Z-6.000 I0.345 J-0.717 K0.000 F120.000
G1 X10.563 Y20.563 Z-7.000 F60.000
G2 X10.345 Y19.283 Z-7.000 I-0.563 J-0.563 K0.000 F120.000
G2 X9.655 Y20.717 Z-7.000 I-0.345 J0.717 K0.000 F120.000
G2 X10.563 Y20.563 Z-7.000 I0.345 J-0.717 K0.000 F120.000
G1 X10.563 Y20.563 Z-8.000 F60.000
G2 X10.345 Y19.283 Z-8.000 I-0.563 J-0.563 K0.000 F120.000
G2 X9.655 Y20.717 Z-8.000 I-0.345 J0.717 K0.000 F120.000
G2 X10.563 Y20.563 Z-8.000 I0.345 J-0.717 K0.000 F120.000
G1 X10.563 Y20.563 Z-9.000 F60.000
G2 X10.345 Y19.283 Z-9.000 I-0.563 J-0.563 K0.000 F120.000
G2 X9.655 Y20.717 Z-9.000 I-0.345 J0.717 K0.000 F120.000
G2 X10.563 Y20.563 Z-9.000 I0.345 J-0.717 K0.000 F120.000
G1 X10.563 Y20.563 Z-10.000 F60.000
G2 X10.345 Y19.283 Z-10.000 I-0.563 J-0.563 K0.000 F120.000
G2 X9.655 Y20.717 Z-10.000 I-0.345 J0.717 K0.000 F120.000
G2 X10.563 Y20.563 Z-10.000 I0.345 J-0.717 K0.000 F120.000
G0 Z2.000
G0 Z2.000
G0 X10.563 Y20.563
G0 X43.000 Y28.700
G0 X43.000 Y28.700
G1 X43.000 Y28.700 Z-1.000 F60.000
G1 X45.000 Y28.700 Z-1.000 F120.000
G0 Z2.000
G0 X10.563 Y20.563
G0 X43.000 Y28.700
G0 X43.000 Y28.700
G1 X43.000 Y28.700 Z-2.000 F60.000
G1 X45.000 Y28.700 Z-2.000 F120.000
G0 Z2.000
G0 X10.563 Y20.563
G0 X43.000 Y28.700
G0 X43.000 Y28.700
G1 X43.000 Y28.700 Z-3.000 F60.000
G1 X45.000 Y28.700 Z-3.000 F120.000
G0 Z2.000
G0 X10.563 Y20.563
G0 X43.000 Y28.700
G0 X43.000 Y28.700
G1 X43.000 Y28.700 Z-4.000 F60.000
G1 X45.000 Y28.700 Z-4.000 F120.000
G0 Z2.000
G0 X10.563 Y20.563
G0 X43.000 Y28.700
G0 X43.000 Y28.700
G1 X43.000 Y28.700 Z-5.000 F60.000
G1 X45.000 Y28.700 Z-5.000 F120.000
G0 Z2.000
G0 X10.563 Y20.563
G0 X43.000 Y28.700
G0 X43.000 Y28.700
G1 X43.000 Y28.700 Z-6.000 F60.000
G1 X45.000 Y28.700 Z-6.000 F120.000
G0 Z2.000
G0 X10.563 Y20.563
G0 X43.000 Y28.700
G0 X43.000 Y28.700
G1 X43.000 Y28.700 Z-7.000 F60.000
G1 X45.000 Y28.700 Z-7.000 F120.000
G0 Z2.000
G0 X10.563 Y20.563
G0 X43.000 Y28.700
G0 X43.000 Y28.700
G1 X43.000 Y28.700 Z-8.000 F60.000
G1 X45.000 Y28.700 Z-8.000 F120.000
G0 Z2.000
G0 X10.563 Y20.563
G0 X43.000 Y28.700
G0 X43.000 Y28.700
G1 X43.000 Y28.700 Z-9.000 F60.000
G1 X45.000 Y28.700 Z-9.000 F120.000
G0 Z2.000
G0 X10.563 Y20.563
G0 X43.000 Y28.700
G0 X43.000 Y28.700
G1 X43.000 Y28.700 Z-10.000 F60.000
G1 X45.000 Y28.700 Z-10.000 F120.000
G0 Z2.000
G0 Z2.000
G0 X45.000 Y28.700
G1 X45.000 Y28.700 Z-1.000 F60.000
G1 X63.954 Y28.700 Z-1.000 F120.000
G1 X64.076 Y28.716 Z-1.000 F120.000
G1 X64.147 Y28.745 Z-1.000 F120.000
G1 X64.208 Y28.792 Z-1.000 F120.000
G1 X64.255 Y28.853 Z-1.000 F120.000
G1 X64.284 Y28.924 Z-1.000 F120.000
G1 X64.300 Y29.046 Z-1.000 F120.000
G1 X64.300 Y34.954 Z-1.000 F120.000
G1 X64.284 Y35.076 Z-1.000 F120.000
G1 X64.255 Y35.147 Z-1.000 F120.000
G1 X64.208 Y35.208 Z-1.000 F120.000
G1 X64.147 Y35.255 Z-1.000 F120.000
G1 X64.076 Y35.284 Z-1.000 F120.000
G1 X63.954 Y35.300 Z-1.000 F120.000
G1 X53.909 Y35.306 Z-1.000 F120.000
G1 X53.650 Y35.340 Z-1.000 F120.000
G1 X53.473 Y35.387 Z-1.000 F120.000
G1 X53.232 Y35.487 Z-1.000 F120.000
G1 X53.074 Y35.579 Z-1.000 F120.000
G1 X52.867 Y35.738 Z-1.000 F120.000
G1 X52.738 Y35.867 Z-1.000 F120.000
G1 X52.579 Y36.074 Z-1.000 F120.000
G1 X52.487 Y36.232 Z-1.000 F120.000
G1 X52.387 Y36.473 Z-1.000 F120.000
G1 X52.340 Y36.650 Z-1.000 F120.000
G1 X52.300 Y37.000 Z-1.000 F120.000
G1 X52.300 Y98.954 Z-1.000 F120.000
G1 X52.284 Y99.076 Z-1.000 F120.000
G1 X52.255 Y99.147 Z-1.000 F120.000
G1 X52.208 Y99.208 Z-1.000 F120.000
G1 X52.147 Y99.255 Z-1.000 F120.000
G1 X52.076 Y99.284 Z-1.000 F120.000
G1 X51.954 Y99.300 Z-1.000 F120.000
G1 X11.046 Y99.300 Z-1.000 F120.000
G1 X10.924 Y99.284 Z-1.000 F120.000
G1 X10.853 Y99.255 Z-1.000 F120.000
G1 X10.792 Y99.208 Z-1.000 F120.000
G1 X10.745 Y99.147 Z-1.000 F120.000
G1 X10.716 Y99.076 Z-1.000 F120.000
G1 X10.700 Y98.954 Z-1.000 F120.000
G1 X10.700 Y29.046 Z-1.000 F120.000
G1 X10.716 Y28.924 Z-1.000 F120.000
G1 X10.745 Y28.853 Z-1.000 F120.000
G1 X10.792 Y28.792 Z-1.000 F120.000
G1 X10.853 Y28.745 Z-1.000 F120.000
G1 X10.924 Y28.716 Z-1.000 F120.000
G1 X11.046 Y28.700 Z-1.000 F120.000
G1 X43.000 Y28.700 Z-1.000 F120.000
G0 Z2.000
G0 X45.000 Y28.700
G1 X45.000 Y28.700 Z-2.000 F60.000
G1 X63.954 Y28.700 Z-2.000 F120.000
G1 X64.076 Y28.716 Z-2.000 F120.000
G1 X64.147 Y28.745 Z-2.000 F120.000
G1 X64.208 Y28.792 Z-2.000 F120.000
G1 X64.255 Y28.853 Z-2.000 F120.000
G1 X64.284 Y28.924 Z-2.000 F120.000
G1 X64.300 Y29.046 Z-2.000 F120.000
G1 X64.300 Y34.954 Z-2.000 F120.000
G1 X64.284 Y35.076 Z-2.000 F120.000
G1 X64.255 Y35.147 Z-2.000 F120.000
G1 X64.208 Y35.208 Z-2.000 F120.000
G1 X64.147 Y35.255 Z-2.000 F120.000
G1 X64.076 Y35.284 Z-2.000 F120.000
G1 X63.954 Y35.300 Z-2.000 F120.000
G1 X53.909 Y35.306 Z-2.000 F120.000
G1 X53.650 Y35.340 Z-2.000 F120.000
G1 X53.473 Y35.387 Z-2.000 F120.000
G1 X53.232 Y35.487 Z-2.000 F120.000
G1 X53.074 Y35.579 Z-2.000 F120.000
G1 X52.867 Y35.738 Z-2.000 F120.000
G1 X52.738 Y35.867 Z-2.000 F120.000
G1 X52.579 Y36.074 Z-2.000 F120.000
G1 X52.487 Y36.232 Z-2.000 F120.000
G1 X52.387 Y36.473 Z-2.000 F120.000
G1 X52.340 Y36.650 Z-2.000 F120.000
G1 X52.300 Y37.000 Z-2.000 F120.000
G1 X52.300 Y98.954 Z-2.000 F120.000
G1 X52.284 Y99.076 Z-2.000 F120.000
G1 X52.255 Y99.147 Z-2.000 F120.000
G1 X52.208 Y99.208 Z-2.000 F120.000
G1 X52.147 Y99.255 Z-2.000 F120.000
G1 X52.076 Y99.284 Z-2.000 F120.000
G1 X51.954 Y99.300 Z-2.000 F120.000
G1 X11.046 Y99.300 Z-2.000 F120.000
G1 X10.924 Y99.284 Z-2.000 F120.000
G1 X10.853 Y99.255 Z-2.000 F120.000
G1 X10.792 Y99.208 Z-2.000 F120.000
G1 X10.745 Y99.147 Z-2.000 F120.000
G1 X10.716 Y99.076 Z-2.000 F120.000
G1 X10.700 Y98.954 Z-2.000 F120.000
G1 X10.700 Y29.046 Z-2.000 F120.000
G1 X10.716 Y28.924 Z-2.000 F120.000
G1 X10.745 Y28.853 Z-2.000 F120.000
G1 X10.792 Y28.792 Z-2.000 F120.000
G1 X10.853 Y28.745 Z-2.000 F120.000
G1 X10.924 Y28.716 Z-2.000 F120.000
G1 X11.046 Y28.700 Z-2.000 F120.000
G1 X43.000 Y28.700 Z-2.000 F120.000
G0 Z2.000
G0 X45.000 Y28.700
G1 X45.000 Y28.700 Z-3.000 F60.000
G1 X63.954 Y28.700 Z-3.000 F120.000
G1 X64.076 Y28.716 Z-3.000 F120.000
G1 X64.147 Y28.745 Z-3.000 F120.000
G1 X64.208 Y28.792 Z-3.000 F120.000
G1 X64.255 Y28.853 Z-3.000 F120.000
G1 X64.284 Y28.924 Z-3.000 F120.000
G1 X64.300 Y29.046 Z-3.000 F120.000
G1 X64.300 Y34.954 Z-3.000 F120.000
G1 X64.284 Y35.076 Z-3.000 F120.000
G1 X64.255 Y35.147 Z-3.000 F120.000
G1 X64.208 Y35.208 Z-3.000 F120.000
G1 X64.147 Y35.255 Z-3.000 F120.000
G1 X64.076 Y35.284 Z-3.000 F120.000
G1 X63.954 Y35.300 Z-3.000 F120.000
G1 X53.909 Y35.306 Z-3.000 F120.000
G1 X53.650 Y35.340 Z-3.000 F120.000
G1 X53.473 Y35.387 Z-3.000 F120.000
G1 X53.232 Y35.487 Z-3.000 F120.000
G1 X53.074 Y35.579 Z-3.000 F120.000
G1 X52.867 Y35.738 Z-3.000 F120.000
G1 X52.738 Y35.867 Z-3.000 F120.000
G1 X52.579 Y36.074 Z-3.000 F120.000
G1 X52.487 Y36.232 Z-3.000 F120.000
G1 X52.387 Y36.473 Z-3.000 F120.000
G1 X52.340 Y36.650 Z-3.000 F120.000
G1 X52.300 Y37.000 Z-3.000 F120.000
G1 X52.300 Y98.954 Z-3.000 F120.000
G1 X52.284 Y99.076 Z-3.000 F120.000
G1 X52.255 Y99.147 Z-3.000 F120.000
G1 X52.208 Y99.208 Z-3.000 F120.000
G1 X52.147 Y99.255 Z-3.000 F120.000
G1 X52.076 Y99.284 Z-3.000 F120.000
G1 X51.954 Y99.300 Z-3.000 F120.000
G1 X11.046 Y99.300 Z-3.000 F120.000
G1 X10.924 Y99.284 Z-3.000 F120.000
G1 X10.853 Y99.255 Z-3.000 F120.000
G1 X10.792 Y99.208 Z-3.000 F120.000
G1 X10.745 Y99.147 Z-3.000 F120.000
G1 X10.716 Y99.076 Z-3.000 F120.000
G1 X10.700 Y98.954 Z-3.000 F120.000
G1 X10.700 Y29.046 Z-3.000 F120.000
G1 X10.716 Y28.924 Z-3.000 F120.000
G1 X10.745 Y28.853 Z-3.000 F120.000
G1 X10.792 Y28.792 Z-3.000 F120.000
G1 X10.853 Y28.745 Z-3.000 F120.000
G1 X10.924 Y28.716 Z-3.000 F120.000
G1 X11.046 Y28.700 Z-3.000 F120.000
G1 X43.000 Y28.700 Z-3.000 F120.000
G0 Z2.000
G0 X45.000 Y28.700
G1 X45.000 Y28.700 Z-4.000 F60.000
G1 X63.954 Y28.700 Z-4.000 F120.000
G1 X64.076 Y28.716 Z-4.000 F120.000
G1 X64.147 Y28.745 Z-4.000 F120.000
G1 X64.208 Y28.792 Z-4.000 F120.000
G1 X64.255 Y28.853 Z-4.000 F120.000
G1 X64.284 Y28.924 Z-4.000 F120.000
G1 X64.300 Y29.046 Z-4.000 F120.000
G1 X64.300 Y34.954 Z-4.000 F120.000
G1 X64.284 Y35.076 Z-4.000 F120.000
G1 X64.255 Y35.147 Z-4.000 F120.000
G1 X64.208 Y35.208 Z-4.000 F120.000
G1 X64.147 Y35.255 Z-4.000 F120.000
G1 X64.076 Y35.284 Z-4.000 F120.000
G1 X63.954 Y35.300 Z-4.000 F120.000
G1 X53.909 Y35.306 Z-4.000 F120.000
G1 X53.650 Y35.340 Z-4.000 F120.000
G1 X53.473 Y35.387 Z-4.000 F120.000
G1 X53.232 Y35.487 Z-4.000 F120.000
G1 X53.074 Y35.579 Z-4.000 F120.000
G1 X52.867 Y35.738 Z-4.000 F120.000
G1 X52.738 Y35.867 Z-4.000 F120.000
G1 X52.579 Y36.074 Z-4.000 F120.000
G1 X52.487 Y36.232 Z-4.000 F120.000
G1 X52.387 Y36.473 Z-4.000 F120.000
G1 X52.340 Y36.650 Z-4.000 F120.000
G1 X52.300 Y37.000 Z-4.000 F120.000
G1 X52.300 Y98.954 Z-4.000 F120.000
G1 X52.284 Y99.076 Z-4.000 F120.000
G1 X52.255 Y99.147 Z-4.000 F120.000
G1 X52.208 Y99.208 Z-4.000 F120.000
G1 X52.147 Y99.255 Z-4.000 F120.000
G1 X52.076 Y99.284 Z-4.000 F120.000
G1 X51.954 Y99.300 Z-4.000 F120.000
G1 X11.046 Y99.300 Z-4.000 F120.000
G1 X10.924 Y99.284 Z-4.000 F120.000
G1 X10.853 Y99.255 Z-4.000 F120.000
G1 X10.792 Y99.208 Z-4.000 F120.000
G1 X10.745 Y99.147 Z-4.000 F120.000
G1 X10.716 Y99.076 Z-4.000 F120.000
G1 X10.700 Y98.954 Z-4.000 F120.000
G1 X10.700 Y29.046 Z-4.000 F120.000
G1 X10.716 Y28.924 Z-4.000 F120.000
G1 X10.745 Y28.853 Z-4.000 F120.000
G1 X10.792 Y28.792 Z-4.000 F120.000
G1 X10.853 Y28.745 Z-4.000 F120.000
G1 X10.924 Y28.716 Z-4.000 F120.000
G1 X11.046 Y28.700 Z-4.000 F120.000
G1 X43.000 Y28.700 Z-4.000 F120.000
G0 Z2.000
G0 X45.000 Y28.700
G1 X45.000 Y28.700 Z-5.000 F60.000
G1 X63.954 Y28.700 Z-5.000 F120.000
G1 X64.076 Y28.716 Z-5.000 F120.000
G1 X64.147 Y28.745 Z-5.000 F120.000
G1 X64.208 Y28.792 Z-5.000 F120.000
G1 X64.255 Y28.853 Z-5.000 F120.000
G1 X64.284 Y28.924 Z-5.000 F120.000
G1 X64.300 Y29.046 Z-5.000 F120.000
G1 X64.300 Y34.954 Z-5.000 F120.000
G1 X64.284 Y35.076 Z-5.000 F120.000
G1 X64.255 Y35.147 Z-5.000 F120.000
G1 X64.208 Y35.208 Z-5.000 F120.000
G1 X64.147 Y35.255 Z-5.000 F120.000
G1 X64.076 Y35.284 Z-5.000 F120.000
G1 X63.954 Y35.300 Z-5.000 F120.000
G1 X53.909 Y35.306 Z-5.000 F120.000
G1 X53.650 Y35.340 Z-5.000 F120.000
G1 X53.473 Y35.387 Z-5.000 F120.000
G1 X53.232 Y35.487 Z-5.000 F120.000
G1 X53.074 Y35.579 Z-5.000 F120.000
G1 X52.867 Y35.738 Z-5.000 F120.000
G1 X52.738 Y35.867 Z-5.000 F120.000
G1 X52.579 Y36.074 Z-5.000 F120.000
G1 X52.487 Y36.232 Z-5.000 F120.000
G1 X52.387 Y36.473 Z-5.000 F120.000
G1 X52.340 Y36.650 Z-5.000 F120.000
G1 X52.300 Y37.000 Z-5.000 F120.000
G1 X52.300 Y98.954 Z-5.000 F120.000
G1 X52.284 Y99.076 Z-5.000 F120.000
G1 X52.255 Y99.147 Z-5.000 F120.000
G1 X52.208 Y99.208 Z-5.000 F120.000
G1 X52.147 Y99.255 Z-5.000 F120.000
G1 X52.076 Y99.284 Z-5.000 F120.000
G1 X51.954 Y99.300 Z-5.000 F120.000
G1 X11.046 Y99.300 Z-5.000 F120.000
G1 X10.924 Y99.284 Z-5.000 F120.000
G1 X10.853 Y99.255 Z-5.000 F120.000
G1 X10.792 Y99.208 Z-5.000 F120.000
G1 X10.745 Y99.147 Z-5.000 F120.000
G1 X10.716 Y99.076 Z-5.000 F120.000
G1 X10.700 Y98.954 Z-5.000 F120.000
G1 X10.700 Y29.046 Z-5.000 F120.000
G1 X10.716 Y28.924 Z-5.000 F120.000
G1 X10.745 Y28.853 Z-5.000 F120.000
G1 X10.792 Y28.792 Z-5.000 F120.000
G1 X10.853 Y28.745 Z-5.000 F120.000
G1 X10.924 Y28.716 Z-5.000 F120.000
G1 X11.046 Y28.700 Z-5.000 F120.000
G1 X43.000 Y28.700 Z-5.000 F120.000
G0 Z2.000
G0 X45.000 Y28.700
G1 X45.000 Y28.700 Z-6.000 F60.000
G1 X63.954 Y28.700 Z-6.000 F120.000
G1 X64.076 Y28.716 Z-6.000 F120.000
G1 X64.147 Y28.745 Z-6.000 F120.000
G1 X64.208 Y28.792 Z-6.000 F120.000
G1 X64.255 Y28.853 Z-6.000 F120.000
G1 X64.284 Y28.924 Z-6.000 F120.000
G1 X64.300 Y29.046 Z-6.000 F120.000
G1 X64.300 Y34.954 Z-6.000 F120.000
G1 X64.284 Y35.076 Z-6.000 F120.000
G1 X64.255 Y35.147 Z-6.000 F120.000
G1 X64.208 Y35.208 Z-6.000 F120.000
G1 X64.147 Y35.255 Z-6.000 F120.000
G1 X64.076 Y35.284 Z-6.000 F120.000
G1 X63.954 Y35.300 Z-6.000 F120.000
G1 X53.909 Y35.306 Z-6.000 F120.000
G1 X53.650 Y35.340 Z-6.000 F120.000
G1 X53.473 Y35.387 Z-6.000 F120.000
G1 X53.232 Y35.487 Z-6.000 F120.000
G1 X53.074 Y35.579 Z-6.000 F120.000
G1 X52.867 Y35.738 Z-6.000 F120.000
G1 X52.738 Y35.867 Z-6.000 F120.000
G1 X52.579 Y36.074 Z-6.000 F120.000
G1 X52.487 Y36.232 Z-6.000 F120.000
G1 X52.387 Y36.473 Z-6.000 F120.000
G1 X52.340 Y36.650 Z-6.000 F120.000
G1 X52.300 Y37.000 Z-6.000 F120.000
G1 X52.300 Y98.954 Z-6.000 F120.000
G1 X52.284 Y99.076 Z-6.000 F120.000
G1 X52.255 Y99.147 Z-6.000 F120.000
G1 X52.208 Y99.208 Z-6.000 F120.000
G1 X52.147 Y99.255 Z-6.000 F120.000
G1 X52.076 Y99.284 Z-6.000 F120.000
G1 X51.954 Y99.300 Z-6.000 F120.000
G1 X11.046 Y99.300 Z-6.000 F120.000
G1 X10.924 Y99.284 Z-6.000 F120.000
G1 X10.853 Y99.255 Z-6.000 F120.000
G1 X10.792 Y99.208 Z-6.000 F120.000
G1 X10.745 Y99.147 Z-6.000 F120.000
G1 X10.716 Y99.076 Z-6.000 F120.000
G1 X10.700 Y98.954 Z-6.000 F120.000
G1 X10.700 Y29.046 Z-6.000 F120.000
G1 X10.716 Y28.924 Z-6.000 F120.000
G1 X10.745 Y28.853 Z-6.000 F120.000
G1 X10.792 Y28.792 Z-6.000 F120.000
G1 X10.853 Y28.745 Z-6.000 F120.000
G1 X10.924 Y28.716 Z-6.000 F120.000
G1 X11.046 Y28.700 Z-6.000 F120.000
G1 X43.000 Y28.700 Z-6.000 F120.000
G0 Z2.000
G0 X45.000 Y28.700
G1 X45.000 Y28.700 Z-7.000 F60.000
G1 X63.954 Y28.700 Z-7.000 F120.000
G1 X64.076 Y28.716 Z-7.000 F120.000
G1 X64.147 Y28.745 Z-7.000 F120.000
G1 X64.208 Y28.792 Z-7.000 F120.000
G1 X64.255 Y28.853 Z-7.000 F120.000
G1 X64.284 Y28.924 Z-7.000 F120.000
G1 X64.300 Y29.046 Z-7.000 F120.000
G1 X64.300 Y34.954 Z-7.000 F120.000
G1 X64.284 Y35.076 Z-7.000 F120.000
G1 X64.255 Y35.147 Z-7.000 F120.000
G1 X64.208 Y35.208 Z-7.000 F120.000
G1 X64.147 Y35.255 Z-7.000 F120.000
G1 X64.076 Y35.284 Z-7.000 F120.000
G1 X63.954 Y35.300 Z-7.000 F120.000
G1 X53.909 Y35.306 Z-7.000 F120.000
G1 X53.650 Y35.340 Z-7.000 F120.000
G1 X53.473 Y35.387 Z-7.000 F120.000
G1 X53.232 Y35.487 Z-7.000 F120.000
G1 X53.074 Y35.579 Z-7.000 F120.000
G1 X52.867 Y35.738 Z-7.000 F120.000
G1 X52.738 Y35.867 Z-7.000 F120.000
G1 X52.579 Y36.074 Z-7.000 F120.000
G1 X52.487 Y36.232 Z-7.000 F120.000
G1 X52.387 Y36.473 Z-7.000 F120.000
G1 X52.340 Y36.650 Z-7.000 F120.000
G1 X52.300 Y37.000 Z-7.000 F120.000
G1 X52.300 Y98.954 Z-7.000 F120.000
G1 X52.284 Y99.076 Z-7.000 F120.000
G1 X52.255 Y99.147 Z-7.000 F120.000
G1 X52.208 Y99.208 Z-7.000 F120.000
G1 X52.147 Y99.255 Z-7.000 F120.000
G1 X52.076 Y99.284 Z-7.000 F120.000
G1 X51.954 Y99.300 Z-7.000 F120.000
G1 X11.046 Y99.300 Z-7.000 F120.000
G1 X10.924 Y99.284 Z-7.000 F120.000
G1 X10.853 Y99.255 Z-7.000 F120.000
G1 X10.792 Y99.208 Z-7.000 F120.000
G1 X10.745 Y99.147 Z-7.000 F120.000
G1 X10.716 Y99.076 Z-7.000 F120.000
G1 X10.700 Y98.954 Z-7.000 F120.000
G1 X10.700 Y29.046 Z-7.000 F120.000
G1 X10.716 Y28.924 Z-7.000 F120.000
G1 X10.745 Y28.853 Z-7.000 F120.000
G1 X10.792 Y28.792 Z-7.000 F120.000
G1 X10.853 Y28.745 Z-7.000 F120.000
G1 X10.924 Y28.716 Z-7.000 F120.000
G1 X11.046 Y28.700 Z-7.000 F120.000
G1 X43.000 Y28.700 Z-7.000 F120.000
G0 Z2.000
G0 X45.000 Y28.700
G1 X45.000 Y28.700 Z-8.000 F60.000
G1 X63.954 Y28.700 Z-8.000 F120.000
G1 X64.076 Y28.716 Z-8.000 F120.000
G1 X64.147 Y28.745 Z-8.000 F120.000
G1 X64.208 Y28.792 Z-8.000 F120.000
G1 X64.255 Y28.853 Z-8.000 F120.000
G1 X64.284 Y28.924 Z-8.000 F120.000
G1 X64.300 Y29.046 Z-8.000 F120.000
G1 X64.300 Y34.954 Z-8.000 F120.000
G1 X64.284 Y35.076 Z-8.000 F120.000
G1 X64.255 Y35.147 Z-8.000 F120.000
G1 X64.208 Y35.208 Z-8.000 F120.000
G1 X64.147 Y35.255 Z-8.000 F120.000
G1 X64.076 Y35.284 Z-8.000 F120.000
G1 X63.954 Y35.300 Z-8.000 F120.000
G1 X53.909 Y35.306 Z-8.000 F120.000
G1 X53.650 Y35.340 Z-8.000 F120.000
G1 X53.473 Y35.387 Z-8.000 F120.000
G1 X53.232 Y35.487 Z-8.000 F120.000
G1 X53.074 Y35.579 Z-8.000 F120.000
G1 X52.867 Y35.738 Z-8.000 F120.000
G1 X52.738 Y35.867 Z-8.000 F120.000
G1 X52.579 Y36.074 Z-8.000 F120.000
G1 X52.487 Y36.232 Z-8.000 F120.000
G1 X52.387 Y36.473 Z-8.000 F120.000
G1 X52.340 Y36.650 Z-8.000 F120.000
G1 X52.300 Y37.000 Z-8.000 F120.000
G1 X52.300 Y98.954 Z-8.000 F120.000
G1 X52.284 Y99.076 Z-8.000 F120.000
G1 X52.255 Y99.147 Z-8.000 F120.000
G1 X52.208 Y99.208 Z-8.000 F120.000
G1 X52.147 Y99.255 Z-8.000 F120.000
G1 X52.076 Y99.284 Z-8.000 F120.000
G1 X51.954 Y99.300 Z-8.000 F120.000
G1 X11.046 Y99.300 Z-8.000 F120.000
G1 X10.924 Y99.284 Z-8.000 F120.000
G1 X10.853 Y99.255 Z-8.000 F120.000
G1 X10.792 Y99.208 Z-8.000 F120.000
G1 X10.745 Y99.147 Z-8.000 F120.000
G1 X10.716 Y99.076 Z-8.000 F120.000
G1 X10.700 Y98.954 Z-8.000 F120.000
G1 X10.700 Y29.046 Z-8.000 F120.000
G1 X10.716 Y28.924 Z-8.000 F120.000
G1 X10.745 Y28.853 Z-8.000 F120.000
G1 X10.792 Y28.792 Z-8.000 F120.000
G1 X10.853 Y28.745 Z-8.000 F120.000
G1 X10.924 Y28.716 Z-8.000 F120.000
G1 X11.046 Y28.700 Z-8.000 F120.000
G1 X43.000 Y28.700 Z-8.000 F120.000
G0 Z2.000
G0 X45.000 Y28.700
G1 X45.000 Y28.700 Z-9.000 F60.000
G1 X63.954 Y28.700 Z-9.000 F120.000
G1 X64.076 Y28.716 Z-9.000 F120.000
G1 X64.147 Y28.745 Z-9.000 F120.000
G1 X64.208 Y28.792 Z-9.000 F120.000
G1 X64.255 Y28.853 Z-9.000 F120.000
G1 X64.284 Y28.924 Z-9.000 F120.000
G1 X64.300 Y29.046 Z-9.000 F120.000
G1 X64.300 Y34.954 Z-9.000 F120.000
G1 X64.284 Y35.076 Z-9.000 F120.000
G1 X64.255 Y35.147 Z-9.000 F120.000
G1 X64.208 Y35.208 Z-9.000 F120.000
G1 X64.147 Y35.255 Z-9.000 F120.000
G1 X64.076 Y35.284 Z-9.000 F120.000
G1 X63.954 Y35.300 Z-9.000 F120.000
G1 X53.909 Y35.306 Z-9.000 F120.000
G1 X53.650 Y35.340 Z-9.000 F120.000
G1 X53.473 Y35.387 Z-9.000 F120.000
G1 X53.232 Y35.487 Z-9.000 F120.000
G1 X53.074 Y35.579 Z-9.000 F120.000
G1 X52.867 Y35.738 Z-9.000 F120.000
G1 X52.738 Y35.867 Z-9.000 F120.000
G1 X52.579 Y36.074 Z-9.000 F120.000
G1 X52.487 Y36.232 Z-9.000 F120.000
G1 X52.387 Y36.473 Z-9.000 F120.000
G1 X52.340 Y36.650 Z-9.000 F120.000
G1 X52.300 Y37.000 Z-9.000 F120.000
G1 X52.300 Y98.954 Z-9.000 F120.000
G1 X52.284 Y99.076 Z-9.000 F120.000
G1 X52.255 Y99.147 Z-9.000 F120.000
G1 X52.208 Y99.208 Z-9.000 F120.000
G1 X52.147 Y99.255 Z-9.000 F120.000
G1 X52.076 Y99.284 Z-9.000 F120.000
G1 X51.954 Y99.300 Z-9.000 F120.000
G1 X11.046 Y99.300 Z-9.000 F120.000
G1 X10.924 Y99.284 Z-9.000 F120.000
G1 X10.853 Y99.255 Z-9.000 F120.000
G1 X10.792 Y99.208 Z-9.000 F120.000
G1 X10.745 Y99.147 Z-9.000 F120.000
G1 X10.716 Y99.076 Z-9.000 F120.000
G1 X10.700 Y98.954 Z-9.000 F120.000
G1 X10.700 Y29.046 Z-9.000 F120.000
G1 X10.716 Y28.924 Z-9.000 F120.000
G1 X10.745 Y28.853 Z-9.000 F120.000
G1 X10.792 Y28.792 Z-9.000 F120.000
G1 X10.853 Y28.745 Z-9.000 F120.000
G1 X10.924 Y28.716 Z-9.000 F120.000
G1 X11.046 Y28.700 Z-9.000 F120.000
G1 X43.000 Y28.700 Z-9.000 F120.000
G0 Z2.000
G0 X45.000 Y28.700
G1 X45.000 Y28.700 Z-10.000 F60.000
G1 X63.954 Y28.700 Z-10.000 F120.000
G1 X64.076 Y28.716 Z-10.000 F120.000
G1 X64.147 Y28.745 Z-10.000 F120.000
G1 X64.208 Y28.792 Z-10.000 F120.000
G1 X64.255 Y28.853 Z-10.000 F120.000
G1 X64.284 Y28.924 Z-10.000 F120.000
G1 X64.300 Y29.046 Z-10.000 F120.000
G1 X64.300 Y34.954 Z-10.000 F120.000
G1 X64.284 Y35.076 Z-10.000 F120.000
G1 X64.255 Y35.147 Z-10.000 F120.000
G1 X64.208 Y35.208 Z-10.000 F120.000
G1 X64.147 Y35.255 Z-10.000 F120.000
G1 X64.076 Y35.284 Z-10.000 F120.000
G1 X63.954 Y35.300 Z-10.000 F120.000
G1 X53.909 Y35.306 Z-10.000 F120.000
G1 X53.650 Y35.340 Z-10.000 F120.000
G1 X53.473 Y35.387 Z-10.000 F120.000
G1 X53.232 Y35.487 Z-10.000 F120.000
G1 X53.074 Y35.579 Z-10.000 F120.000
G1 X52.867 Y35.738 Z-10.000 F120.000
G1 X52.738 Y35.867 Z-10.000 F120.000
G1 X52.579 Y36.074 Z-10.000 F120.000
G1 X52.487 Y36.232 Z-10.000 F120.000
G1 X52.387 Y36.473 Z-10.000 F120.000
G1 X52.340 Y36.650 Z-10.000 F120.000
G1 X52.300 Y37.000 Z-10.000 F120.000
G1 X52.300 Y98.954 Z-10.000 F120.000
G1 X52.284 Y99.076 Z-10.000 F120.000
G1 X52.255 Y99.147 Z-10.000 F120.000
G1 X52.208 Y99.208 Z-10.000 F120.000
G1 X52.147 Y99.255 Z-10.000 F120.000
G1 X52.076 Y99.284 Z-10.000 F120.000
G1 X51.954 Y99.300 Z-10.000 F120.000
G1 X11.046 Y99.300 Z-10.000 F120.000
G1 X10.924 Y99.284 Z-10.000 F120.000
G1 X10.853 Y99.255 Z-10.000 F120.000
G1 X10.792 Y99.208 Z-10.000 F120.000
G1 X10.745 Y99.147 Z-10.000 F120.000
G1 X10.716 Y99.076 Z-10.000 F120.000
G1 X10.700 Y98.954 Z-10.000 F120.000
G1 X10.700 Y29.046 Z-10.000 F120.000
G1 X10.716 Y28.924 Z-10.000 F120.000
G1 X10.745 Y28.853 Z-10.000 F120.000
G1 X10.792 Y28.792 Z-10.000 F120.000
G1 X10.853 Y28.745 Z-10.000 F120.000
G1 X10.924 Y28.716 Z-10.000 F120.000
G1 X11.046 Y28.700 Z-10.000 F120.000
G1 X43.000 Y28.700 Z-10.000 F120.000
G0 Z2.000
G0 Z2.000
G0 X43.000 Y28.700
G0 X7.345 Y102.283
G0 X7.345 Y102.283
G1 X7.345 Y102.283 Z-1.000 F60.000
G2 X6.655 Y103.717 Z-1.000 I-0.345 J0.717 K0.000 F120.000
G2 X7.345 Y102.283 Z-1.000 I0.345 J-0.717 K0.000 F120.000
G1 X7.345 Y102.283 Z-2.000 F60.000
G2 X6.655 Y103.717 Z-2.000 I-0.345 J0.717 K0.000 F120.000
G2 X7.345 Y102.283 Z-2.000 I0.345 J-0.717 K0.000 F120.000
G1 X7.345 Y102.283 Z-3.000 F60.000
G2 X6.655 Y103.717 Z-3.000 I-0.345 J0.717 K0.000 F120.000
G2 X7.345 Y102.283 Z-3.000 I0.345 J-0.717 K0.000 F120.000
G1 X7.345 Y102.283 Z-4.000 F60.000
G2 X6.655 Y103.717 Z-4.000 I-0.345 J0.717 K0.000 F120.000
G2 X7.345 Y102.283 Z-4.000 I0.345 J-0.717 K0.000 F120.000
G1 X7.345 Y102.283 Z-5.000 F60.000
G2 X6.655 Y103.717 Z-5.000 I-0.345 J0.717 K0.000 F120.000
G2 X7.345 Y102.283 Z-5.000 I0.345 J-0.717 K0.000 F120.000
G1 X7.345 Y102.283 Z-6.000 F60.000
G2 X6.655 Y103.717 Z-6.000 I-0.345 J0.717 K0.000 F120.000
G2 X7.345 Y102.283 Z-6.000 I0.345 J-0.717 K0.000 F120.000
G1 X7.345 Y102.283 Z-7.000 F60.000
G2 X6.655 Y103.717 Z-7.000 I-0.345 J0.717 K0.000 F120.000
G2 X7.345 Y102.283 Z-7.000 I0.345 J-0.717 K0.000 F120.000
G1 X7.345 Y102.283 Z-8.000 F60.000
G2 X6.655 Y103.717 Z-8.000 I-0.345 J0.717 K0.000 F120.000
G2 X7.345 Y102.283 Z-8.000 I0.345 J-0.717 K0.000 F120.000
G1 X7.345 Y102.283 Z-9.000 F60.000
G2 X6.655 Y103.717 Z-9.000 I-0.345 J0.717 K0.000 F120.000
G2 X7.345 Y102.283 Z-9.000 I0.345 J-0.717 K0.000 F120.000
G1 X7.345 Y102.283 Z-10.000 F60.000
G2 X6.655 Y103.717 Z-10.000 I-0.345 J0.717 K0.000 F120.000
G2 X7.345 Y102.283 Z-10.000 I0.345 J-0.717 K0.000 F120.000
G0 Z2.000
G0 Z2.000
(Finish operation: Profile051)
(Begin operation: Profile052)
(Path: Profile052)
(Profile052)
(Compensated Tool Path. Diameter: 1.4)
G0 Z2.000
G0 X123.000 Y28.700
G1 X123.000 Y28.700 Z-1.000 F60.000
G1 X125.000 Y28.700 Z-1.000 F120.000
G0 Z2.000
G0 X123.000 Y28.700
G1 X123.000 Y28.700 Z-2.000 F60.000
G1 X125.000 Y28.700 Z-2.000 F120.000
G0 Z2.000
G0 X123.000 Y28.700
G1 X123.000 Y28.700 Z-3.000 F60.000
G1 X125.000 Y28.700 Z-3.000 F120.000
G0 Z2.000
G0 X123.000 Y28.700
G1 X123.000 Y28.700 Z-4.000 F60.000
G1 X125.000 Y28.700 Z-4.000 F120.000
G0 Z2.000
G0 X123.000 Y28.700
G1 X123.000 Y28.700 Z-5.000 F60.000
G1 X125.000 Y28.700 Z-5.000 F120.000
G0 Z2.000
G0 X123.000 Y28.700
G1 X123.000 Y28.700 Z-6.000 F60.000
G1 X125.000 Y28.700 Z-6.000 F120.000
G0 Z2.000
G0 X123.000 Y28.700
G1 X123.000 Y28.700 Z-7.000 F60.000
G1 X125.000 Y28.700 Z-7.000 F120.000
G0 Z2.000
G0 X123.000 Y28.700
G1 X123.000 Y28.700 Z-8.000 F60.000
G1 X125.000 Y28.700 Z-8.000 F120.000
G0 Z2.000
G0 X123.000 Y28.700
G1 X123.000 Y28.700 Z-9.000 F60.000
G1 X125.000 Y28.700 Z-9.000 F120.000
G0 Z2.000
G0 X123.000 Y28.700
G1 X123.000 Y28.700 Z-10.000 F60.000
G1 X125.000 Y28.700 Z-10.000 F120.000
G0 Z2.000
G0 Z2.000
G0 X125.000 Y28.700
G0 X149.249 Y20.261
G0 X149.249 Y20.261
G1 X149.249 Y20.261 Z-1.000 F60.000
G2 X149.655 Y20.717 Z-1.000 I0.751 J-0.261 K0.000 F120.000
G2 X150.345 Y19.283 Z-1.000 I0.345 J-0.717 K0.000 F120.000
G2 X149.249 Y20.261 Z-1.000 I-0.345 J0.717 K0.000 F120.000
G1 X149.249 Y20.261 Z-2.000 F60.000
G2 X149.655 Y20.717 Z-2.000 I0.751 J-0.261 K0.000 F120.000
G2 X150.345 Y19.283 Z-2.000 I0.345 J-0.717 K0.000 F120.000
G2 X149.249 Y20.261 Z-2.000 I-0.345 J0.717 K0.000 F120.000
G1 X149.249 Y20.261 Z-3.000 F60.000
G2 X149.655 Y20.717 Z-3.000 I0.751 J-0.261 K0.000 F120.000
G2 X150.345 Y19.283 Z-3.000 I0.345 J-0.717 K0.000 F120.000
G2 X149.249 Y20.261 Z-3.000 I-0.345 J0.717 K0.000 F120.000
G1 X149.249 Y20.261 Z-4.000 F60.000
G2 X149.655 Y20.717 Z-4.000 I0.751 J-0.261 K0.000 F120.000
G2 X150.345 Y19.283 Z-4.000 I0.345 J-0.717 K0.000 F120.000
G2 X149.249 Y20.261 Z-4.000 I-0.345 J0.717 K0.000 F120.000
G1 X149.249 Y20.261 Z-5.000 F60.000
G2 X149.655 Y20.717 Z-5.000 I0.751 J-0.261 K0.000 F120.000
G2 X150.345 Y19.283 Z-5.000 I0.345 J-0.717 K0.000 F120.000
G2 X149.249 Y20.261 Z-5.000 I-0.345 J0.717 K0.000 F120.000
G1 X149.249 Y20.261 Z-6.000 F60.000
G2 X149.655 Y20.717 Z-6.000 I0.751 J-0.261 K0.000 F120.000
G2 X150.345 Y19.283 Z-6.000 I0.345 J-0.717 K0.000 F120.000
G2 X149.249 Y20.261 Z-6.000 I-0.345 J0.717 K0.000 F120.000
G1 X149.249 Y20.261 Z-7.000 F60.000
G2 X149.655 Y20.717 Z-7.000 I0.751 J-0.261 K0.000 F120.000
G2 X150.345 Y19.283 Z-7.000 I0.345 J-0.717 K0.000 F120.000
G2 X149.249 Y20.261 Z-7.000 I-0.345 J0.717 K0.000 F120.000
G1 X149.249 Y20.261 Z-8.000 F60.000
G2 X149.655 Y20.717 Z-8.000 I0.751 J-0.261 K0.000 F120.000
G2 X150.345 Y19.283 Z-8.000 I0.345 J-0.717 K0.000 F120.000
G2 X149.249 Y20.261 Z-8.000 I-0.345 J0.717 K0.000 F120.000
G1 X149.249 Y20.261 Z-9.000 F60.000
G2 X149.655 Y20.717 Z-9.000 I0.751 J-0.261 K0.000 F120.000
G2 X150.345 Y19.283 Z-9.000 I0.345 J-0.717 K0.000 F120.000
G2 X149.249 Y20.261 Z-9.000 I-0.345 J0.717 K0.000 F120.000
G1 X149.249 Y20.261 Z-10.000 F60.000
G2 X149.655 Y20.717 Z-10.000 I0.751 J-0.261 K0.000 F120.000
G2 X150.345 Y19.283 Z-10.000 I0.345 J-0.717 K0.000 F120.000
G2 X149.249 Y20.261 Z-10.000 I-0.345 J0.717 K0.000 F120.000
G0 Z2.000
G0 Z2.000
G0 X149.249 Y20.261
G0 X125.000 Y28.700
G0 X125.000 Y28.700
G1 X125.000 Y28.700 Z-1.000 F60.000
G1 X148.954 Y28.700 Z-1.000 F120.000
G1 X149.076 Y28.716 Z-1.000 F120.000
G1 X149.147 Y28.745 Z-1.000 F120.000
G1 X149.208 Y28.792 Z-1.000 F120.000
G1 X149.255 Y28.853 Z-1.000 F120.000
G1 X149.284 Y28.924 Z-1.000 F120.000
G1 X149.300 Y29.046 Z-1.000 F120.000
G1 X149.300 Y98.954 Z-1.000 F120.000
G1 X149.284 Y99.076 Z-1.000 F120.000
G1 X149.255 Y99.147 Z-1.000 F120.000
G1 X149.208 Y99.208 Z-1.000 F120.000
G1 X149.147 Y99.255 Z-1.000 F120.000
G1 X149.076 Y99.284 Z-1.000 F120.000
G1 X148.954 Y99.300 Z-1.000 F120.000
G1 X108.046 Y99.300 Z-1.000 F120.000
G1 X107.924 Y99.284 Z-1.000 F120.000
G1 X107.853 Y99.255 Z-1.000 F120.000
G1 X107.792 Y99.208 Z-1.000 F120.000
G1 X107.745 Y99.147 Z-1.000 F120.000
G1 X107.716 Y99.076 Z-1.000 F120.000
G1 X107.700 Y98.954 Z-1.000 F120.000
G1 X107.694 Y36.909 Z-1.000 F120.000
G1 X107.660 Y36.650 Z-1.000 F120.000
G1 X107.613 Y36.473 Z-1.000 F120.000
G1 X107.513 Y36.232 Z-1.000 F120.000
G1 X107.421 Y36.074 Z-1.000 F120.000
G1 X107.262 Y35.867 Z-1.000 F120.000
G1 X107.133 Y35.738 Z-1.000 F120.000
G1 X106.926 Y35.579 Z-1.000 F120.000
G1 X106.768 Y35.487 Z-1.000 F120.000
G1 X106.527 Y35.387 Z-1.000 F120.000
G1 X106.350 Y35.340 Z-1.000 F120.000
G1 X106.000 Y35.300 Z-1.000 F120.000
G1 X96.046 Y35.300 Z-1.000 F120.000
G1 X95.924 Y35.284 Z-1.000 F120.000
G1 X95.853 Y35.255 Z-1.000 F120.000
G1 X95.792 Y35.208 Z-1.000 F120.000
G1 X95.745 Y35.147 Z-1.000 F120.000
G1 X95.716 Y35.076 Z-1.000 F120.000
G1 X95.700 Y34.954 Z-1.000 F120.000
G1 X95.700 Y29.046 Z-1.000 F120.000
G1 X95.716 Y28.924 Z-1.000 F120.000
G1 X95.745 Y28.853 Z-1.000 F120.000
G1 X95.792 Y28.792 Z-1.000 F120.000
G1 X95.853 Y28.745 Z-1.000 F120.000
G1 X95.924 Y28.716 Z-1.000 F120.000
G1 X96.046 Y28.700 Z-1.000 F120.000
G1 X123.000 Y28.700 Z-1.000 F120.000
G0 Z2.000
G0 X149.249 Y20.261
G0 X125.000 Y28.700
G0 X125.000 Y28.700
G1 X125.000 Y28.700 Z-2.000 F60.000
G1 X148.954 Y28.700 Z-2.000 F120.000
G1 X149.076 Y28.716 Z-2.000 F120.000
G1 X149.147 Y28.745 Z-2.000 F120.000
G1 X149.208 Y28.792 Z-2.000 F120.000
G1 X149.255 Y28.853 Z-2.000 F120.000
G1 X149.284 Y28.924 Z-2.000 F120.000
G1 X149.300 Y29.046 Z-2.000 F120.000
G1 X149.300 Y98.954 Z-2.000 F120.000
G1 X149.284 Y99.076 Z-2.000 F120.000
G1 X149.255 Y99.147 Z-2.000 F120.000
G1 X149.208 Y99.208 Z-2.000 F120.000
G1 X149.147 Y99.255 Z-2.000 F120.000
G1 X149.076 Y99.284 Z-2.000 F120.000
G1 X148.954 Y99.300 Z-2.000 F120.000
G1 X108.046 Y99.300 Z-2.000 F120.000
G1 X107.924 Y99.284 Z-2.000 F120.000
G1 X107.853 Y99.255 Z-2.000 F120.000
G1 X107.792 Y99.208 Z-2.000 F120.000
G1 X107.745 Y99.147 Z-2.000 F120.000
G1 X107.716 Y99.076 Z-2.000 F120.000
G1 X107.700 Y98.954 Z-2.000 F120.000
G1 X107.694 Y36.909 Z-2.000 F120.000
G1 X107.660 Y36.650 Z-2.000 F120.000
G1 X107.613 Y36.473 Z-2.000 F120.000
G1 X107.513 Y36.232 Z-2.000 F120.000
G1 X107.421 Y36.074 Z-2.000 F120.000
G1 X107.262 Y35.867 Z-2.000 F120.000
G1 X107.133 Y35.738 Z-2.000 F120.000
G1 X106.926 Y35.579 Z-2.000 F120.000
G1 X106.768 Y35.487 Z-2.000 F120.000
G1 X106.527 Y35.387 Z-2.000 F120.000
G1 X106.350 Y35.340 Z-2.000 F120.000
G1 X106.000 Y35.300 Z-2.000 F120.000
G1 X96.046 Y35.300 Z-2.000 F120.000
G1 X95.924 Y35.284 Z-2.000 F120.000
G1 X95.853 Y35.255 Z-2.000 F120.000
G1 X95.792 Y35.208 Z-2.000 F120.000
G1 X95.745 Y35.147 Z-2.000 F120.000
G1 X95.716 Y35.076 Z-2.000 F120.000
G1 X95.700 Y34.954 Z-2.000 F120.000
G1 X95.700 Y29.046 Z-2.000 F120.000
G1 X95.716 Y28.924 Z-2.000 F120.000
G1 X95.745 Y28.853 Z-2.000 F120.000
G1 X95.792 Y28.792 Z-2.000 F120.000
G1 X95.853 Y28.745 Z-2.000 F120.000
G1 X95.924 Y28.716 Z-2.000 F120.000
G1 X96.046 Y28.700 Z-2.000 F120.000
G1 X123.000 Y28.700 Z-2.000 F120.000
G0 Z2.000
G0 X149.249 Y20.261
G0 X125.000 Y28.700
G0 X125.000 Y28.700
G1 X125.000 Y28.700 Z-3.000 F60.000
G1 X148.954 Y28.700 Z-3.000 F120.000
G1 X149.076 Y28.716 Z-3.000 F120.000
G1 X149.147 Y28.745 Z-3.000 F120.000
G1 X149.208 Y28.792 Z-3.000 F120.000
G1 X149.255 Y28.853 Z-3.000 F120.000
G1 X149.284 Y28.924 Z-3.000 F120.000
G1 X149.300 Y29.046 Z-3.000 F120.000
G1 X149.300 Y98.954 Z-3.000 F120.000
G1 X149.284 Y99.076 Z-3.000 F120.000
G1 X149.255 Y99.147 Z-3.000 F120.000
G1 X149.208 Y99.208 Z-3.000 F120.000
G1 X149.147 Y99.255 Z-3.000 F120.000
G1 X149.076 Y99.284 Z-3.000 F120.000
G1 X148.954 Y99.300 Z-3.000 F120.000
G1 X108.046 Y99.300 Z-3.000 F120.000
G1 X107.924 Y99.284 Z-3.000 F120.000
G1 X107.853 Y99.255 Z-3.000 F120.000
G1 X107.792 Y99.208 Z-3.000 F120.000
G1 X107.745 Y99.147 Z-3.000 F120.000
G1 X107.716 Y99.076 Z-3.000 F120.000
G1 X107.700 Y98.954 Z-3.000 F120.000
G1 X107.694 Y36.909 Z-3.000 F120.000
G1 X107.660 Y36.650 Z-3.000 F120.000
G1 X107.613 Y36.473 Z-3.000 F120.000
G1 X107.513 Y36.232 Z-3.000 F120.000
G1 X107.421 Y36.074 Z-3.000 F120.000
G1 X107.262 Y35.867 Z-3.000 F120.000
G1 X107.133 Y35.738 Z-3.000 F120.000
G1 X106.926 Y35.579 Z-3.000 F120.000
G1 X106.768 Y35.487 Z-3.000 F120.000
G1 X106.527 Y35.387 Z-3.000 F120.000
G1 X106.350 Y35.340 Z-3.000 F120.000
G1 X106.000 Y35.300 Z-3.000 F120.000
G1 X96.046 Y35.300 Z-3.000 F120.000
G1 X95.924 Y35.284 Z-3.000 F120.000
G1 X95.853 Y35.255 Z-3.000 F120.000
G1 X95.792 Y35.208 Z-3.000 F120.000
G1 X95.745 Y35.147 Z-3.000 F120.000
G1 X95.716 Y35.076 Z-3.000 F120.000
G1 X95.700 Y34.954 Z-3.000 F120.000
G1 X95.700 Y29.046 Z-3.000 F120.000
G1 X95.716 Y28.924 Z-3.000 F120.000
G1 X95.745 Y28.853 Z-3.000 F120.000
G1 X95.792 Y28.792 Z-3.000 F120.000
G1 X95.853 Y28.745 Z-3.000 F120.000
G1 X95.924 Y28.716 Z-3.000 F120.000
G1 X96.046 Y28.700 Z-3.000 F120.000
G1 X123.000 Y28.700 Z-3.000 F120.000
G0 Z2.000
G0 X149.249 Y20.261
G0 X125.000 Y28.700
G0 X125.000 Y28.700
G1 X125.000 Y28.700 Z-4.000 F60.000
G1 X148.954 Y28.700 Z-4.000 F120.000
G1 X149.076 Y28.716 Z-4.000 F120.000
G1 X149.147 Y28.745 Z-4.000 F120.000
G1 X149.208 Y28.792 Z-4.000 F120.000
G1 X149.255 Y28.853 Z-4.000 F120.000
G1 X149.284 Y28.924 Z-4.000 F120.000
G1 X149.300 Y29.046 Z-4.000 F120.000
G1 X149.300 Y98.954 Z-4.000 F120.000
G1 X149.284 Y99.076 Z-4.000 F120.000
G1 X149.255 Y99.147 Z-4.000 F120.000
G1 X149.208 Y99.208 Z-4.000 F120.000
G1 X149.147 Y99.255 Z-4.000 F120.000
G1 X149.076 Y99.284 Z-4.000 F120.000
G1 X148.954 Y99.300 Z-4.000 F120.000
G1 X108.046 Y99.300 Z-4.000 F120.000
G1 X107.924 Y99.284 Z-4.000 F120.000
G1 X107.853 Y99.255 Z-4.000 F120.000
G1 X107.792 Y99.208 Z-4.000 F120.000
G1 X107.745 Y99.147 Z-4.000 F120.000
G1 X107.716 Y99.076 Z-4.000 F120.000
G1 X107.700 Y98.954 Z-4.000 F120.000
G1 X107.694 Y36.909 Z-4.000 F120.000
G1 X107.660 Y36.650 Z-4.000 F120.000
G1 X107.613 Y36.473 Z-4.000 F120.000
G1 X107.513 Y36.232 Z-4.000 F120.000
G1 X107.421 Y36.074 Z-4.000 F120.000
G1 X107.262 Y35.867 Z-4.000 F120.000
G1 X107.133 Y35.738 Z-4.000 F120.000
G1 X106.926 Y35.579 Z-4.000 F120.000
G1 X106.768 Y35.487 Z-4.000 F120.000
G1 X106.527 Y35.387 Z-4.000 F120.000
G1 X106.350 Y35.340 Z-4.000 F120.000
G1 X106.000 Y35.300 Z-4.000 F120.000
G1 X96.046 Y35.300 Z-4.000 F120.000
G1 X95.924 Y35.284 Z-4.000 F120.000
G1 X95.853 Y35.255 Z-4.000 F120.000
G1 X95.792 Y35.208 Z-4.000 F120.000
G1 X95.745 Y35.147 Z-4.000 F120.000
G1 X95.716 Y35.076 Z-4.000 F120.000
G1 X95.700 Y34.954 Z-4.000 F120.000
G1 X95.700 Y29.046 Z-4.000 F120.000
G1 X95.716 Y28.924 Z-4.000 F120.000
G1 X95.745 Y28.853 Z-4.000 F120.000
G1 X95.792 Y28.792 Z-4.000 F120.000
G1 X95.853 Y28.745 Z-4.000 F120.000
G1 X95.924 Y28.716 Z-4.000 F120.000
G1 X96.046 Y28.700 Z-4.000 F120.000
G1 X123.000 Y28.700 Z-4.000 F120.000
G0 Z2.000
G0 X149.249 Y20.261
G0 X125.000 Y28.700
G0 X125.000 Y28.700
G1 X125.000 Y28.700 Z-5.000 F60.000
G1 X148.954 Y28.700 Z-5.000 F120.000
G1 X149.076 Y28.716 Z-5.000 F120.000
G1 X149.147 Y28.745 Z-5.000 F120.000
G1 X149.208 Y28.792 Z-5.000 F120.000
G1 X149.255 Y28.853 Z-5.000 F120.000
G1 X149.284 Y28.924 Z-5.000 F120.000
G1 X149.300 Y29.046 Z-5.000 F120.000
G1 X149.300 Y98.954 Z-5.000 F120.000
G1 X149.284 Y99.076 Z-5.000 F120.000
G1 X149.255 Y99.147 Z-5.000 F120.000
G1 X149.208 Y99.208 Z-5.000 F120.000
G1 X149.147 Y99.255 Z-5.000 F120.000
G1 X149.076 Y99.284 Z-5.000 F120.000
G1 X148.954 Y99.300 Z-5.000 F120.000
G1 X108.046 Y99.300 Z-5.000 F120.000
G1 X107.924 Y99.284 Z-5.000 F120.000
G1 X107.853 Y99.255 Z-5.000 F120.000
G1 X107.792 Y99.208 Z-5.000 F120.000
G1 X107.745 Y99.147 Z-5.000 F120.000
G1 X107.716 Y99.076 Z-5.000 F120.000
G1 X107.700 Y98.954 Z-5.000 F120.000
G1 X107.694 Y36.909 Z-5.000 F120.000
G1 X107.660 Y36.650 Z-5.000 F120.000
G1 X107.613 Y36.473 Z-5.000 F120.000
G1 X107.513 Y36.232 Z-5.000 F120.000
G1 X107.421 Y36.074 Z-5.000 F120.000
G1 X107.262 Y35.867 Z-5.000 F120.000
G1 X107.133 Y35.738 Z-5.000 F120.000
G1 X106.926 Y35.579 Z-5.000 F120.000
G1 X106.768 Y35.487 Z-5.000 F120.000
G1 X106.527 Y35.387 Z-5.000 F120.000
G1 X106.350 Y35.340 Z-5.000 F120.000
G1 X106.000 Y35.300 Z-5.000 F120.000
G1 X96.046 Y35.300 Z-5.000 F120.000
G1 X95.924 Y35.284 Z-5.000 F120.000
G1 X95.853 Y35.255 Z-5.000 F120.000
G1 X95.792 Y35.208 Z-5.000 F120.000
G1 X95.745 Y35.147 Z-5.000 F120.000
G1 X95.716 Y35.076 Z-5.000 F120.000
G1 X95.700 Y34.954 Z-5.000 F120.000
G1 X95.700 Y29.046 Z-5.000 F120.000
G1 X95.716 Y28.924 Z-5.000 F120.000
G1 X95.745 Y28.853 Z-5.000 F120.000
G1 X95.792 Y28.792 Z-5.000 F120.000
G1 X95.853 Y28.745 Z-5.000 F120.000
G1 X95.924 Y28.716 Z-5.000 F120.000
G1 X96.046 Y28.700 Z-5.000 F120.000
G1 X123.000 Y28.700 Z-5.000 F120.000
G0 Z2.000
G0 X149.249 Y20.261
G0 X125.000 Y28.700
G0 X125.000 Y28.700
G1 X125.000 Y28.700 Z-6.000 F60.000
G1 X148.954 Y28.700 Z-6.000 F120.000
G1 X149.076 Y28.716 Z-6.000 F120.000
G1 X149.147 Y28.745 Z-6.000 F120.000
G1 X149.208 Y28.792 Z-6.000 F120.000
G1 X149.255 Y28.853 Z-6.000 F120.000
G1 X149.284 Y28.924 Z-6.000 F120.000
G1 X149.300 Y29.046 Z-6.000 F120.000
G1 X149.300 Y98.954 Z-6.000 F120.000
G1 X149.284 Y99.076 Z-6.000 F120.000
G1 X149.255 Y99.147 Z-6.000 F120.000
G1 X149.208 Y99.208 Z-6.000 F120.000
G1 X149.147 Y99.255 Z-6.000 F120.000
G1 X149.076 Y99.284 Z-6.000 F120.000
G1 X148.954 Y99.300 Z-6.000 F120.000
G1 X108.046 Y99.300 Z-6.000 F120.000
G1 X107.924 Y99.284 Z-6.000 F120.000
G1 X107.853 Y99.255 Z-6.000 F120.000
G1 X107.792 Y99.208 Z-6.000 F120.000
G1 X107.745 Y99.147 Z-6.000 F120.000
G1 X107.716 Y99.076 Z-6.000 F120.000
G1 X107.700 Y98.954 Z-6.000 F120.000
G1 X107.694 Y36.909 Z-6.000 F120.000
G1 X107.660 Y36.650 Z-6.000 F120.000
G1 X107.613 Y36.473 Z-6.000 F120.000
G1 X107.513 Y36.232 Z-6.000 F120.000
G1 X107.421 Y36.074 Z-6.000 F120.000
G1 X107.262 Y35.867 Z-6.000 F120.000
G1 X107.133 Y35.738 Z-6.000 F120.000
G1 X106.926 Y35.579 Z-6.000 F120.000
G1 X106.768 Y35.487 Z-6.000 F120.000
G1 X106.527 Y35.387 Z-6.000 F120.000
G1 X106.350 Y35.340 Z-6.000 F120.000
G1 X106.000 Y35.300 Z-6.000 F120.000
G1 X96.046 Y35.300 Z-6.000 F120.000
G1 X95.924 Y35.284 Z-6.000 F120.000
G1 X95.853 Y35.255 Z-6.000 F120.000
G1 X95.792 Y35.208 Z-6.000 F120.000
G1 X95.745 Y35.147 Z-6.000 F120.000
G1 X95.716 Y35.076 Z-6.000 F120.000
G1 X95.700 Y34.954 Z-6.000 F120.000
G1 X95.700 Y29.046 Z-6.000 F120.000
G1 X95.716 Y28.924 Z-6.000 F120.000
G1 X95.745 Y28.853 Z-6.000 F120.000
G1 X95.792 Y28.792 Z-6.000 F120.000
G1 X95.853 Y28.745 Z-6.000 F120.000
G1 X95.924 Y28.716 Z-6.000 F120.000
G1 X96.046 Y28.700 Z-6.000 F120.000
G1 X123.000 Y28.700 Z-6.000 F120.000
G0 Z2.000
G0 X149.249 Y20.261
G0 X125.000 Y28.700
G0 X125.000 Y28.700
G1 X125.000 Y28.700 Z-7.000 F60.000
G1 X148.954 Y28.700 Z-7.000 F120.000
G1 X149.076 Y28.716 Z-7.000 F120.000
G1 X149.147 Y28.745 Z-7.000 F120.000
G1 X149.208 Y28.792 Z-7.000 F120.000
G1 X149.255 Y28.853 Z-7.000 F120.000
G1 X149.284 Y28.924 Z-7.000 F120.000
G1 X149.300 Y29.046 Z-7.000 F120.000
G1 X149.300 Y98.954 Z-7.000 F120.000
G1 X149.284 Y99.076 Z-7.000 F120.000
G1 X149.255 Y99.147 Z-7.000 F120.000
G1 X149.208 Y99.208 Z-7.000 F120.000
G1 X149.147 Y99.255 Z-7.000 F120.000
G1 X149.076 Y99.284 Z-7.000 F120.000
G1 X148.954 Y99.300 Z-7.000 F120.000
G1 X108.046 Y99.300 Z-7.000 F120.000
G1 X107.924 Y99.284 Z-7.000 F120.000
G1 X107.853 Y99.255 Z-7.000 F120.000
G1 X107.792 Y99.208 Z-7.000 F120.000
G1 X107.745 Y99.147 Z-7.000 F120.000
G1 X107.716 Y99.076 Z-7.000 F120.000
G1 X107.700 Y98.954 Z-7.000 F120.000
G1 X107.694 Y36.909 Z-7.000 F120.000
G1 X107.660 Y36.650 Z-7.000 F120.000
G1 X107.613 Y36.473 Z-7.000 F120.000
G1 X107.513 Y36.232 Z-7.000 F120.000
G1 X107.421 Y36.074 Z-7.000 F120.000
G1 X107.262 Y35.867 Z-7.000 F120.000
G1 X107.133 Y35.738 Z-7.000 F120.000
G1 X106.926 Y35.579 Z-7.000 F120.000
G1 X106.768 Y35.487 Z-7.000 F120.000
G1 X106.527 Y35.387 Z-7.000 F120.000
G1 X106.350 Y35.340 Z-7.000 F120.000
G1 X106.000 Y35.300 Z-7.000 F120.000
G1 X96.046 Y35.300 Z-7.000 F120.000
G1 X95.924 Y35.284 Z-7.000 F120.000
G1 X95.853 Y35.255 Z-7.000 F120.000
G1 X95.792 Y35.208 Z-7.000 F120.000
G1 X95.745 Y35.147 Z-7.000 F120.000
G1 X95.716 Y35.076 Z-7.000 F120.000
G1 X95.700 Y34.954 Z-7.000 F120.000
G1 X95.700 Y29.046 Z-7.000 F120.000
G1 X95.716 Y28.924 Z-7.000 F120.000
G1 X95.745 Y28.853 Z-7.000 F120.000
G1 X95.792 Y28.792 Z-7.000 F120.000
G1 X95.853 Y28.745 Z-7.000 F120.000
G1 X95.924 Y28.716 Z-7.000 F120.000
G1 X96.046 Y28.700 Z-7.000 F120.000
G1 X123.000 Y28.700 Z-7.000 F120.000
G0 Z2.000
G0 X149.249 Y20.261
G0 X125.000 Y28.700
G0 X125.000 Y28.700
G1 X125.000 Y28.700 Z-8.000 F60.000
G1 X148.954 Y28.700 Z-8.000 F120.000
G1 X149.076 Y28.716 Z-8.000 F120.000
G1 X149.147 Y28.745 Z-8.000 F120.000
G1 X149.208 Y28.792 Z-8.000 F120.000
G1 X149.255 Y28.853 Z-8.000 F120.000
G1 X149.284 Y28.924 Z-8.000 F120.000
G1 X149.300 Y29.046 Z-8.000 F120.000
G1 X149.300 Y98.954 Z-8.000 F120.000
G1 X149.284 Y99.076 Z-8.000 F120.000
G1 X149.255 Y99.147 Z-8.000 F120.000
G1 X149.208 Y99.208 Z-8.000 F120.000
G1 X149.147 Y99.255 Z-8.000 F120.000
G1 X149.076 Y99.284 Z-8.000 F120.000
G1 X148.954 Y99.300 Z-8.000 F120.000
G1 X108.046 Y99.300 Z-8.000 F120.000
G1 X107.924 Y99.284 Z-8.000 F120.000
G1 X107.853 Y99.255 Z-8.000 F120.000
G1 X107.792 Y99.208 Z-8.000 F120.000
G1 X107.745 Y99.147 Z-8.000 F120.000
G1 X107.716 Y99.076 Z-8.000 F120.000
G1 X107.700 Y98.954 Z-8.000 F120.000
G1 X107.694 Y36.909 Z-8.000 F120.000
G1 X107.660 Y36.650 Z-8.000 F120.000
G1 X107.613 Y36.473 Z-8.000 F120.000
G1 X107.513 Y36.232 Z-8.000 F120.000
G1 X107.421 Y36.074 Z-8.000 F120.000
G1 X107.262 Y35.867 Z-8.000 F120.000
G1 X107.133 Y35.738 Z-8.000 F120.000
G1 X106.926 Y35.579 Z-8.000 F120.000
G1 X106.768 Y35.487 Z-8.000 F120.000
G1 X106.527 Y35.387 Z-8.000 F120.000
G1 X106.350 Y35.340 Z-8.000 F120.000
G1 X106.000 Y35.300 Z-8.000 F120.000
G1 X96.046 Y35.300 Z-8.000 F120.000
G1 X95.924 Y35.284 Z-8.000 F120.000
G1 X95.853 Y35.255 Z-8.000 F120.000
G1 X95.792 Y35.208 Z-8.000 F120.000
G1 X95.745 Y35.147 Z-8.000 F120.000
G1 X95.716 Y35.076 Z-8.000 F120.000
G1 X95.700 Y34.954 Z-8.000 F120.000
G1 X95.700 Y29.046 Z-8.000 F120.000
G1 X95.716 Y28.924 Z-8.000 F120.000
G1 X95.745 Y28.853 Z-8.000 F120.000
G1 X95.792 Y28.792 Z-8.000 F120.000
G1 X95.853 Y28.745 Z-8.000 F120.000
G1 X95.924 Y28.716 Z-8.000 F120.000
G1 X96.046 Y28.700 Z-8.000 F120.000
G1 X123.000 Y28.700 Z-8.000 F120.000
G0 Z2.000
G0 X149.249 Y20.261
G0 X125.000 Y28.700
G0 X125.000 Y28.700
G1 X125.000 Y28.700 Z-9.000 F60.000
G1 X148.954 Y28.700 Z-9.000 F120.000
G1 X149.076 Y28.716 Z-9.000 F120.000
G1 X149.147 Y28.745 Z-9.000 F120.000
G1 X149.208 Y28.792 Z-9.000 F120.000
G1 X149.255 Y28.853 Z-9.000 F120.000
G1 X149.284 Y28.924 Z-9.000 F120.000
G1 X149.300 Y29.046 Z-9.000 F120.000
G1 X149.300 Y98.954 Z-9.000 F120.000
G1 X149.284 Y99.076 Z-9.000 F120.000
G1 X149.255 Y99.147 Z-9.000 F120.000
G1 X149.208 Y99.208 Z-9.000 F120.000
G1 X149.147 Y99.255 Z-9.000 F120.000
G1 X149.076 Y99.284 Z-9.000 F120.000
G1 X148.954 Y99.300 Z-9.000 F120.000
G1 X108.046 Y99.300 Z-9.000 F120.000
G1 X107.924 Y99.284 Z-9.000 F120.000
G1 X107.853 Y99.255 Z-9.000 F120.000
G1 X107.792 Y99.208 Z-9.000 F120.000
G1 X107.745 Y99.147 Z-9.000 F120.000
G1 X107.716 Y99.076 Z-9.000 F120.000
G1 X107.700 Y98.954 Z-9.000 F120.000
G1 X107.694 Y36.909 Z-9.000 F120.000
G1 X107.660 Y36.650 Z-9.000 F120.000
G1 X107.613 Y36.473 Z-9.000 F120.000
G1 X107.513 Y36.232 Z-9.000 F120.000
G1 X107.421 Y36.074 Z-9.000 F120.000
G1 X107.262 Y35.867 Z-9.000 F120.000
G1 X107.133 Y35.738 Z-9.000 F120.000
G1 X106.926 Y35.579 Z-9.000 F120.000
G1 X106.768 Y35.487 Z-9.000 F120.000
G1 X106.527 Y35.387 Z-9.000 F120.000
G1 X106.350 Y35.340 Z-9.000 F120.000
G1 X106.000 Y35.300 Z-9.000 F120.000
G1 X96.046 Y35.300 Z-9.000 F120.000
G1 X95.924 Y35.284 Z-9.000 F120.000
G1 X95.853 Y35.255 Z-9.000 F120.000
G1 X95.792 Y35.208 Z-9.000 F120.000
G1 X95.745 Y35.147 Z-9.000 F120.000
G1 X95.716 Y35.076 Z-9.000 F120.000
G1 X95.700 Y34.954 Z-9.000 F120.000
G1 X95.700 Y29.046 Z-9.000 F120.000
G1 X95.716 Y28.924 Z-9.000 F120.000
G1 X95.745 Y28.853 Z-9.000 F120.000
G1 X95.792 Y28.792 Z-9.000 F120.000
G1 X95.853 Y28.745 Z-9.000 F120.000
G1 X95.924 Y28.716 Z-9.000 F120.000
G1 X96.046 Y28.700 Z-9.000 F120.000
G1 X123.000 Y28.700 Z-9.000 F120.000
G0 Z2.000
G0 X149.249 Y20.261
G0 X125.000 Y28.700
G0 X125.000 Y28.700
G1 X125.000 Y28.700 Z-10.000 F60.000
G1 X148.954 Y28.700 Z-10.000 F120.000
G1 X149.076 Y28.716 Z-10.000 F120.000
G1 X149.147 Y28.745 Z-10.000 F120.000
G1 X149.208 Y28.792 Z-10.000 F120.000
G1 X149.255 Y28.853 Z-10.000 F120.000
G1 X149.284 Y28.924 Z-10.000 F120.000
G1 X149.300 Y29.046 Z-10.000 F120.000
G1 X149.300 Y98.954 Z-10.000 F120.000
G1 X149.284 Y99.076 Z-10.000 F120.000
G1 X149.255 Y99.147 Z-10.000 F120.000
G1 X149.208 Y99.208 Z-10.000 F120.000
G1 X149.147 Y99.255 Z-10.000 F120.000
G1 X149.076 Y99.284 Z-10.000 F120.000
G1 X148.954 Y99.300 Z-10.000 F120.000
G1 X108.046 Y99.300 Z-10.000 F120.000
G1 X107.924 Y99.284 Z-10.000 F120.000
G1 X107.853 Y99.255 Z-10.000 F120.000
G1 X107.792 Y99.208 Z-10.000 F120.000
G1 X107.745 Y99.147 Z-10.000 F120.000
G1 X107.716 Y99.076 Z-10.000 F120.000
G1 X107.700 Y98.954 Z-10.000 F120.000
G1 X107.694 Y36.909 Z-10.000 F120.000
G1 X107.660 Y36.650 Z-10.000 F120.000
G1 X107.613 Y36.473 Z-10.000 F120.000
G1 X107.513 Y36.232 Z-10.000 F120.000
G1 X107.421 Y36.074 Z-10.000 F120.000
G1 X107.262 Y35.867 Z-10.000 F120.000
G1 X107.133 Y35.738 Z-10.000 F120.000
G1 X106.926 Y35.579 Z-10.000 F120.000
G1 X106.768 Y35.487 Z-10.000 F120.000
G1 X106.527 Y35.387 Z-10.000 F120.000
G1 X106.350 Y35.340 Z-10.000 F120.000
G1 X106.000 Y35.300 Z-10.000 F120.000
G1 X96.046 Y35.300 Z-10.000 F120.000
G1 X95.924 Y35.284 Z-10.000 F120.000
G1 X95.853 Y35.255 Z-10.000 F120.000
G1 X95.792 Y35.208 Z-10.000 F120.000
G1 X95.745 Y35.147 Z-10.000 F120.000
G1 X95.716 Y35.076 Z-10.000 F120.000
G1 X95.700 Y34.954 Z-10.000 F120.000
G1 X95.700 Y29.046 Z-10.000 F120.000
G1 X95.716 Y28.924 Z-10.000 F120.000
G1 X95.745 Y28.853 Z-10.000 F120.000
G1 X95.792 Y28.792 Z-10.000 F120.000
G1 X95.853 Y28.745 Z-10.000 F120.000
G1 X95.924 Y28.716 Z-10.000 F120.000
G1 X96.046 Y28.700 Z-10.000 F120.000
G1 X123.000 Y28.700 Z-10.000 F120.000
G0 Z2.000
G0 Z2.000
G0 X123.000 Y28.700
G0 X152.702 Y102.262
G0 X152.702 Y102.262
G1 X152.702 Y102.262 Z-1.000 F60.000
G2 X152.655 Y103.717 Z-1.000 I0.298 J0.738 K0.000 F120.000
G2 X153.345 Y102.283 Z-1.000 I0.345 J-0.717 K0.000 F120.000
G2 X152.702 Y102.262 Z-1.000 I-0.345 J0.717 K0.000 F120.000
G1 X152.702 Y102.262 Z-2.000 F60.000
G2 X152.655 Y103.717 Z-2.000 I0.298 J0.738 K0.000 F120.000
G2 X153.345 Y102.283 Z-2.000 I0.345 J-0.717 K0.000 F120.000
G2 X152.702 Y102.262 Z-2.000 I-0.345 J0.717 K0.000 F120.000
G1 X152.702 Y102.262 Z-3.000 F60.000
G2 X152.655 Y103.717 Z-3.000 I0.298 J0.738 K0.000 F120.000
G2 X153.345 Y102.283 Z-3.000 I0.345 J-0.717 K0.000 F120.000
G2 X152.702 Y102.262 Z-3.000 I-0.345 J0.717 K0.000 F120.000
G1 X152.702 Y102.262 Z-4.000 F60.000
G2 X152.655 Y103.717 Z-4.000 I0.298 J0.738 K0.000 F120.000
G2 X153.345 Y102.283 Z-4.000 I0.345 J-0.717 K0.000 F120.000
G2 X152.702 Y102.262 Z-4.000 I-0.345 J0.717 K0.000 F120.000
G1 X152.702 Y102.262 Z-5.000 F60.000
G2 X152.655 Y103.717 Z-5.000 I0.298 J0.738 K0.000 F120.000
G2 X153.345 Y102.283 Z-5.000 I0.345 J-0.717 K0.000 F120.000
G2 X152.702 Y102.262 Z-5.000 I-0.345 J0.717 K0.000 F120.000
G1 X152.702 Y102.262 Z-6.000 F60.000
G2 X152.655 Y103.717 Z-6.000 I0.298 J0.738 K0.000 F120.000
G2 X153.345 Y102.283 Z-6.000 I0.345 J-0.717 K0.000 F120.000
G2 X152.702 Y102.262 Z-6.000 I-0.345 J0.717 K0.000 F120.000
G1 X152.702 Y102.262 Z-7.000 F60.000
G2 X152.655 Y103.717 Z-7.000 I0.298 J0.738 K0.000 F120.000
G2 X153.345 Y102.283 Z-7.000 I0.345 J-0.717 K0.000 F120.000
G2 X152.702 Y102.262 Z-7.000 I-0.345 J0.717 K0.000 F120.000
G1 X152.702 Y102.262 Z-8.000 F60.000
G2 X152.655 Y103.717 Z-8.000 I0.298 J0.738 K0.000 F120.000
G2 X153.345 Y102.283 Z-8.000 I0.345 J-0.717 K0.000 F120.000
G2 X152.702 Y102.262 Z-8.000 I-0.345 J0.717 K0.000 F120.000
G1 X152.702 Y102.262 Z-9.000 F60.000
G2 X152.655 Y103.717 Z-9.000 I0.298 J0.738 K0.000 F120.000
G2 X153.345 Y102.283 Z-9.000 I0.345 J-0.717 K0.000 F120.000
G2 X152.702 Y102.262 Z-9.000 I-0.345 J0.717 K0.000 F120.000
G1 X152.702 Y102.262 Z-10.000 F60.000
G2 X152.655 Y103.717 Z-10.000 I0.298 J0.738 K0.000 F120.000
G2 X153.345 Y102.283 Z-10.000 I0.345 J-0.717 K0.000 F120.000
G2 X152.702 Y102.262 Z-10.000 I-0.345 J0.717 K0.000 F120.000
G0 Z2.000
G0 Z2.000
(Finish operation: Profile052)
(Begin operation: Pocket3D003)
(Path: Pocket3D003)
(Pocket3D003)
G0 Z5.000
G0 X71.931 Y99.292
G0 Z3.000
G1 X71.931 Y99.292 Z-1.000 F60.000
G3 X70.765 Y98.126 Z-1.000 I0.119 J-1.286 K0.000 F120.000
G1 X71.931 Y99.292 Z-1.000 F120.000
G2 X73.919 Y99.300 Z-1.000 I1.069 J-19.017 K0.000 F120.000
G1 X70.750 Y96.131 Z-1.000 F120.000
G1 X70.750 Y94.151 Z-1.000 F120.000
G1 X75.899 Y99.300 Z-1.000 F120.000
G1 X77.879 Y99.300 Z-1.000 F120.000
G1 X70.750 Y92.171 Z-1.000 F120.000
G1 X70.750 Y90.191 Z-1.000 F120.000
G1 X79.859 Y99.300 Z-1.000 F120.000
G1 X81.839 Y99.300 Z-1.000 F120.000
G1 X70.750 Y88.211 Z-1.000 F120.000
G1 X70.750 Y86.231 Z-1.000 F120.000
G1 X83.819 Y99.300 Z-1.000 F120.000
G1 X85.799 Y99.300 Z-1.000 F120.000
G1 X70.750 Y84.252 Z-1.000 F120.000
G1 X70.750 Y82.272 Z-1.000 F120.000
G1 X87.778 Y99.300 Z-1.000 F120.000
G2 X89.080 Y98.622 Z-1.000 I0.133 J-1.334 K0.000 F120.000
G1 X70.750 Y80.292 Z-1.000 F120.000
G1 X70.750 Y78.312 Z-1.000 F120.000
G1 X89.250 Y96.812 Z-1.000 F120.000
G1 X89.250 Y94.832 Z-1.000 F120.000
G1 X70.750 Y76.332 Z-1.000 F120.000
G1 X70.750 Y74.352 Z-1.000 F120.000
G1 X89.250 Y92.852 Z-1.000 F120.000
G1 X89.250 Y90.872 Z-1.000 F120.000
G1 X70.750 Y72.372 Z-1.000 F120.000
G1 X70.750 Y70.392 Z-1.000 F120.000
G1 X89.250 Y88.892 Z-1.000 F120.000
G1 X89.250 Y86.912 Z-1.000 F120.000
G1 X70.750 Y68.412 Z-1.000 F120.000
G1 X70.750 Y66.432 Z-1.000 F120.000
G1 X89.250 Y84.932 Z-1.000 F120.000
G1 X89.250 Y82.952 Z-1.000 F120.000
G1 X70.750 Y64.453 Z-1.000 F120.000
G1 X70.750 Y62.473 Z-1.000 F120.000
G1 X89.250 Y80.972 Z-1.000 F120.000
G1 X89.250 Y78.993 Z-1.000 F120.000
G1 X70.750 Y60.493 Z-1.000 F120.000
G1 X70.750 Y58.513 Z-1.000 F120.000
G1 X89.250 Y77.013 Z-1.000 F120.000
G1 X89.250 Y75.033 Z-1.000 F120.000
G1 X70.750 Y56.533 Z-1.000 F120.000
G1 X70.750 Y54.553 Z-1.000 F120.000
G1 X89.250 Y73.053 Z-1.000 F120.000
G1 X89.250 Y71.073 Z-1.000 F120.000
G1 X70.750 Y52.573 Z-1.000 F120.000
G1 X70.750 Y50.593 Z-1.000 F120.000
G1 X89.250 Y69.093 Z-1.000 F120.000
G1 X89.250 Y67.113 Z-1.000 F120.000
G1 X70.750 Y48.613 Z-1.000 F120.000
G1 X70.750 Y46.633 Z-1.000 F120.000
G1 X89.250 Y65.133 Z-1.000 F120.000
G1 X89.250 Y63.153 Z-1.000 F120.000
G1 X70.750 Y44.654 Z-1.000 F120.000
G1 X70.750 Y42.674 Z-1.000 F120.000
G1 X89.250 Y61.173 Z-1.000 F120.000
G1 X89.250 Y59.194 Z-1.000 F120.000
G1 X70.750 Y40.694 Z-1.000 F120.000
G1 X70.750 Y38.714 Z-1.000 F120.000
G1 X89.250 Y57.214 Z-1.000 F120.000
G1 X89.250 Y55.234 Z-1.000 F120.000
G1 X70.750 Y36.734 Z-1.000 F120.000
G1 X70.750 Y34.754 Z-1.000 F120.000
G1 X89.250 Y53.254 Z-1.000 F120.000
G1 X89.250 Y51.274 Z-1.000 F120.000
G1 X70.750 Y32.774 Z-1.000 F120.000
G1 X70.750 Y32.033 Z-1.000 F120.000
G3 X71.092 Y31.136 Z-1.000 I1.276 J-0.027 K0.000 F120.000
G1 X89.250 Y49.294 Z-1.000 F120.000
G1 X89.250 Y47.314 Z-1.000 F120.000
G1 X72.636 Y30.700 Z-1.000 F120.000
G1 X74.616 Y30.700 Z-1.000 F120.000
G1 X89.250 Y45.334 Z-1.000 F120.000
G1 X89.250 Y43.354 Z-1.000 F120.000
G1 X76.596 Y30.700 Z-1.000 F120.000
G1 X78.575 Y30.700 Z-1.000 F120.000
G1 X89.250 Y41.374 Z-1.000 F120.000
G1 X89.250 Y39.395 Z-1.000 F120.000
G1 X80.555 Y30.700 Z-1.000 F120.000
G1 X82.535 Y30.700 Z-1.000 F120.000
G1 X89.250 Y37.415 Z-1.000 F120.000
G1 X89.250 Y35.435 Z-1.000 F120.000
G1 X84.515 Y30.700 Z-1.000 F120.000
G1 X86.495 Y30.700 Z-1.000 F120.000
G1 X89.250 Y33.455 Z-1.000 F120.000
G1 X89.250 Y32.033 Z-1.000 F120.000
G2 X88.781 Y31.006 Z-1.000 I-1.318 J-0.019 K0.000 F120.000
G0 Z5.000
G0 X88.630 Y31.017 Z5.000
G0 X88.630 Y31.017 Z3.000
G1 X88.630 Y31.017 Z-2.000 F60.000
G3 X89.098 Y32.034 Z-2.000 I-0.834 J1.000 K0.000 F120.000
G1 X89.098 Y33.465 Z-2.000 F120.000
G1 X86.333 Y30.700 Z-2.000 F120.000
G1 X84.353 Y30.700 Z-2.000 F120.000
G1 X89.098 Y35.444 Z-2.000 F120.000
G1 X89.098 Y37.424 Z-2.000 F120.000
G1 X82.374 Y30.700 Z-2.000 F120.000
G1 X80.394 Y30.700 Z-2.000 F120.000
G1 X89.098 Y39.404 Z-2.000 F120.000
G1 X89.098 Y41.384 Z-2.000 F120.000
G1 X78.414 Y30.700 Z-2.000 F120.000
G1 X76.434 Y30.700 Z-2.000 F120.000
G1 X89.098 Y43.364 Z-2.000 F120.000
G1 X89.098 Y45.344 Z-2.000 F120.000
G1 X74.454 Y30.700 Z-2.000 F120.000
G1 X72.474 Y30.700 Z-2.000 F120.000
G1 X89.098 Y47.324 Z-2.000 F120.000
G1 X89.098 Y49.304 Z-2.000 F120.000
G1 X71.108 Y31.314 Z-2.000 F120.000
G2 X70.902 Y32.034 Z-2.000 I1.113 J0.708 K0.000 F120.000
G1 X70.902 Y33.088 Z-2.000 F120.000
G1 X89.098 Y51.284 Z-2.000 F120.000
G1 X89.098 Y53.264 Z-2.000 F120.000
G1 X70.902 Y35.068 Z-2.000 F120.000
G1 X70.902 Y37.048 Z-2.000 F120.000
G1 X89.098 Y55.243 Z-2.000 F120.000
G1 X89.098 Y57.223 Z-2.000 F120.000
G1 X70.902 Y39.027 Z-2.000 F120.000
G1 X70.902 Y41.007 Z-2.000 F120.000
G1 X89.098 Y59.203 Z-2.000 F120.000
G1 X89.098 Y61.183 Z-2.000 F120.000
G1 X70.902 Y42.987 Z-2.000 F120.000
G1 X70.902 Y44.967 Z-2.000 F120.000
G1 X89.098 Y63.163 Z-2.000 F120.000
G1 X89.098 Y65.143 Z-2.000 F120.000
G1 X70.902 Y46.947 Z-2.000 F120.000
G1 X70.902 Y48.927 Z-2.000 F120.000
G1 X89.098 Y67.123 Z-2.000 F120.000
G1 X89.098 Y69.103 Z-2.000 F120.000
G1 X70.902 Y50.907 Z-2.000 F120.000
G1 X70.902 Y52.887 Z-2.000 F120.000
G1 X89.098 Y71.083 Z-2.000 F120.000
G1 X89.098 Y73.063 Z-2.000 F120.000
G1 X70.902 Y54.867 Z-2.000 F120.000
G1 X70.902 Y56.847 Z-2.000 F120.000
G1 X89.098 Y75.042 Z-2.000 F120.000
G1 X89.098 Y77.022 Z-2.000 F120.000
G1 X70.902 Y58.826 Z-2.000 F120.000
G1 X70.902 Y60.806 Z-2.000 F120.000
G1 X89.098 Y79.002 Z-2.000 F120.000
G1 X89.098 Y80.982 Z-2.000 F120.000
G1 X70.902 Y62.786 Z-2.000 F120.000
G1 X70.902 Y64.766 Z-2.000 F120.000
G1 X89.098 Y82.962 Z-2.000 F120.000
G1 X89.098 Y84.942 Z-2.000 F120.000
G1 X70.902 Y66.746 Z-2.000 F120.000
G1 X70.902 Y68.726 Z-2.000 F120.000
G1 X89.098 Y86.922 Z-2.000 F120.000
G1 X89.098 Y88.902 Z-2.000 F120.000
G1 X70.902 Y70.706 Z-2.000 F120.000
G1 X70.902 Y72.686 Z-2.000 F120.000
G1 X89.098 Y90.882 Z-2.000 F120.000
G1 X89.098 Y92.862 Z-2.000 F120.000
G1 X70.902 Y74.666 Z-2.000 F120.000
G1 X70.902 Y76.646 Z-2.000 F120.000
G1 X89.098 Y94.841 Z-2.000 F120.000
G1 X89.098 Y96.821 Z-2.000 F120.000
G1 X70.902 Y78.625 Z-2.000 F120.000
G1 X70.902 Y80.605 Z-2.000 F120.000
G1 X88.923 Y98.626 Z-2.000 F120.000
G3 X87.617 Y99.300 Z-2.000 I-1.189 J-0.701 K0.000 F120.000
G1 X70.902 Y82.585 Z-2.000 F120.000
G1 X70.902 Y84.565 Z-2.000 F120.000
G1 X85.637 Y99.300 Z-2.000 F120.000
G1 X83.657 Y99.300 Z-2.000 F120.000
G1 X70.902 Y86.545 Z-2.000 F120.000
G1 X70.902 Y88.525 Z-2.000 F120.000
G1 X81.677 Y99.300 Z-2.000 F120.000
G1 X79.697 Y99.300 Z-2.000 F120.000
G1 X70.902 Y90.505 Z-2.000 F120.000
G1 X70.902 Y92.485 Z-2.000 F120.000
G1 X77.717 Y99.300 Z-2.000 F120.000
G1 X75.737 Y99.300 Z-2.000 F120.000
G1 X70.902 Y94.465 Z-2.000 F120.000
G1 X70.902 Y96.445 Z-2.000 F120.000
G1 X73.758 Y99.300 Z-2.000 F120.000
G3 X72.103 Y99.291 Z-2.000 I-0.742 J-15.605 K0.000 F120.000
G3 X71.614 Y99.137 Z-2.000 I0.077 J-1.095 K0.000 F120.000
G1 X71.049 Y98.571 Z-2.000 F120.000
G2 X71.614 Y99.137 Z-2.000 I1.064 J-0.498 K0.000 F120.000
G0 Z5.000
G0 X71.161 Y96.978 Z5.000
G0 X71.161 Y96.978 Z3.000
G1 X71.161 Y96.978 Z-3.000 F60.000
G1 X71.161 Y97.966 Z-3.000 F120.000
G2 X72.409 Y99.289 Z-3.000 I1.331 J-0.005 K0.000 F120.000
G2 X73.483 Y99.300 Z-3.000 I0.634 J-9.839 K0.000 F120.000
G1 X71.161 Y96.978 Z-3.000 F120.000
G1 X71.161 Y94.998 Z-3.000 F120.000
G1 X75.463 Y99.300 Z-3.000 F120.000
G1 X77.442 Y99.300 Z-3.000 F120.000
G1 X71.161 Y93.018 Z-3.000 F120.000
G1 X71.161 Y91.038 Z-3.000 F120.000
G1 X79.422 Y99.300 Z-3.000 F120.000
G1 X81.402 Y99.300 Z-3.000 F120.000
G1 X71.161 Y89.058 Z-3.000 F120.000
G1 X71.161 Y87.079 Z-3.000 F120.000
G1 X83.382 Y99.300 Z-3.000 F120.000
G1 X85.362 Y99.300 Z-3.000 F120.000
G1 X71.161 Y85.099 Z-3.000 F120.000
G1 X71.161 Y83.119 Z-3.000 F120.000
G1 X87.342 Y99.300 Z-3.000 F120.000
G2 X88.654 Y98.633 Z-3.000 I0.086 J-1.454 K0.000 F120.000
G1 X71.161 Y81.139 Z-3.000 F120.000
G1 X71.161 Y79.159 Z-3.000 F120.000
G1 X88.839 Y96.838 Z-3.000 F120.000
G1 X88.839 Y94.858 Z-3.000 F120.000
G1 X71.161 Y77.179 Z-3.000 F120.000
G1 X71.161 Y75.199 Z-3.000 F120.000
G1 X88.839 Y92.878 Z-3.000 F120.000
G1 X88.839 Y90.898 Z-3.000 F120.000
G1 X71.161 Y73.219 Z-3.000 F120.000
G1 X71.161 Y71.239 Z-3.000 F120.000
G1 X88.839 Y88.918 Z-3.000 F120.000
G1 X88.839 Y86.938 Z-3.000 F120.000
G1 X71.161 Y69.259 Z-3.000 F120.000
G1 X71.161 Y67.280 Z-3.000 F120.000
G1 X88.839 Y84.958 Z-3.000 F120.000
G1 X88.839 Y82.978 Z-3.000 F120.000
G1 X71.161 Y65.300 Z-3.000 F120.000
G1 X71.161 Y63.320 Z-3.000 F120.000
G1 X88.839 Y80.999 Z-3.000 F120.000
G1 X88.839 Y79.019 Z-3.000 F120.000
G1 X71.161 Y61.340 Z-3.000 F120.000
G1 X71.161 Y59.360 Z-3.000 F120.000
G1 X88.839 Y77.039 Z-3.000 F120.000
G1 X88.839 Y75.059 Z-3.000 F120.000
G1 X71.161 Y57.380 Z-3.000 F120.000
G1 X71.161 Y55.400 Z-3.000 F120.000
G1 X88.839 Y73.079 Z-3.000 F120.000
G1 X88.839 Y71.099 Z-3.000 F120.000
G1 X71.161 Y53.420 Z-3.000 F120.000
G1 X71.161 Y51.440 Z-3.000 F120.000
G1 X88.839 Y69.119 Z-3.000 F120.000
G1 X88.839 Y67.139 Z-3.000 F120.000
G1 X71.161 Y49.460 Z-3.000 F120.000
G1 X71.161 Y47.481 Z-3.000 F120.000
G1 X88.839 Y65.159 Z-3.000 F120.000
G1 X88.839 Y63.179 Z-3.000 F120.000
G1 X71.161 Y45.501 Z-3.000 F120.000
G1 X71.161 Y43.521 Z-3.000 F120.000
G1 X88.839 Y61.200 Z-3.000 F120.000
G1 X88.839 Y59.220 Z-3.000 F120.000
G1 X71.161 Y41.541 Z-3.000 F120.000
G1 X71.161 Y39.561 Z-3.000 F120.000
G1 X88.839 Y57.240 Z-3.000 F120.000
G1 X88.839 Y55.260 Z-3.000 F120.000
G1 X71.161 Y37.581 Z-3.000 F120.000
G1 X71.161 Y35.601 Z-3.000 F120.000
G1 X88.839 Y53.280 Z-3.000 F120.000
G1 X88.839 Y51.300 Z-3.000 F120.000
G1 X71.161 Y33.621 Z-3.000 F120.000
G1 X71.161 Y32.034 Z-3.000 F120.000
G3 X71.210 Y31.690 Z-3.000 I0.897 J-0.048 K0.000 F120.000
G1 X88.839 Y49.320 Z-3.000 F120.000
G1 X88.839 Y47.340 Z-3.000 F120.000
G1 X72.239 Y30.740 Z-3.000 F120.000
G3 X72.409 Y30.711 Z-3.000 I0.186 J0.564 K0.000 F120.000
G3 X74.179 Y30.700 Z-3.000 I0.982 J16.227 K0.000 F120.000
G1 X88.839 Y45.360 Z-3.000 F120.000
G1 X88.839 Y43.380 Z-3.000 F120.000
G1 X76.159 Y30.700 Z-3.000 F120.000
G1 X78.139 Y30.700 Z-3.000 F120.000
G1 X88.839 Y41.401 Z-3.000 F120.000
G1 X88.839 Y39.421 Z-3.000 F120.000
G1 X80.119 Y30.700 Z-3.000 F120.000
G1 X82.099 Y30.700 Z-3.000 F120.000
G1 X88.839 Y37.441 Z-3.000 F120.000
G1 X88.839 Y35.461 Z-3.000 F120.000
G1 X84.079 Y30.700 Z-3.000 F120.000
G1 X86.058 Y30.700 Z-3.000 F120.000
G1 X88.839 Y33.481 Z-3.000 F120.000
G1 X88.839 Y32.034 Z-3.000 F120.000
G2 X88.378 Y31.039 Z-3.000 I-1.274 J-0.013 K0.000 F120.000
G0 Z5.000
G0 X88.010 Y31.071 Z5.000
G0 X88.010 Y31.071 Z3.000
G1 X88.010 Y31.071 Z-4.000 F60.000
G3 X88.465 Y32.035 Z-4.000 I-0.777 J0.956 K0.000 F120.000
G1 X88.465 Y33.506 Z-4.000 F120.000
G1 X85.660 Y30.700 Z-4.000 F120.000
G1 X83.680 Y30.700 Z-4.000 F120.000
G1 X88.465 Y35.485 Z-4.000 F120.000
G1 X88.465 Y37.465 Z-4.000 F120.000
G1 X81.700 Y30.700 Z-4.000 F120.000
G1 X79.720 Y30.700 Z-4.000 F120.000
G1 X88.465 Y39.445 Z-4.000 F120.000
G1 X88.465 Y41.425 Z-4.000 F120.000
G1 X77.740 Y30.700 Z-4.000 F120.000
G1 X75.760 Y30.700 Z-4.000 F120.000
G1 X88.465 Y43.405 Z-4.000 F120.000
G1 X88.465 Y45.385 Z-4.000 F120.000
G1 X73.780 Y30.700 Z-4.000 F120.000
G2 X72.656 Y30.748 Z-4.000 I-0.411 J3.594 K0.000 F120.000
G2 X72.094 Y30.993 Z-4.000 I0.217 J1.263 K0.000 F120.000
G1 X88.465 Y47.365 Z-4.000 F120.000
G1 X88.465 Y49.345 Z-4.000 F120.000
G1 X71.535 Y32.414 Z-4.000 F120.000
G1 X71.535 Y34.394 Z-4.000 F120.000
G1 X88.465 Y51.325 Z-4.000 F120.000
G1 X88.465 Y53.304 Z-4.000 F120.000
G1 X71.535 Y36.374 Z-4.000 F120.000
G1 X71.535 Y38.354 Z-4.000 F120.000
G1 X88.465 Y55.284 Z-4.000 F120.000
G1 X88.465 Y57.264 Z-4.000 F120.000
G1 X71.535 Y40.334 Z-4.000 F120.000
G1 X71.535 Y42.314 Z-4.000 F120.000
G1 X88.465 Y59.244 Z-4.000 F120.000
G1 X88.465 Y61.224 Z-4.000 F120.000
G1 X71.535 Y44.294 Z-4.000 F120.000
G1 X71.535 Y46.274 Z-4.000 F120.000
G1 X88.465 Y63.204 Z-4.000 F120.000
G1 X88.465 Y65.184 Z-4.000 F120.000
G1 X71.535 Y48.254 Z-4.000 F120.000
G1 X71.535 Y50.233 Z-4.000 F120.000
G1 X88.465 Y67.164 Z-4.000 F120.000
G1 X88.465 Y69.144 Z-4.000 F120.000
G1 X71.535 Y52.213 Z-4.000 F120.000
G1 X71.535 Y54.193 Z-4.000 F120.000
G1 X88.465 Y71.124 Z-4.000 F120.000
G1 X88.465 Y73.103 Z-4.000 F120.000
G1 X71.535 Y56.173 Z-4.000 F120.000
G1 X71.535 Y58.153 Z-4.000 F120.000
G1 X88.465 Y75.083 Z-4.000 F120.000
G1 X88.465 Y77.063 Z-4.000 F120.000
G1 X71.535 Y60.133 Z-4.000 F120.000
G1 X71.535 Y62.113 Z-4.000 F120.000
G1 X88.465 Y79.043 Z-4.000 F120.000
G1 X88.465 Y81.023 Z-4.000 F120.000
G1 X71.535 Y64.093 Z-4.000 F120.000
G1 X71.535 Y66.073 Z-4.000 F120.000
G1 X88.465 Y83.003 Z-4.000 F120.000
G1 X88.465 Y84.983 Z-4.000 F120.000
G1 X71.535 Y68.053 Z-4.000 F120.000
G1 X71.535 Y70.032 Z-4.000 F120.000
G1 X88.465 Y86.963 Z-4.000 F120.000
G1 X88.465 Y88.943 Z-4.000 F120.000
G1 X71.535 Y72.012 Z-4.000 F120.000
G1 X71.535 Y73.992 Z-4.000 F120.000
G1 X88.465 Y90.923 Z-4.000 F120.000
G1 X88.465 Y92.902 Z-4.000 F120.000
G1 X71.535 Y75.972 Z-4.000 F120.000
G1 X71.535 Y77.952 Z-4.000 F120.000
G1 X88.465 Y94.882 Z-4.000 F120.000
G1 X88.465 Y96.862 Z-4.000 F120.000
G1 X71.535 Y79.932 Z-4.000 F120.000
G1 X71.535 Y81.912 Z-4.000 F120.000
G1 X88.265 Y98.642 Z-4.000 F120.000
G3 X86.941 Y99.298 Z-4.000 I-1.259 J-0.877 K0.000 F120.000
G1 X71.535 Y83.892 Z-4.000 F120.000
G1 X71.535 Y85.872 Z-4.000 F120.000
G1 X84.963 Y99.300 Z-4.000 F120.000
G1 X82.983 Y99.300 Z-4.000 F120.000
G1 X71.535 Y87.852 Z-4.000 F120.000
G1 X71.535 Y89.831 Z-4.000 F120.000
G1 X81.003 Y99.300 Z-4.000 F120.000
G1 X79.023 Y99.300 Z-4.000 F120.000
G1 X71.535 Y91.811 Z-4.000 F120.000
G1 X71.535 Y93.791 Z-4.000 F120.000
G1 X77.044 Y99.300 Z-4.000 F120.000
G1 X75.064 Y99.300 Z-4.000 F120.000
G1 X71.535 Y95.771 Z-4.000 F120.000
G1 X71.535 Y97.751 Z-4.000 F120.000
G1 X73.083 Y99.300 Z-4.000 F120.000
G3 X71.628 Y98.442 Z-4.000 I-0.093 J-1.506 K0.000 F120.000
G3 X71.535 Y97.751 Z-4.000 I1.732 J-0.584 K0.000 F120.000
G0 Z5.000
G0 X74.525 Y99.300 Z5.000
G0 X74.525 Y99.300 Z3.000
G1 X74.525 Y99.300 Z-5.000 F60.000
G1 X73.770 Y99.300 Z-5.000 F120.000
G3 X72.895 Y99.133 Z-5.000 I-0.011 J-2.312 K0.000 F120.000
G3 X72.040 Y97.964 Z-5.000 I0.419 J-1.204 K0.000 F120.000
G1 X72.040 Y96.815 Z-5.000 F120.000
G1 X74.525 Y99.300 Z-5.000 F120.000
G1 X76.505 Y99.300 Z-5.000 F120.000
G1 X72.040 Y94.835 Z-5.000 F120.000
G1 X72.040 Y92.855 Z-5.000 F120.000
G1 X78.485 Y99.300 Z-5.000 F120.000
G1 X80.465 Y99.300 Z-5.000 F120.000
G1 X72.040 Y90.875 Z-5.000 F120.000
G1 X72.040 Y88.895 Z-5.000 F120.000
G1 X82.444 Y99.300 Z-5.000 F120.000
G1 X84.424 Y99.300 Z-5.000 F120.000
G1 X72.040 Y86.915 Z-5.000 F120.000
G1 X72.040 Y84.935 Z-5.000 F120.000
G1 X86.397 Y99.293 Z-5.000 F120.000
G2 X87.736 Y98.652 Z-5.000 I-0.033 J-1.790 K0.000 F120.000
G1 X72.040 Y82.956 Z-5.000 F120.000
G1 X72.040 Y80.976 Z-5.000 F120.000
G1 X87.960 Y96.896 Z-5.000 F120.000
G1 X87.960 Y94.916 Z-5.000 F120.000
G1 X72.040 Y78.996 Z-5.000 F120.000
G1 X72.040 Y77.016 Z-5.000 F120.000
G1 X87.960 Y92.936 Z-5.000 F120.000
G1 X87.960 Y90.956 Z-5.000 F120.000
G1 X72.040 Y75.036 Z-5.000 F120.000
G1 X72.040 Y73.056 Z-5.000 F120.000
G1 X87.960 Y88.977 Z-5.000 F120.000
G1 X87.960 Y86.997 Z-5.000 F120.000
G1 X72.040 Y71.076 Z-5.000 F120.000
G1 X72.040 Y69.096 Z-5.000 F120.000
G1 X87.960 Y85.017 Z-5.000 F120.000
G1 X87.960 Y83.037 Z-5.000 F120.000
G1 X72.040 Y67.116 Z-5.000 F120.000
G1 X72.040 Y65.136 Z-5.000 F120.000
G1 X87.960 Y81.057 Z-5.000 F120.000
G1 X87.960 Y79.077 Z-5.000 F120.000
G1 X72.040 Y63.157 Z-5.000 F120.000
G1 X72.040 Y61.177 Z-5.000 F120.000
G1 X87.960 Y77.097 Z-5.000 F120.000
G1 X87.960 Y75.117 Z-5.000 F120.000
G1 X72.040 Y59.197 Z-5.000 F120.000
G1 X72.040 Y57.217 Z-5.000 F120.000
G1 X87.960 Y73.137 Z-5.000 F120.000
G1 X87.960 Y71.157 Z-5.000 F120.000
G1 X72.040 Y55.237 Z-5.000 F120.000
G1 X72.040 Y53.257 Z-5.000 F120.000
G1 X87.960 Y69.178 Z-5.000 F120.000
G1 X87.960 Y67.198 Z-5.000 F120.000
G1 X72.040 Y51.277 Z-5.000 F120.000
G1 X72.040 Y49.297 Z-5.000 F120.000
G1 X87.960 Y65.218 Z-5.000 F120.000
G1 X87.960 Y63.238 Z-5.000 F120.000
G1 X72.040 Y47.317 Z-5.000 F120.000
G1 X72.040 Y45.337 Z-5.000 F120.000
G1 X87.960 Y61.258 Z-5.000 F120.000
G1 X87.960 Y59.278 Z-5.000 F120.000
G1 X72.040 Y43.358 Z-5.000 F120.000
G1 X72.040 Y41.378 Z-5.000 F120.000
G1 X87.960 Y57.298 Z-5.000 F120.000
G1 X87.960 Y55.318 Z-5.000 F120.000
G1 X72.040 Y39.398 Z-5.000 F120.000
G1 X72.040 Y37.418 Z-5.000 F120.000
G1 X87.960 Y53.338 Z-5.000 F120.000
G1 X87.960 Y51.358 Z-5.000 F120.000
G1 X72.040 Y35.438 Z-5.000 F120.000
G1 X72.040 Y33.458 Z-5.000 F120.000
G1 X87.960 Y49.379 Z-5.000 F120.000
G1 X87.960 Y47.399 Z-5.000 F120.000
G1 X72.135 Y31.574 Z-5.000 F120.000
G3 X73.293 Y30.752 Z-5.000 I1.336 J0.655 K0.000 F120.000
G1 X87.960 Y45.419 Z-5.000 F120.000
G1 X87.960 Y43.439 Z-5.000 F120.000
G1 X75.221 Y30.700 Z-5.000 F120.000
G1 X77.201 Y30.700 Z-5.000 F120.000
G1 X87.960 Y41.459 Z-5.000 F120.000
G1 X87.960 Y39.479 Z-5.000 F120.000
G1 X79.181 Y30.700 Z-5.000 F120.000
G1 X81.161 Y30.700 Z-5.000 F120.000
G1 X87.960 Y37.499 Z-5.000 F120.000
G1 X87.960 Y35.519 Z-5.000 F120.000
G1 X83.141 Y30.700 Z-5.000 F120.000
G1 X85.121 Y30.700 Z-5.000 F120.000
G1 X87.960 Y33.539 Z-5.000 F120.000
G1 X87.960 Y32.036 Z-5.000 F120.000
G2 X87.519 Y31.118 Z-5.000 I-1.171 J-0.002 K0.000 F120.000
G0 Z5.000
G0 X86.879 Y31.185 Z5.000
G0 X86.879 Y31.185 Z3.000
G1 X86.879 Y31.185 Z-6.000 F60.000
G3 X87.300 Y32.037 Z-6.000 I-0.688 J0.870 K0.000 F120.000
G1 X87.300 Y33.586 Z-6.000 F120.000
G1 X84.414 Y30.700 Z-6.000 F120.000
G1 X82.434 Y30.700 Z-6.000 F120.000
G1 X87.300 Y35.566 Z-6.000 F120.000
G1 X87.300 Y37.546 Z-6.000 F120.000
G1 X80.454 Y30.700 Z-6.000 F120.000
G1 X78.475 Y30.700 Z-6.000 F120.000
G1 X87.300 Y39.525 Z-6.000 F120.000
G1 X87.300 Y41.505 Z-6.000 F120.000
G1 X76.495 Y30.700 Z-6.000 F120.000
G2 X74.526 Y30.712 Z-6.000 I-0.883 J17.146 K0.000 F120.000
G1 X87.300 Y43.485 Z-6.000 F120.000
G1 X87.300 Y45.465 Z-6.000 F120.000
G1 X73.071 Y31.236 Z-6.000 F120.000
G2 X72.700 Y32.037 Z-6.000 I0.696 J0.808 K0.000 F120.000
G1 X72.700 Y32.845 Z-6.000 F120.000
G1 X87.300 Y47.445 Z-6.000 F120.000
G1 X87.300 Y49.425 Z-6.000 F120.000
G1 X72.700 Y34.825 Z-6.000 F120.000
G1 X72.700 Y36.805 Z-6.000 F120.000
G1 X87.300 Y51.405 Z-6.000 F120.000
G1 X87.300 Y53.385 Z-6.000 F120.000
G1 X72.700 Y38.785 Z-6.000 F120.000
G1 X72.700 Y40.765 Z-6.000 F120.000
G1 X87.300 Y55.365 Z-6.000 F120.000
G1 X87.300 Y57.345 Z-6.000 F120.000
G1 X72.700 Y42.745 Z-6.000 F120.000
G1 X72.700 Y44.724 Z-6.000 F120.000
G1 X87.300 Y59.324 Z-6.000 F120.000
G1 X87.300 Y61.304 Z-6.000 F120.000
G1 X72.700 Y46.704 Z-6.000 F120.000
G1 X72.700 Y48.684 Z-6.000 F120.000
G1 X87.300 Y63.284 Z-6.000 F120.000
G1 X87.300 Y65.264 Z-6.000 F120.000
G1 X72.700 Y50.664 Z-6.000 F120.000
G1 X72.700 Y52.644 Z-6.000 F120.000
G1 X87.300 Y67.244 Z-6.000 F120.000
G1 X87.300 Y69.224 Z-6.000 F120.000
G1 X72.700 Y54.624 Z-6.000 F120.000
G1 X72.700 Y56.604 Z-6.000 F120.000
G1 X87.300 Y71.204 Z-6.000 F120.000
G1 X87.300 Y73.184 Z-6.000 F120.000
G1 X72.700 Y58.584 Z-6.000 F120.000
G1 X72.700 Y60.564 Z-6.000 F120.000
G1 X87.300 Y75.164 Z-6.000 F120.000
G1 X87.300 Y77.144 Z-6.000 F120.000
G1 X72.700 Y62.544 Z-6.000 F120.000
G1 X72.700 Y64.523 Z-6.000 F120.000
G1 X87.300 Y79.123 Z-6.000 F120.000
G1 X87.300 Y81.103 Z-6.000 F120.000
G1 X72.700 Y66.503 Z-6.000 F120.000
G1 X72.700 Y68.483 Z-6.000 F120.000
G1 X87.300 Y83.083 Z-6.000 F120.000
G1 X87.300 Y85.063 Z-6.000 F120.000
G1 X72.700 Y70.463 Z-6.000 F120.000
G1 X72.700 Y72.443 Z-6.000 F120.000
G1 X87.300 Y87.043 Z-6.000 F120.000
G1 X87.300 Y89.023 Z-6.000 F120.000
G1 X72.700 Y74.423 Z-6.000 F120.000
G1 X72.700 Y76.403 Z-6.000 F120.000
G1 X87.300 Y91.003 Z-6.000 F120.000
G1 X87.300 Y92.983 Z-6.000 F120.000
G1 X72.700 Y78.383 Z-6.000 F120.000
G1 X72.700 Y80.363 Z-6.000 F120.000
G1 X87.300 Y94.963 Z-6.000 F120.000
G1 X87.300 Y96.943 Z-6.000 F120.000
G1 X72.700 Y82.343 Z-6.000 F120.000
G1 X72.700 Y84.322 Z-6.000 F120.000
G1 X87.034 Y98.657 Z-6.000 F120.000
G3 X85.675 Y99.277 Z-6.000 I-1.472 J-1.427 K0.000 F120.000
G1 X72.700 Y86.302 Z-6.000 F120.000
G1 X72.700 Y88.282 Z-6.000 F120.000
G1 X83.718 Y99.300 Z-6.000 F120.000
G1 X81.738 Y99.300 Z-6.000 F120.000
G1 X72.700 Y90.262 Z-6.000 F120.000
G1 X72.700 Y92.242 Z-6.000 F120.000
G1 X79.758 Y99.300 Z-6.000 F120.000
G1 X77.778 Y99.300 Z-6.000 F120.000
G1 X72.700 Y94.222 Z-6.000 F120.000
G1 X72.700 Y96.202 Z-6.000 F120.000
G1 X75.798 Y99.300 Z-6.000 F120.000
G3 X74.297 Y99.275 Z-6.000 I-0.535 J-13.079 K0.000 F120.000
G3 X73.625 Y99.106 Z-6.000 I0.250 J-2.420 K0.000 F120.000
G1 X72.737 Y98.218 Z-6.000 F120.000
G2 X73.625 Y99.106 Z-6.000 I1.309 J-0.421 K0.000 F120.000
G0 Z5.000
G0 X73.561 Y97.984 Z5.000
G0 X73.561 Y97.984 Z3.000
G1 X73.561 Y97.984 Z-7.000 F60.000
G1 X73.581 Y98.159 Z-7.000 F120.000
G2 X74.665 Y99.087 Z-7.000 I1.353 J-0.483 K0.000 F120.000
G1 X73.561 Y97.984 Z-7.000 F120.000
G1 X73.559 Y97.961 Z-7.000 F120.000
G1 X73.559 Y96.001 Z-7.000 F120.000
G1 X76.857 Y99.300 Z-7.000 F120.000
G1 X78.837 Y99.300 Z-7.000 F120.000
G1 X73.559 Y94.021 Z-7.000 F120.000
G1 X73.559 Y92.041 Z-7.000 F120.000
G1 X80.817 Y99.300 Z-7.000 F120.000
G1 X82.797 Y99.300 Z-7.000 F120.000
G1 X73.559 Y90.061 Z-7.000 F120.000
G1 X73.559 Y88.082 Z-7.000 F120.000
G1 X84.715 Y99.238 Z-7.000 F120.000
G2 X85.582 Y99.006 Z-7.000 I-0.364 J-3.087 K0.000 F120.000
G2 X86.114 Y98.657 Z-7.000 I-0.644 J-1.566 K0.000 F120.000
G1 X73.559 Y86.102 Z-7.000 F120.000
G1 X73.559 Y84.122 Z-7.000 F120.000
G1 X86.441 Y97.005 Z-7.000 F120.000
G1 X86.441 Y95.025 Z-7.000 F120.000
G1 X73.559 Y82.142 Z-7.000 F120.000
G1 X73.559 Y80.162 Z-7.000 F120.000
G1 X86.441 Y93.045 Z-7.000 F120.000
G1 X86.441 Y91.065 Z-7.000 F120.000
G1 X73.559 Y78.182 Z-7.000 F120.000
G1 X73.559 Y76.202 Z-7.000 F120.000
G1 X86.441 Y89.085 Z-7.000 F120.000
G1 X86.441 Y87.105 Z-7.000 F120.000
G1 X73.559 Y74.222 Z-7.000 F120.000
G1 X73.559 Y72.242 Z-7.000 F120.000
G1 X86.441 Y85.125 Z-7.000 F120.000
G1 X86.441 Y83.145 Z-7.000 F120.000
G1 X73.559 Y70.262 Z-7.000 F120.000
G1 X73.559 Y68.283 Z-7.000 F120.000
G1 X86.441 Y81.165 Z-7.000 F120.000
G1 X86.441 Y79.185 Z-7.000 F120.000
G1 X73.559 Y66.303 Z-7.000 F120.000
G1 X73.559 Y64.323 Z-7.000 F120.000
G1 X86.441 Y77.206 Z-7.000 F120.000
G1 X86.441 Y75.226 Z-7.000 F120.000
G1 X73.559 Y62.343 Z-7.000 F120.000
G1 X73.559 Y60.363 Z-7.000 F120.000
G1 X86.441 Y73.246 Z-7.000 F120.000
G1 X86.441 Y71.266 Z-7.000 F120.000
G1 X73.559 Y58.383 Z-7.000 F120.000
G1 X73.559 Y56.403 Z-7.000 F120.000
G1 X86.441 Y69.286 Z-7.000 F120.000
G1 X86.441 Y67.306 Z-7.000 F120.000
G1 X73.559 Y54.423 Z-7.000 F120.000
G1 X73.559 Y52.443 Z-7.000 F120.000
G1 X86.441 Y65.326 Z-7.000 F120.000
G1 X86.441 Y63.346 Z-7.000 F120.000
G1 X73.559 Y50.463 Z-7.000 F120.000
G1 X73.559 Y48.484 Z-7.000 F120.000
G1 X86.441 Y61.366 Z-7.000 F120.000
G1 X86.441 Y59.386 Z-7.000 F120.000
G1 X73.559 Y46.504 Z-7.000 F120.000
G1 X73.559 Y44.524 Z-7.000 F120.000
G1 X86.441 Y57.407 Z-7.000 F120.000
G1 X86.441 Y55.427 Z-7.000 F120.000
G1 X73.559 Y42.544 Z-7.000 F120.000
G1 X73.559 Y40.564 Z-7.000 F120.000
G1 X86.441 Y53.447 Z-7.000 F120.000
G1 X86.441 Y51.467 Z-7.000 F120.000
G1 X73.559 Y38.584 Z-7.000 F120.000
G1 X73.559 Y36.604 Z-7.000 F120.000
G1 X86.441 Y49.487 Z-7.000 F120.000
G1 X86.441 Y47.507 Z-7.000 F120.000
G1 X73.559 Y34.624 Z-7.000 F120.000
G1 X73.559 Y32.644 Z-7.000 F120.000
G1 X86.441 Y45.527 Z-7.000 F120.000
G1 X86.441 Y43.547 Z-7.000 F120.000
G1 X74.079 Y31.185 Z-7.000 F120.000
G3 X75.604 Y30.730 Z-7.000 I1.518 J2.308 K0.000 F120.000
G1 X86.441 Y41.567 Z-7.000 F120.000
G1 X86.441 Y39.587 Z-7.000 F120.000
G1 X77.554 Y30.700 Z-7.000 F120.000
G1 X79.534 Y30.700 Z-7.000 F120.000
G1 X86.441 Y37.608 Z-7.000 F120.000
G1 X86.441 Y35.628 Z-7.000 F120.000
G1 X81.514 Y30.700 Z-7.000 F120.000
G1 X83.494 Y30.700 Z-7.000 F120.000
G1 X86.441 Y33.648 Z-7.000 F120.000
G1 X86.441 Y32.039 Z-7.000 F120.000
G2 X86.063 Y31.289 Z-7.000 I-0.976 J0.022 K0.000 F120.000
G0 Z5.000
G0 X84.992 Y31.447 Z5.000
G0 X84.992 Y31.447 Z3.000
G1 X84.992 Y31.447 Z-8.000 F60.000
G3 X85.300 Y32.059 Z-8.000 I-0.466 J0.618 K0.000 F120.000
G1 X85.300 Y33.734 Z-8.000 F120.000
G1 X82.295 Y30.729 Z-8.000 F120.000
G2 X80.286 Y30.700 Z-8.000 I-1.777 J53.274 K0.000 F120.000
G1 X85.300 Y35.714 Z-8.000 F120.000
G1 X85.300 Y37.694 Z-8.000 F120.000
G1 X78.317 Y30.711 Z-8.000 F120.000
G2 X76.483 Y30.857 Z-8.000 I0.015 J11.781 K0.000 F120.000
G1 X85.300 Y39.674 Z-8.000 F120.000
G1 X85.300 Y41.654 Z-8.000 F120.000
G1 X75.056 Y31.410 Z-8.000 F120.000
G2 X74.700 Y32.043 Z-8.000 I0.425 J0.656 K0.000 F120.000
G1 X74.700 Y33.034 Z-8.000 F120.000
G1 X85.300 Y43.634 Z-8.000 F120.000
G1 X85.300 Y45.614 Z-8.000 F120.000
G1 X74.700 Y35.014 Z-8.000 F120.000
G1 X74.700 Y36.994 Z-8.000 F120.000
G1 X85.300 Y47.594 Z-8.000 F120.000
G1 X85.300 Y49.574 Z-8.000 F120.000
G1 X74.700 Y38.974 Z-8.000 F120.000
G1 X74.700 Y40.953 Z-8.000 F120.000
G1 X85.300 Y51.553 Z-8.000 F120.000
G1 X85.300 Y53.533 Z-8.000 F120.000
G1 X74.700 Y42.933 Z-8.000 F120.000
G1 X74.700 Y44.913 Z-8.000 F120.000
G1 X85.300 Y55.513 Z-8.000 F120.000
G1 X85.300 Y57.493 Z-8.000 F120.000
G1 X74.700 Y46.893 Z-8.000 F120.000
G1 X74.700 Y48.873 Z-8.000 F120.000
G1 X85.300 Y59.473 Z-8.000 F120.000
G1 X85.300 Y61.453 Z-8.000 F120.000
G1 X74.700 Y50.853 Z-8.000 F120.000
G1 X74.700 Y52.833 Z-8.000 F120.000
G1 X85.300 Y63.433 Z-8.000 F120.000
G1 X85.300 Y65.413 Z-8.000 F120.000
G1 X74.700 Y54.813 Z-8.000 F120.000
G1 X74.700 Y56.793 Z-8.000 F120.000
G1 X85.300 Y67.393 Z-8.000 F120.000
G1 X85.300 Y69.373 Z-8.000 F120.000
G1 X74.700 Y58.773 Z-8.000 F120.000
G1 X74.700 Y60.752 Z-8.000 F120.000
G1 X85.300 Y71.352 Z-8.000 F120.000
G1 X85.300 Y73.332 Z-8.000 F120.000
G1 X74.700 Y62.732 Z-8.000 F120.000
G1 X74.700 Y64.712 Z-8.000 F120.000
G1 X85.300 Y75.312 Z-8.000 F120.000
G1 X85.300 Y77.292 Z-8.000 F120.000
G1 X74.700 Y66.692 Z-8.000 F120.000
G1 X74.700 Y68.672 Z-8.000 F120.000
G1 X85.300 Y79.272 Z-8.000 F120.000
G1 X85.300 Y81.252 Z-8.000 F120.000
G1 X74.700 Y70.652 Z-8.000 F120.000
G1 X74.700 Y72.632 Z-8.000 F120.000
G1 X85.300 Y83.232 Z-8.000 F120.000
G1 X85.300 Y85.212 Z-8.000 F120.000
G1 X74.700 Y74.612 Z-8.000 F120.000
G1 X74.700 Y76.592 Z-8.000 F120.000
G1 X85.300 Y87.192 Z-8.000 F120.000
G1 X85.300 Y89.172 Z-8.000 F120.000
G1 X74.700 Y78.572 Z-8.000 F120.000
G1 X74.700 Y80.551 Z-8.000 F120.000
G1 X85.300 Y91.151 Z-8.000 F120.000
G1 X85.300 Y93.131 Z-8.000 F120.000
G1 X74.700 Y82.531 Z-8.000 F120.000
G1 X74.700 Y84.511 Z-8.000 F120.000
G1 X85.300 Y95.111 Z-8.000 F120.000
G1 X85.300 Y97.091 Z-8.000 F120.000
G1 X74.700 Y86.491 Z-8.000 F120.000
G1 X74.700 Y88.471 Z-8.000 F120.000
G1 X84.874 Y98.645 Z-8.000 F120.000
G3 X83.409 Y99.160 Z-8.000 I-1.847 J-2.917 K0.000 F120.000
G1 X74.700 Y90.451 Z-8.000 F120.000
G1 X74.700 Y92.431 Z-8.000 F120.000
G1 X81.560 Y99.291 Z-8.000 F120.000
G3 X79.589 Y99.300 Z-8.000 I-1.684 J-151.275 K0.000 F120.000
G1 X74.700 Y94.411 Z-8.000 F120.000
G1 X74.700 Y96.391 Z-8.000 F120.000
G1 X74.700 Y97.957 Z-8.000 F120.000
G1 X74.721 Y98.125 Z-8.000 F120.000
G2 X75.425 Y98.824 Z-8.000 I1.049 J-0.352 K0.000 F120.000
G2 X77.570 Y99.261 Z-8.000 I2.159 J-5.111 K0.000 F120.000
G1 X74.700 Y96.391 Z-8.000 F120.000
G0 Z5.000
G0 X77.141 Y98.636 Z5.000
G0 X77.141 Y98.636 Z3.000
G1 X77.141 Y98.636 Z-9.000 F60.000
G1 X76.341 Y97.836 Z-9.000 F120.000
G2 X76.524 Y98.294 Z-9.000 I0.499 J0.066 K0.000 F120.000
G2 X77.141 Y98.636 Z-9.000 I1.180 J-1.403 K0.000 F120.000
G1 X77.348 Y98.715 Z-9.000 F120.000
G2 X79.501 Y99.016 Z-9.000 I2.156 J-7.577 K0.000 F120.000
G1 X76.341 Y95.856 Z-9.000 F120.000
G1 X76.341 Y93.876 Z-9.000 F120.000
G1 X81.409 Y98.944 Z-9.000 F120.000
G2 X83.016 Y98.571 Z-9.000 I-0.125 J-4.180 K0.000 F120.000
G1 X76.341 Y91.896 Z-9.000 F120.000
G1 X76.341 Y89.916 Z-9.000 F120.000
G1 X83.659 Y97.234 Z-9.000 F120.000
G1 X83.659 Y95.254 Z-9.000 F120.000
G1 X76.341 Y87.936 Z-9.000 F120.000
G1 X76.341 Y85.956 Z-9.000 F120.000
G1 X83.659 Y93.274 Z-9.000 F120.000
G1 X83.659 Y91.294 Z-9.000 F120.000
G1 X76.341 Y83.976 Z-9.000 F120.000
G1 X76.341 Y81.996 Z-9.000 F120.000
G1 X83.659 Y89.314 Z-9.000 F120.000
G1 X83.659 Y87.334 Z-9.000 F120.000
G1 X76.341 Y80.016 Z-9.000 F120.000
G1 X76.341 Y78.037 Z-9.000 F120.000
G1 X83.659 Y85.354 Z-9.000 F120.000
G1 X83.659 Y83.374 Z-9.000 F120.000
G1 X76.341 Y76.057 Z-9.000 F120.000
G1 X76.341 Y74.077 Z-9.000 F120.000
G1 X83.659 Y81.395 Z-9.000 F120.000
G1 X83.659 Y79.415 Z-9.000 F120.000
G1 X76.341 Y72.097 Z-9.000 F120.000
G1 X76.341 Y70.117 Z-9.000 F120.000
G1 X83.659 Y77.435 Z-9.000 F120.000
G1 X83.659 Y75.455 Z-9.000 F120.000
G1 X76.341 Y68.137 Z-9.000 F120.000
G1 X76.341 Y66.157 Z-9.000 F120.000
G1 X83.659 Y73.475 Z-9.000 F120.000
G1 X83.659 Y71.495 Z-9.000 F120.000
G1 X76.341 Y64.177 Z-9.000 F120.000
G1 X76.341 Y62.197 Z-9.000 F120.000
G1 X83.659 Y69.515 Z-9.000 F120.000
G1 X83.659 Y67.535 Z-9.000 F120.000
G1 X76.341 Y60.217 Z-9.000 F120.000
G1 X76.341 Y58.238 Z-9.000 F120.000
G1 X83.659 Y65.555 Z-9.000 F120.000
G1 X83.659 Y63.575 Z-9.000 F120.000
G1 X76.341 Y56.258 Z-9.000 F120.000
G1 X76.341 Y54.278 Z-9.000 F120.000
G1 X83.659 Y61.596 Z-9.000 F120.000
G1 X83.659 Y59.616 Z-9.000 F120.000
G1 X76.341 Y52.298 Z-9.000 F120.000
G1 X76.341 Y50.318 Z-9.000 F120.000
G1 X83.659 Y57.636 Z-9.000 F120.000
G1 X83.659 Y55.656 Z-9.000 F120.000
G1 X76.341 Y48.338 Z-9.000 F120.000
G1 X76.341 Y46.358 Z-9.000 F120.000
G1 X83.659 Y53.676 Z-9.000 F120.000
G1 X83.659 Y51.696 Z-9.000 F120.000
G1 X76.341 Y44.378 Z-9.000 F120.000
G1 X76.341 Y42.398 Z-9.000 F120.000
G1 X83.659 Y49.716 Z-9.000 F120.000
G1 X83.659 Y47.736 Z-9.000 F120.000
G1 X76.341 Y40.418 Z-9.000 F120.000
G1 X76.341 Y38.439 Z-9.000 F120.000
G1 X83.659 Y45.756 Z-9.000 F120.000
G1 X83.659 Y43.776 Z-9.000 F120.000
G1 X76.341 Y36.459 Z-9.000 F120.000
G1 X76.341 Y34.479 Z-9.000 F120.000
G1 X83.659 Y41.797 Z-9.000 F120.000
G1 X83.659 Y39.817 Z-9.000 F120.000
G1 X76.341 Y32.499 Z-9.000 F120.000
G3 X76.402 Y31.850 Z-9.000 I1.094 J-0.224 K0.000 F120.000
G3 X77.174 Y31.352 Z-9.000 I1.033 J0.754 K0.000 F120.000
G1 X83.659 Y37.837 Z-9.000 F120.000
G1 X83.659 Y35.857 Z-9.000 F120.000
G1 X78.827 Y31.025 Z-9.000 F120.000
G3 X80.778 Y30.996 Z-9.000 I1.114 J9.322 K0.000 F120.000
G1 X83.659 Y33.877 Z-9.000 F120.000
G1 X83.659 Y32.038 Z-9.000 F120.000
G2 X83.548 Y31.786 Z-9.000 I-0.358 J0.007 K0.000 F120.000
G0 Z5.000
G0 Z5.000
(Finish operation: Pocket3D003)
(Begin operation: Profile053)
(Path: Profile053)
(Profile053)
(Compensated Tool Path. Diameter: 1.4)
G0 Z5.000
G0 X160.199 Y110.200
G0 Z3.000
G1 X160.199 Y110.200 Z-1.000 F60.000
G2 X160.694 Y109.091 Z-1.000 I-1.205 J-1.203 K0.000 F120.000
G1 X160.700 Y1.000 Z-1.000 F120.000
G2 X159.091 Y-0.694 Z-1.000 I-1.703 J0.006 K0.000 F120.000
G1 X155.000 Y-0.700 Z-1.000 F120.000
G2 X154.505 Y-0.495 Z-1.000 I-0.000 J0.700 K0.000 F120.000
G1 X149.505 Y4.505 Z-1.000 F120.000
G2 X149.300 Y5.000 Z-1.000 I0.495 J0.495 K0.000 F120.000
G1 X149.300 Y6.000 Z-1.000 F120.000
G2 X150.000 Y6.700 Z-1.000 I0.700 J-0.000 K0.000 F120.000
G1 X152.969 Y6.700 Z-1.000 F120.000
G1 X153.269 Y6.726 Z-1.000 F120.000
G3 X152.969 Y9.800 Z-1.000 I-0.270 J1.525 K0.000 F120.000
G1 X141.986 Y9.800 Z-1.000 F120.000
G2 X141.286 Y10.501 Z-1.000 I-0.000 J0.700 K0.000 F120.000
G1 X141.300 Y20.973 Z-1.000 F120.000
G3 X138.973 Y23.300 Z-1.000 I-2.305 J0.022 K0.000 F120.000
G1 X21.028 Y23.300 Z-1.000 F120.000
G3 X18.700 Y20.972 Z-1.000 I-0.022 J-2.305 K0.000 F120.000
G1 X18.700 Y10.490 Z-1.000 F120.000
G2 X17.998 Y9.790 Z-1.000 I-0.700 J0.000 K0.000 F120.000
G3 X7.031 Y9.800 Z-1.000 I-8.491 J-3154.160 K0.000 F120.000
G1 X6.731 Y9.774 Z-1.000 F120.000
G3 X7.031 Y6.700 Z-1.000 I0.270 J-1.525 K0.000 F120.000
G1 X10.000 Y6.700 Z-1.000 F120.000
G2 X10.700 Y6.000 Z-1.000 I-0.000 J-0.700 K0.000 F120.000
G1 X10.700 Y5.000 Z-1.000 F120.000
G2 X10.495 Y4.505 Z-1.000 I-0.700 J-0.000 K0.000 F120.000
G1 X5.495 Y-0.495 Z-1.000 F120.000
G2 X5.000 Y-0.700 Z-1.000 I-0.495 J0.495 K0.000 F120.000
G1 X1.000 Y-0.700 Z-1.000 F120.000
G2 X-0.694 Y0.909 Z-1.000 I0.006 J1.703 K0.000 F120.000
G1 X-0.700 Y109.000 Z-1.000 F120.000
G2 X0.909 Y110.694 Z-1.000 I1.703 J-0.006 K0.000 F120.000
G1 X159.000 Y110.700 Z-1.000 F120.000
G2 X160.199 Y110.200 Z-1.000 I-0.006 J-1.703 K0.000 F120.000
G1 X160.199 Y110.200 Z-2.000 F60.000
G2 X160.694 Y109.091 Z-2.000 I-1.205 J-1.203 K0.000 F120.000
G1 X160.700 Y1.000 Z-2.000 F120.000
G2 X159.091 Y-0.694 Z-2.000 I-1.703 J0.006 K0.000 F120.000
G1 X155.000 Y-0.700 Z-2.000 F120.000
G2 X154.505 Y-0.495 Z-2.000 I-0.000 J0.700 K0.000 F120.000
G1 X149.505 Y4.505 Z-2.000 F120.000
G2 X149.300 Y5.000 Z-2.000 I0.495 J0.495 K0.000 F120.000
G1 X149.300 Y6.000 Z-2.000 F120.000
G2 X150.000 Y6.700 Z-2.000 I0.700 J-0.000 K0.000 F120.000
G1 X152.969 Y6.700 Z-2.000 F120.000
G1 X153.269 Y6.726 Z-2.000 F120.000
G3 X152.969 Y9.800 Z-2.000 I-0.270 J1.525 K0.000 F120.000
G1 X141.986 Y9.800 Z-2.000 F120.000
G2 X141.286 Y10.501 Z-2.000 I-0.000 J0.700 K0.000 F120.000
G1 X141.300 Y20.973 Z-2.000 F120.000
G3 X138.973 Y23.300 Z-2.000 I-2.305 J0.022 K0.000 F120.000
G1 X21.028 Y23.300 Z-2.000 F120.000
G3 X18.700 Y20.972 Z-2.000 I-0.022 J-2.305 K0.000 F120.000
G1 X18.700 Y10.490 Z-2.000 F120.000
G2 X17.998 Y9.790 Z-2.000 I-0.700 J0.000 K0.000 F120.000
G3 X7.031 Y9.800 Z-2.000 I-8.491 J-3154.160 K0.000 F120.000
G1 X6.731 Y9.774 Z-2.000 F120.000
G3 X7.031 Y6.700 Z-2.000 I0.270 J-1.525 K0.000 F120.000
G1 X10.000 Y6.700 Z-2.000 F120.000
G2 X10.700 Y6.000 Z-2.000 I-0.000 J-0.700 K0.000 F120.000
G1 X10.700 Y5.000 Z-2.000 F120.000
G2 X10.495 Y4.505 Z-2.000 I-0.700 J-0.000 K0.000 F120.000
G1 X5.495 Y-0.495 Z-2.000 F120.000
G2 X5.000 Y-0.700 Z-2.000 I-0.495 J0.495 K0.000 F120.000
G1 X1.000 Y-0.700 Z-2.000 F120.000
G2 X-0.694 Y0.909 Z-2.000 I0.006 J1.703 K0.000 F120.000
G1 X-0.700 Y109.000 Z-2.000 F120.000
G2 X0.909 Y110.694 Z-2.000 I1.703 J-0.006 K0.000 F120.000
G1 X159.000 Y110.700 Z-2.000 F120.000
G2 X160.199 Y110.200 Z-2.000 I-0.006 J-1.703 K0.000 F120.000
G1 X160.199 Y110.200 Z-3.000 F60.000
G2 X160.694 Y109.091 Z-3.000 I-1.205 J-1.203 K0.000 F120.000
G1 X160.700 Y1.000 Z-3.000 F120.000
G2 X159.091 Y-0.694 Z-3.000 I-1.703 J0.006 K0.000 F120.000
G1 X155.000 Y-0.700 Z-3.000 F120.000
G2 X154.505 Y-0.495 Z-3.000 I-0.000 J0.700 K0.000 F120.000
G1 X149.505 Y4.505 Z-3.000 F120.000
G2 X149.300 Y5.000 Z-3.000 I0.495 J0.495 K0.000 F120.000
G1 X149.300 Y6.000 Z-3.000 F120.000
G2 X150.000 Y6.700 Z-3.000 I0.700 J-0.000 K0.000 F120.000
G1 X152.969 Y6.700 Z-3.000 F120.000
G1 X153.269 Y6.726 Z-3.000 F120.000
G3 X152.969 Y9.800 Z-3.000 I-0.270 J1.525 K0.000 F120.000
G1 X141.986 Y9.800 Z-3.000 F120.000
G2 X141.286 Y10.501 Z-3.000 I-0.000 J0.700 K0.000 F120.000
G1 X141.300 Y20.973 Z-3.000 F120.000
G3 X138.973 Y23.300 Z-3.000 I-2.305 J0.022 K0.000 F120.000
G1 X21.028 Y23.300 Z-3.000 F120.000
G3 X18.700 Y20.972 Z-3.000 I-0.022 J-2.305 K0.000 F120.000
G1 X18.700 Y10.490 Z-3.000 F120.000
G2 X17.998 Y9.790 Z-3.000 I-0.700 J0.000 K0.000 F120.000
G3 X7.031 Y9.800 Z-3.000 I-8.491 J-3154.160 K0.000 F120.000
G1 X6.731 Y9.774 Z-3.000 F120.000
G3 X7.031 Y6.700 Z-3.000 I0.270 J-1.525 K0.000 F120.000
G1 X10.000 Y6.700 Z-3.000 F120.000
G2 X10.700 Y6.000 Z-3.000 I-0.000 J-0.700 K0.000 F120.000
G1 X10.700 Y5.000 Z-3.000 F120.000
G2 X10.495 Y4.505 Z-3.000 I-0.700 J-0.000 K0.000 F120.000
G1 X5.495 Y-0.495 Z-3.000 F120.000
G2 X5.000 Y-0.700 Z-3.000 I-0.495 J0.495 K0.000 F120.000
G1 X1.000 Y-0.700 Z-3.000 F120.000
G2 X-0.694 Y0.909 Z-3.000 I0.006 J1.703 K0.000 F120.000
G1 X-0.700 Y109.000 Z-3.000 F120.000
G2 X0.909 Y110.694 Z-3.000 I1.703 J-0.006 K0.000 F120.000
G1 X159.000 Y110.700 Z-3.000 F120.000
G2 X160.199 Y110.200 Z-3.000 I-0.006 J-1.703 K0.000 F120.000
G1 X160.199 Y110.200 Z-4.000 F60.000
G2 X160.694 Y109.091 Z-4.000 I-1.205 J-1.203 K0.000 F120.000
G1 X160.700 Y1.000 Z-4.000 F120.000
G2 X159.091 Y-0.694 Z-4.000 I-1.703 J0.006 K0.000 F120.000
G1 X155.000 Y-0.700 Z-4.000 F120.000
G2 X154.505 Y-0.495 Z-4.000 I-0.000 J0.700 K0.000 F120.000
G1 X149.505 Y4.505 Z-4.000 F120.000
G2 X149.300 Y5.000 Z-4.000 I0.495 J0.495 K0.000 F120.000
G1 X149.300 Y6.000 Z-4.000 F120.000
G2 X150.000 Y6.700 Z-4.000 I0.700 J-0.000 K0.000 F120.000
G1 X152.969 Y6.700 Z-4.000 F120.000
G1 X153.269 Y6.726 Z-4.000 F120.000
G3 X152.969 Y9.800 Z-4.000 I-0.270 J1.525 K0.000 F120.000
G1 X141.986 Y9.800 Z-4.000 F120.000
G2 X141.286 Y10.501 Z-4.000 I-0.000 J0.700 K0.000 F120.000
G1 X141.300 Y20.973 Z-4.000 F120.000
G3 X138.973 Y23.300 Z-4.000 I-2.305 J0.022 K0.000 F120.000
G1 X21.028 Y23.300 Z-4.000 F120.000
G3 X18.700 Y20.972 Z-4.000 I-0.022 J-2.305 K0.000 F120.000
G1 X18.700 Y10.490 Z-4.000 F120.000
G2 X17.998 Y9.790 Z-4.000 I-0.700 J0.000 K0.000 F120.000
G3 X7.031 Y9.800 Z-4.000 I-8.491 J-3154.160 K0.000 F120.000
G1 X6.731 Y9.774 Z-4.000 F120.000
G3 X7.031 Y6.700 Z-4.000 I0.270 J-1.525 K0.000 F120.000
G1 X10.000 Y6.700 Z-4.000 F120.000
G2 X10.700 Y6.000 Z-4.000 I-0.000 J-0.700 K0.000 F120.000
G1 X10.700 Y5.000 Z-4.000 F120.000
G2 X10.495 Y4.505 Z-4.000 I-0.700 J-0.000 K0.000 F120.000
G1 X5.495 Y-0.495 Z-4.000 F120.000
G2 X5.000 Y-0.700 Z-4.000 I-0.495 J0.495 K0.000 F120.000
G1 X1.000 Y-0.700 Z-4.000 F120.000
G2 X-0.694 Y0.909 Z-4.000 I0.006 J1.703 K0.000 F120.000
G1 X-0.700 Y109.000 Z-4.000 F120.000
G2 X0.909 Y110.694 Z-4.000 I1.703 J-0.006 K0.000 F120.000
G1 X159.000 Y110.700 Z-4.000 F120.000
G2 X160.199 Y110.200 Z-4.000 I-0.006 J-1.703 K0.000 F120.000
G1 X160.199 Y110.200 Z-5.000 F60.000
G2 X160.694 Y109.091 Z-5.000 I-1.205 J-1.203 K0.000 F120.000
G1 X160.700 Y1.000 Z-5.000 F120.000
G2 X159.091 Y-0.694 Z-5.000 I-1.703 J0.006 K0.000 F120.000
G1 X155.000 Y-0.700 Z-5.000 F120.000
G2 X154.505 Y-0.495 Z-5.000 I-0.000 J0.700 K0.000 F120.000
G1 X149.505 Y4.505 Z-5.000 F120.000
G2 X149.300 Y5.000 Z-5.000 I0.495 J0.495 K0.000 F120.000
G1 X149.300 Y6.000 Z-5.000 F120.000
G2 X150.000 Y6.700 Z-5.000 I0.700 J-0.000 K0.000 F120.000
G1 X152.969 Y6.700 Z-5.000 F120.000
G1 X153.269 Y6.726 Z-5.000 F120.000
G3 X152.969 Y9.800 Z-5.000 I-0.270 J1.525 K0.000 F120.000
G1 X141.986 Y9.800 Z-5.000 F120.000
G2 X141.286 Y10.501 Z-5.000 I-0.000 J0.700 K0.000 F120.000
G1 X141.300 Y20.973 Z-5.000 F120.000
G3 X138.973 Y23.300 Z-5.000 I-2.305 J0.022 K0.000 F120.000
G1 X21.028 Y23.300 Z-5.000 F120.000
G3 X18.700 Y20.972 Z-5.000 I-0.022 J-2.305 K0.000 F120.000
G1 X18.700 Y10.490 Z-5.000 F120.000
G2 X17.998 Y9.790 Z-5.000 I-0.700 J0.000 K0.000 F120.000
G3 X7.031 Y9.800 Z-5.000 I-8.491 J-3154.160 K0.000 F120.000
G1 X6.731 Y9.774 Z-5.000 F120.000
G3 X7.031 Y6.700 Z-5.000 I0.270 J-1.525 K0.000 F120.000
G1 X10.000 Y6.700 Z-5.000 F120.000
G2 X10.700 Y6.000 Z-5.000 I-0.000 J-0.700 K0.000 F120.000
G1 X10.700 Y5.000 Z-5.000 F120.000
G2 X10.495 Y4.505 Z-5.000 I-0.700 J-0.000 K0.000 F120.000
G1 X5.495 Y-0.495 Z-5.000 F120.000
G2 X5.000 Y-0.700 Z-5.000 I-0.495 J0.495 K0.000 F120.000
G1 X1.000 Y-0.700 Z-5.000 F120.000
G2 X-0.694 Y0.909 Z-5.000 I0.006 J1.703 K0.000 F120.000
G1 X-0.700 Y109.000 Z-5.000 F120.000
G2 X0.909 Y110.694 Z-5.000 I1.703 J-0.006 K0.000 F120.000
G1 X159.000 Y110.700 Z-5.000 F120.000
G2 X160.199 Y110.200 Z-5.000 I-0.006 J-1.703 K0.000 F120.000
G1 X160.199 Y110.200 Z-6.000 F60.000
G2 X160.694 Y109.091 Z-6.000 I-1.205 J-1.203 K0.000 F120.000
G1 X160.700 Y1.000 Z-6.000 F120.000
G2 X159.091 Y-0.694 Z-6.000 I-1.703 J0.006 K0.000 F120.000
G1 X155.000 Y-0.700 Z-6.000 F120.000
G2 X154.505 Y-0.495 Z-6.000 I-0.000 J0.700 K0.000 F120.000
G1 X149.505 Y4.505 Z-6.000 F120.000
G2 X149.300 Y5.000 Z-6.000 I0.495 J0.495 K0.000 F120.000
G1 X149.300 Y6.000 Z-6.000 F120.000
G2 X150.000 Y6.700 Z-6.000 I0.700 J-0.000 K0.000 F120.000
G1 X152.969 Y6.700 Z-6.000 F120.000
G1 X153.269 Y6.726 Z-6.000 F120.000
G3 X152.969 Y9.800 Z-6.000 I-0.270 J1.525 K0.000 F120.000
G1 X141.986 Y9.800 Z-6.000 F120.000
G2 X141.286 Y10.501 Z-6.000 I-0.000 J0.700 K0.000 F120.000
G1 X141.300 Y20.973 Z-6.000 F120.000
G3 X138.973 Y23.300 Z-6.000 I-2.305 J0.022 K0.000 F120.000
G1 X21.028 Y23.300 Z-6.000 F120.000
G3 X18.700 Y20.972 Z-6.000 I-0.022 J-2.305 K0.000 F120.000
G1 X18.700 Y10.490 Z-6.000 F120.000
G2 X17.998 Y9.790 Z-6.000 I-0.700 J0.000 K0.000 F120.000
G3 X7.031 Y9.800 Z-6.000 I-8.491 J-3154.160 K0.000 F120.000
G1 X6.731 Y9.774 Z-6.000 F120.000
G3 X7.031 Y6.700 Z-6.000 I0.270 J-1.525 K0.000 F120.000
G1 X10.000 Y6.700 Z-6.000 F120.000
G2 X10.700 Y6.000 Z-6.000 I-0.000 J-0.700 K0.000 F120.000
G1 X10.700 Y5.000 Z-6.000 F120.000
G2 X10.495 Y4.505 Z-6.000 I-0.700 J-0.000 K0.000 F120.000
G1 X5.495 Y-0.495 Z-6.000 F120.000
G2 X5.000 Y-0.700 Z-6.000 I-0.495 J0.495 K0.000 F120.000
G1 X1.000 Y-0.700 Z-6.000 F120.000
G2 X-0.694 Y0.909 Z-6.000 I0.006 J1.703 K0.000 F120.000
G1 X-0.700 Y109.000 Z-6.000 F120.000
G2 X0.909 Y110.694 Z-6.000 I1.703 J-0.006 K0.000 F120.000
G1 X159.000 Y110.700 Z-6.000 F120.000
G2 X160.199 Y110.200 Z-6.000 I-0.006 J-1.703 K0.000 F120.000
G1 X160.199 Y110.200 Z-7.000 F60.000
G2 X160.694 Y109.091 Z-7.000 I-1.205 J-1.203 K0.000 F120.000
G1 X160.700 Y1.000 Z-7.000 F120.000
G2 X159.091 Y-0.694 Z-7.000 I-1.703 J0.006 K0.000 F120.000
G1 X155.000 Y-0.700 Z-7.000 F120.000
G2 X154.505 Y-0.495 Z-7.000 I-0.000 J0.700 K0.000 F120.000
G1 X149.505 Y4.505 Z-7.000 F120.000
G2 X149.300 Y5.000 Z-7.000 I0.495 J0.495 K0.000 F120.000
G1 X149.300 Y6.000 Z-7.000 F120.000
G2 X150.000 Y6.700 Z-7.000 I0.700 J-0.000 K0.000 F120.000
G1 X152.969 Y6.700 Z-7.000 F120.000
G1 X153.269 Y6.726 Z-7.000 F120.000
G3 X152.969 Y9.800 Z-7.000 I-0.270 J1.525 K0.000 F120.000
G1 X141.986 Y9.800 Z-7.000 F120.000
G2 X141.286 Y10.501 Z-7.000 I-0.000 J0.700 K0.000 F120.000
G1 X141.300 Y20.973 Z-7.000 F120.000
G3 X138.973 Y23.300 Z-7.000 I-2.305 J0.022 K0.000 F120.000
G1 X21.028 Y23.300 Z-7.000 F120.000
G3 X18.700 Y20.972 Z-7.000 I-0.022 J-2.305 K0.000 F120.000
G1 X18.700 Y10.490 Z-7.000 F120.000
G2 X17.998 Y9.790 Z-7.000 I-0.700 J0.000 K0.000 F120.000
G3 X7.031 Y9.800 Z-7.000 I-8.491 J-3154.160 K0.000 F120.000
G1 X6.731 Y9.774 Z-7.000 F120.000
G3 X7.031 Y6.700 Z-7.000 I0.270 J-1.525 K0.000 F120.000
G1 X10.000 Y6.700 Z-7.000 F120.000
G2 X10.700 Y6.000 Z-7.000 I-0.000 J-0.700 K0.000 F120.000
G1 X10.700 Y5.000 Z-7.000 F120.000
G2 X10.495 Y4.505 Z-7.000 I-0.700 J-0.000 K0.000 F120.000
G1 X5.495 Y-0.495 Z-7.000 F120.000
G2 X5.000 Y-0.700 Z-7.000 I-0.495 J0.495 K0.000 F120.000
G1 X1.000 Y-0.700 Z-7.000 F120.000
G2 X-0.694 Y0.909 Z-7.000 I0.006 J1.703 K0.000 F120.000
G1 X-0.700 Y109.000 Z-7.000 F120.000
G2 X0.909 Y110.694 Z-7.000 I1.703 J-0.006 K0.000 F120.000
G1 X159.000 Y110.700 Z-7.000 F120.000
G2 X160.199 Y110.200 Z-7.000 I-0.006 J-1.703 K0.000 F120.000
G1 X160.199 Y110.200 Z-8.000 F60.000
G2 X160.694 Y109.091 Z-8.000 I-1.205 J-1.203 K0.000 F120.000
G1 X160.700 Y1.000 Z-8.000 F120.000
G2 X159.091 Y-0.694 Z-8.000 I-1.703 J0.006 K0.000 F120.000
G1 X155.000 Y-0.700 Z-8.000 F120.000
G2 X154.505 Y-0.495 Z-8.000 I-0.000 J0.700 K0.000 F120.000
G1 X149.505 Y4.505 Z-8.000 F120.000
G2 X149.300 Y5.000 Z-8.000 I0.495 J0.495 K0.000 F120.000
G1 X149.300 Y6.000 Z-8.000 F120.000
G2 X150.000 Y6.700 Z-8.000 I0.700 J-0.000 K0.000 F120.000
G1 X152.969 Y6.700 Z-8.000 F120.000
G1 X153.269 Y6.726 Z-8.000 F120.000
G3 X152.969 Y9.800 Z-8.000 I-0.270 J1.525 K0.000 F120.000
G1 X141.986 Y9.800 Z-8.000 F120.000
G2 X141.286 Y10.501 Z-8.000 I-0.000 J0.700 K0.000 F120.000
G1 X141.300 Y20.973 Z-8.000 F120.000
G3 X138.973 Y23.300 Z-8.000 I-2.305 J0.022 K0.000 F120.000
G1 X21.028 Y23.300 Z-8.000 F120.000
G3 X18.700 Y20.972 Z-8.000 I-0.022 J-2.305 K0.000 F120.000
G1 X18.700 Y10.490 Z-8.000 F120.000
G2 X17.998 Y9.790 Z-8.000 I-0.700 J0.000 K0.000 F120.000
G3 X7.031 Y9.800 Z-8.000 I-8.491 J-3154.160 K0.000 F120.000
G1 X6.731 Y9.774 Z-8.000 F120.000
G3 X7.031 Y6.700 Z-8.000 I0.270 J-1.525 K0.000 F120.000
G1 X10.000 Y6.700 Z-8.000 F120.000
G2 X10.700 Y6.000 Z-8.000 I-0.000 J-0.700 K0.000 F120.000
G1 X10.700 Y5.000 Z-8.000 F120.000
G2 X10.495 Y4.505 Z-8.000 I-0.700 J-0.000 K0.000 F120.000
G1 X5.495 Y-0.495 Z-8.000 F120.000
G2 X5.000 Y-0.700 Z-8.000 I-0.495 J0.495 K0.000 F120.000
G1 X1.000 Y-0.700 Z-8.000 F120.000
G2 X-0.694 Y0.909 Z-8.000 I0.006 J1.703 K0.000 F120.000
G1 X-0.700 Y109.000 Z-8.000 F120.000
G2 X0.909 Y110.694 Z-8.000 I1.703 J-0.006 K0.000 F120.000
G1 X159.000 Y110.700 Z-8.000 F120.000
G2 X160.199 Y110.200 Z-8.000 I-0.006 J-1.703 K0.000 F120.000
G1 X160.199 Y110.200 Z-9.000 F60.000
G2 X160.694 Y109.091 Z-9.000 I-1.205 J-1.203 K0.000 F120.000
G1 X160.700 Y1.000 Z-9.000 F120.000
G2 X159.091 Y-0.694 Z-9.000 I-1.703 J0.006 K0.000 F120.000
G1 X155.000 Y-0.700 Z-9.000 F120.000
G2 X154.505 Y-0.495 Z-9.000 I-0.000 J0.700 K0.000 F120.000
G1 X149.505 Y4.505 Z-9.000 F120.000
G2 X149.300 Y5.000 Z-9.000 I0.495 J0.495 K0.000 F120.000
G1 X149.300 Y6.000 Z-9.000 F120.000
G2 X150.000 Y6.700 Z-9.000 I0.700 J-0.000 K0.000 F120.000
G1 X152.969 Y6.700 Z-9.000 F120.000
G1 X153.269 Y6.726 Z-9.000 F120.000
G3 X152.969 Y9.800 Z-9.000 I-0.270 J1.525 K0.000 F120.000
G1 X141.986 Y9.800 Z-9.000 F120.000
G2 X141.286 Y10.501 Z-9.000 I-0.000 J0.700 K0.000 F120.000
G1 X141.300 Y20.973 Z-9.000 F120.000
G3 X138.973 Y23.300 Z-9.000 I-2.305 J0.022 K0.000 F120.000
G1 X21.028 Y23.300 Z-9.000 F120.000
G3 X18.700 Y20.972 Z-9.000 I-0.022 J-2.305 K0.000 F120.000
G1 X18.700 Y10.490 Z-9.000 F120.000
G2 X17.998 Y9.790 Z-9.000 I-0.700 J0.000 K0.000 F120.000
G3 X7.031 Y9.800 Z-9.000 I-8.491 J-3154.160 K0.000 F120.000
G1 X6.731 Y9.774 Z-9.000 F120.000
G3 X7.031 Y6.700 Z-9.000 I0.270 J-1.525 K0.000 F120.000
G1 X10.000 Y6.700 Z-9.000 F120.000
G2 X10.700 Y6.000 Z-9.000 I-0.000 J-0.700 K0.000 F120.000
G1 X10.700 Y5.000 Z-9.000 F120.000
G2 X10.495 Y4.505 Z-9.000 I-0.700 J-0.000 K0.000 F120.000
G1 X5.495 Y-0.495 Z-9.000 F120.000
G2 X5.000 Y-0.700 Z-9.000 I-0.495 J0.495 K0.000 F120.000
G1 X1.000 Y-0.700 Z-9.000 F120.000
G2 X-0.694 Y0.909 Z-9.000 I0.006 J1.703 K0.000 F120.000
G1 X-0.700 Y109.000 Z-9.000 F120.000
G2 X0.909 Y110.694 Z-9.000 I1.703 J-0.006 K0.000 F120.000
G1 X159.000 Y110.700 Z-9.000 F120.000
G2 X160.199 Y110.200 Z-9.000 I-0.006 J-1.703 K0.000 F120.000
G1 X160.199 Y110.200 Z-10.000 F60.000
G2 X160.694 Y109.091 Z-10.000 I-1.205 J-1.203 K0.000 F120.000
G1 X160.700 Y1.000 Z-10.000 F120.000
G2 X159.091 Y-0.694 Z-10.000 I-1.703 J0.006 K0.000 F120.000
G1 X155.000 Y-0.700 Z-10.000 F120.000
G2 X154.505 Y-0.495 Z-10.000 I-0.000 J0.700 K0.000 F120.000
G1 X149.505 Y4.505 Z-10.000 F120.000
G2 X149.300 Y5.000 Z-10.000 I0.495 J0.495 K0.000 F120.000
G1 X149.300 Y6.000 Z-10.000 F120.000
G2 X150.000 Y6.700 Z-10.000 I0.700 J-0.000 K0.000 F120.000
G1 X152.969 Y6.700 Z-10.000 F120.000
G1 X153.269 Y6.726 Z-10.000 F120.000
G3 X152.969 Y9.800 Z-10.000 I-0.270 J1.525 K0.000 F120.000
G1 X141.986 Y9.800 Z-10.000 F120.000
G2 X141.286 Y10.501 Z-10.000 I-0.000 J0.700 K0.000 F120.000
G1 X141.300 Y20.973 Z-10.000 F120.000
G3 X138.973 Y23.300 Z-10.000 I-2.305 J0.022 K0.000 F120.000
G1 X21.028 Y23.300 Z-10.000 F120.000
G3 X18.700 Y20.972 Z-10.000 I-0.022 J-2.305 K0.000 F120.000
G1 X18.700 Y10.490 Z-10.000 F120.000
G2 X17.998 Y9.790 Z-10.000 I-0.700 J0.000 K0.000 F120.000
G3 X7.031 Y9.800 Z-10.000 I-8.491 J-3154.160 K0.000 F120.000
G1 X6.731 Y9.774 Z-10.000 F120.000
G3 X7.031 Y6.700 Z-10.000 I0.270 J-1.525 K0.000 F120.000
G1 X10.000 Y6.700 Z-10.000 F120.000
G2 X10.700 Y6.000 Z-10.000 I-0.000 J-0.700 K0.000 F120.000
G1 X10.700 Y5.000 Z-10.000 F120.000
G2 X10.495 Y4.505 Z-10.000 I-0.700 J-0.000 K0.000 F120.000
G1 X5.495 Y-0.495 Z-10.000 F120.000
G2 X5.000 Y-0.700 Z-10.000 I-0.495 J0.495 K0.000 F120.000
G1 X1.000 Y-0.700 Z-10.000 F120.000
G2 X-0.694 Y0.909 Z-10.000 I0.006 J1.703 K0.000 F120.000
G1 X-0.700 Y109.000 Z-10.000 F120.000
G2 X0.909 Y110.694 Z-10.000 I1.703 J-0.006 K0.000 F120.000
G1 X159.000 Y110.700 Z-10.000 F120.000
G2 X160.199 Y110.200 Z-10.000 I-0.006 J-1.703 K0.000 F120.000
G0 Z5.000
G0 Z5.000
(Finish operation: Profile053)
G0 X0 Y0
(Begin postamble)
M5
G17 G90
M2
