(Exported by FreeCAD)
(Post Processor: grbl_post)
(Output Time:2024-10-26 09:46:52.240642)
(Begin preamble)
G17 G90
G21
(Begin operation: G54)
(Path: G54)
G54
G0 Z5.000
(Finish operation: G54)
(Begin operation: Bit_1,010)
(Path: Bit_1,010)
(Bit_1,010)
(Begin toolchange)
( M6 T2 )
M3 S10000
(Finish operation: Bit_1,010)
(Begin operation: Profile054)
(Path: Profile054)
(Profile054)
(Compensated Tool Path. Diameter: 1.4)
G0 Z2.000
G0 X10.563 Y20.563
G1 X10.563 Y20.563 Z-0.500 F60.000
G3 X9.655 Y20.717 Z-0.500 I-0.563 J-0.563 K0.000 F120.000
G3 X10.345 Y19.283 Z-0.500 I0.345 J-0.717 K0.000 F120.000
G3 X10.563 Y20.563 Z-0.500 I-0.345 J0.717 K0.000 F120.000
G1 X10.563 Y20.563 Z-1.000 F60.000
G3 X9.655 Y20.717 Z-1.000 I-0.563 J-0.563 K0.000 F120.000
G3 X10.345 Y19.283 Z-1.000 I0.345 J-0.717 K0.000 F120.000
G3 X10.563 Y20.563 Z-1.000 I-0.345 J0.717 K0.000 F120.000
G1 X10.563 Y20.563 Z-1.500 F60.000
G3 X9.655 Y20.717 Z-1.500 I-0.563 J-0.563 K0.000 F120.000
G3 X10.345 Y19.283 Z-1.500 I0.345 J-0.717 K0.000 F120.000
G3 X10.563 Y20.563 Z-1.500 I-0.345 J0.717 K0.000 F120.000
G1 X10.563 Y20.563 Z-2.000 F60.000
G3 X9.655 Y20.717 Z-2.000 I-0.563 J-0.563 K0.000 F120.000
G3 X10.345 Y19.283 Z-2.000 I0.345 J-0.717 K0.000 F120.000
G3 X10.563 Y20.563 Z-2.000 I-0.345 J0.717 K0.000 F120.000
G1 X10.563 Y20.563 Z-2.500 F60.000
G3 X9.655 Y20.717 Z-2.500 I-0.563 J-0.563 K0.000 F120.000
G3 X10.345 Y19.283 Z-2.500 I0.345 J-0.717 K0.000 F120.000
G3 X10.563 Y20.563 Z-2.500 I-0.345 J0.717 K0.000 F120.000
G1 X10.563 Y20.563 Z-3.000 F60.000
G3 X9.655 Y20.717 Z-3.000 I-0.563 J-0.563 K0.000 F120.000
G3 X10.345 Y19.283 Z-3.000 I0.345 J-0.717 K0.000 F120.000
G3 X10.563 Y20.563 Z-3.000 I-0.345 J0.717 K0.000 F120.000
G1 X10.563 Y20.563 Z-3.500 F60.000
G3 X9.655 Y20.717 Z-3.500 I-0.563 J-0.563 K0.000 F120.000
G3 X10.345 Y19.283 Z-3.500 I0.345 J-0.717 K0.000 F120.000
G3 X10.563 Y20.563 Z-3.500 I-0.345 J0.717 K0.000 F120.000
G1 X10.563 Y20.563 Z-4.000 F60.000
G3 X9.655 Y20.717 Z-4.000 I-0.563 J-0.563 K0.000 F120.000
G3 X10.345 Y19.283 Z-4.000 I0.345 J-0.717 K0.000 F120.000
G3 X10.563 Y20.563 Z-4.000 I-0.345 J0.717 K0.000 F120.000
G1 X10.563 Y20.563 Z-4.500 F60.000
G3 X9.655 Y20.717 Z-4.500 I-0.563 J-0.563 K0.000 F120.000
G3 X10.345 Y19.283 Z-4.500 I0.345 J-0.717 K0.000 F120.000
G3 X10.563 Y20.563 Z-4.500 I-0.345 J0.717 K0.000 F120.000
G1 X10.563 Y20.563 Z-5.000 F60.000
G3 X9.655 Y20.717 Z-5.000 I-0.563 J-0.563 K0.000 F120.000
G3 X10.345 Y19.283 Z-5.000 I0.345 J-0.717 K0.000 F120.000
G3 X10.563 Y20.563 Z-5.000 I-0.345 J0.717 K0.000 F120.000
G1 X10.563 Y20.563 Z-5.500 F60.000
G3 X9.655 Y20.717 Z-5.500 I-0.563 J-0.563 K0.000 F120.000
G3 X10.345 Y19.283 Z-5.500 I0.345 J-0.717 K0.000 F120.000
G3 X10.563 Y20.563 Z-5.500 I-0.345 J0.717 K0.000 F120.000
G1 X10.563 Y20.563 Z-6.000 F60.000
G3 X9.655 Y20.717 Z-6.000 I-0.563 J-0.563 K0.000 F120.000
G3 X10.345 Y19.283 Z-6.000 I0.345 J-0.717 K0.000 F120.000
G3 X10.563 Y20.563 Z-6.000 I-0.345 J0.717 K0.000 F120.000
G1 X10.563 Y20.563 Z-6.500 F60.000
G3 X9.655 Y20.717 Z-6.500 I-0.563 J-0.563 K0.000 F120.000
G3 X10.345 Y19.283 Z-6.500 I0.345 J-0.717 K0.000 F120.000
G3 X10.563 Y20.563 Z-6.500 I-0.345 J0.717 K0.000 F120.000
G1 X10.563 Y20.563 Z-7.000 F60.000
G3 X9.655 Y20.717 Z-7.000 I-0.563 J-0.563 K0.000 F120.000
G3 X10.345 Y19.283 Z-7.000 I0.345 J-0.717 K0.000 F120.000
G3 X10.563 Y20.563 Z-7.000 I-0.345 J0.717 K0.000 F120.000
G1 X10.563 Y20.563 Z-7.500 F60.000
G3 X9.655 Y20.717 Z-7.500 I-0.563 J-0.563 K0.000 F120.000
G3 X10.345 Y19.283 Z-7.500 I0.345 J-0.717 K0.000 F120.000
G3 X10.563 Y20.563 Z-7.500 I-0.345 J0.717 K0.000 F120.000
G1 X10.563 Y20.563 Z-8.000 F60.000
G3 X9.655 Y20.717 Z-8.000 I-0.563 J-0.563 K0.000 F120.000
G3 X10.345 Y19.283 Z-8.000 I0.345 J-0.717 K0.000 F120.000
G3 X10.563 Y20.563 Z-8.000 I-0.345 J0.717 K0.000 F120.000
G1 X10.563 Y20.563 Z-8.500 F60.000
G3 X9.655 Y20.717 Z-8.500 I-0.563 J-0.563 K0.000 F120.000
G3 X10.345 Y19.283 Z-8.500 I0.345 J-0.717 K0.000 F120.000
G3 X10.563 Y20.563 Z-8.500 I-0.345 J0.717 K0.000 F120.000
G1 X10.563 Y20.563 Z-9.000 F60.000
G3 X9.655 Y20.717 Z-9.000 I-0.563 J-0.563 K0.000 F120.000
G3 X10.345 Y19.283 Z-9.000 I0.345 J-0.717 K0.000 F120.000
G3 X10.563 Y20.563 Z-9.000 I-0.345 J0.717 K0.000 F120.000
G1 X10.563 Y20.563 Z-9.500 F60.000
G3 X9.655 Y20.717 Z-9.500 I-0.563 J-0.563 K0.000 F120.000
G3 X10.345 Y19.283 Z-9.500 I0.345 J-0.717 K0.000 F120.000
G3 X10.563 Y20.563 Z-9.500 I-0.345 J0.717 K0.000 F120.000
G1 X10.563 Y20.563 Z-10.000 F60.000
G3 X9.655 Y20.717 Z-10.000 I-0.563 J-0.563 K0.000 F120.000
G3 X10.345 Y19.283 Z-10.000 I0.345 J-0.717 K0.000 F120.000
G3 X10.563 Y20.563 Z-10.000 I-0.345 J0.717 K0.000 F120.000
G0 Z2.000
G0 Z2.000
G0 X10.563 Y20.563
G0 X7.034 Y102.205
G0 X7.034 Y102.205
G1 X7.034 Y102.205 Z-0.500 F60.000
G3 X7.345 Y102.283 Z-0.500 I-0.034 J0.795 K0.000 F120.000
G3 X6.655 Y103.717 Z-0.500 I-0.345 J0.717 K0.000 F120.000
G3 X7.034 Y102.205 Z-0.500 I0.345 J-0.717 K0.000 F120.000
G1 X7.034 Y102.205 Z-1.000 F60.000
G3 X7.345 Y102.283 Z-1.000 I-0.034 J0.795 K0.000 F120.000
G3 X6.655 Y103.717 Z-1.000 I-0.345 J0.717 K0.000 F120.000
G3 X7.034 Y102.205 Z-1.000 I0.345 J-0.717 K0.000 F120.000
G1 X7.034 Y102.205 Z-1.500 F60.000
G3 X7.345 Y102.283 Z-1.500 I-0.034 J0.795 K0.000 F120.000
G3 X6.655 Y103.717 Z-1.500 I-0.345 J0.717 K0.000 F120.000
G3 X7.034 Y102.205 Z-1.500 I0.345 J-0.717 K0.000 F120.000
G1 X7.034 Y102.205 Z-2.000 F60.000
G3 X7.345 Y102.283 Z-2.000 I-0.034 J0.795 K0.000 F120.000
G3 X6.655 Y103.717 Z-2.000 I-0.345 J0.717 K0.000 F120.000
G3 X7.034 Y102.205 Z-2.000 I0.345 J-0.717 K0.000 F120.000
G1 X7.034 Y102.205 Z-2.500 F60.000
G3 X7.345 Y102.283 Z-2.500 I-0.034 J0.795 K0.000 F120.000
G3 X6.655 Y103.717 Z-2.500 I-0.345 J0.717 K0.000 F120.000
G3 X7.034 Y102.205 Z-2.500 I0.345 J-0.717 K0.000 F120.000
G1 X7.034 Y102.205 Z-3.000 F60.000
G3 X7.345 Y102.283 Z-3.000 I-0.034 J0.795 K0.000 F120.000
G3 X6.655 Y103.717 Z-3.000 I-0.345 J0.717 K0.000 F120.000
G3 X7.034 Y102.205 Z-3.000 I0.345 J-0.717 K0.000 F120.000
G1 X7.034 Y102.205 Z-3.500 F60.000
G3 X7.345 Y102.283 Z-3.500 I-0.034 J0.795 K0.000 F120.000
G3 X6.655 Y103.717 Z-3.500 I-0.345 J0.717 K0.000 F120.000
G3 X7.034 Y102.205 Z-3.500 I0.345 J-0.717 K0.000 F120.000
G1 X7.034 Y102.205 Z-4.000 F60.000
G3 X7.345 Y102.283 Z-4.000 I-0.034 J0.795 K0.000 F120.000
G3 X6.655 Y103.717 Z-4.000 I-0.345 J0.717 K0.000 F120.000
G3 X7.034 Y102.205 Z-4.000 I0.345 J-0.717 K0.000 F120.000
G1 X7.034 Y102.205 Z-4.500 F60.000
G3 X7.345 Y102.283 Z-4.500 I-0.034 J0.795 K0.000 F120.000
G3 X6.655 Y103.717 Z-4.500 I-0.345 J0.717 K0.000 F120.000
G3 X7.034 Y102.205 Z-4.500 I0.345 J-0.717 K0.000 F120.000
G1 X7.034 Y102.205 Z-5.000 F60.000
G3 X7.345 Y102.283 Z-5.000 I-0.034 J0.795 K0.000 F120.000
G3 X6.655 Y103.717 Z-5.000 I-0.345 J0.717 K0.000 F120.000
G3 X7.034 Y102.205 Z-5.000 I0.345 J-0.717 K0.000 F120.000
G1 X7.034 Y102.205 Z-5.500 F60.000
G3 X7.345 Y102.283 Z-5.500 I-0.034 J0.795 K0.000 F120.000
G3 X6.655 Y103.717 Z-5.500 I-0.345 J0.717 K0.000 F120.000
G3 X7.034 Y102.205 Z-5.500 I0.345 J-0.717 K0.000 F120.000
G1 X7.034 Y102.205 Z-6.000 F60.000
G3 X7.345 Y102.283 Z-6.000 I-0.034 J0.795 K0.000 F120.000
G3 X6.655 Y103.717 Z-6.000 I-0.345 J0.717 K0.000 F120.000
G3 X7.034 Y102.205 Z-6.000 I0.345 J-0.717 K0.000 F120.000
G1 X7.034 Y102.205 Z-6.500 F60.000
G3 X7.345 Y102.283 Z-6.500 I-0.034 J0.795 K0.000 F120.000
G3 X6.655 Y103.717 Z-6.500 I-0.345 J0.717 K0.000 F120.000
G3 X7.034 Y102.205 Z-6.500 I0.345 J-0.717 K0.000 F120.000
G1 X7.034 Y102.205 Z-7.000 F60.000
G3 X7.345 Y102.283 Z-7.000 I-0.034 J0.795 K0.000 F120.000
G3 X6.655 Y103.717 Z-7.000 I-0.345 J0.717 K0.000 F120.000
G3 X7.034 Y102.205 Z-7.000 I0.345 J-0.717 K0.000 F120.000
G1 X7.034 Y102.205 Z-7.500 F60.000
G3 X7.345 Y102.283 Z-7.500 I-0.034 J0.795 K0.000 F120.000
G3 X6.655 Y103.717 Z-7.500 I-0.345 J0.717 K0.000 F120.000
G3 X7.034 Y102.205 Z-7.500 I0.345 J-0.717 K0.000 F120.000
G1 X7.034 Y102.205 Z-8.000 F60.000
G3 X7.345 Y102.283 Z-8.000 I-0.034 J0.795 K0.000 F120.000
G3 X6.655 Y103.717 Z-8.000 I-0.345 J0.717 K0.000 F120.000
G3 X7.034 Y102.205 Z-8.000 I0.345 J-0.717 K0.000 F120.000
G1 X7.034 Y102.205 Z-8.500 F60.000
G3 X7.345 Y102.283 Z-8.500 I-0.034 J0.795 K0.000 F120.000
G3 X6.655 Y103.717 Z-8.500 I-0.345 J0.717 K0.000 F120.000
G3 X7.034 Y102.205 Z-8.500 I0.345 J-0.717 K0.000 F120.000
G1 X7.034 Y102.205 Z-9.000 F60.000
G3 X7.345 Y102.283 Z-9.000 I-0.034 J0.795 K0.000 F120.000
G3 X6.655 Y103.717 Z-9.000 I-0.345 J0.717 K0.000 F120.000
G3 X7.034 Y102.205 Z-9.000 I0.345 J-0.717 K0.000 F120.000
G1 X7.034 Y102.205 Z-9.500 F60.000
G3 X7.345 Y102.283 Z-9.500 I-0.034 J0.795 K0.000 F120.000
G3 X6.655 Y103.717 Z-9.500 I-0.345 J0.717 K0.000 F120.000
G3 X7.034 Y102.205 Z-9.500 I0.345 J-0.717 K0.000 F120.000
G1 X7.034 Y102.205 Z-10.000 F60.000
G3 X7.345 Y102.283 Z-10.000 I-0.034 J0.795 K0.000 F120.000
G3 X6.655 Y103.717 Z-10.000 I-0.345 J0.717 K0.000 F120.000
G3 X7.034 Y102.205 Z-10.000 I0.345 J-0.717 K0.000 F120.000
G0 Z2.000
G0 Z2.000
G0 X7.034 Y102.205
G0 X10.770 Y99.183
G0 X10.770 Y99.183
G1 X10.770 Y99.183 Z-0.500 F60.000
G3 X10.700 Y98.954 Z-0.500 I0.248 J-0.201 K0.000 F120.000
G1 X10.700 Y29.046 Z-0.500 F120.000
G3 X11.046 Y28.700 Z-0.500 I0.318 J-0.028 K0.000 F120.000
G1 X51.954 Y28.700 Z-0.500 F120.000
G3 X52.300 Y29.046 Z-0.500 I0.028 J0.318 K0.000 F120.000
G1 X52.300 Y98.954 Z-0.500 F120.000
G3 X51.954 Y99.300 Z-0.500 I-0.318 J0.028 K0.000 F120.000
G1 X11.046 Y99.300 Z-0.500 F120.000
G3 X10.770 Y99.183 Z-0.500 I-0.028 J-0.318 K0.000 F120.000
G1 X10.770 Y99.183 Z-1.000 F60.000
G3 X10.700 Y98.954 Z-1.000 I0.248 J-0.201 K0.000 F120.000
G1 X10.700 Y29.046 Z-1.000 F120.000
G3 X11.046 Y28.700 Z-1.000 I0.318 J-0.028 K0.000 F120.000
G1 X51.954 Y28.700 Z-1.000 F120.000
G3 X52.300 Y29.046 Z-1.000 I0.028 J0.318 K0.000 F120.000
G1 X52.300 Y98.954 Z-1.000 F120.000
G3 X51.954 Y99.300 Z-1.000 I-0.318 J0.028 K0.000 F120.000
G1 X11.046 Y99.300 Z-1.000 F120.000
G3 X10.770 Y99.183 Z-1.000 I-0.028 J-0.318 K0.000 F120.000
G1 X10.770 Y99.183 Z-1.500 F60.000
G3 X10.700 Y98.954 Z-1.500 I0.248 J-0.201 K0.000 F120.000
G1 X10.700 Y29.046 Z-1.500 F120.000
G3 X11.046 Y28.700 Z-1.500 I0.318 J-0.028 K0.000 F120.000
G1 X51.954 Y28.700 Z-1.500 F120.000
G3 X52.300 Y29.046 Z-1.500 I0.028 J0.318 K0.000 F120.000
G1 X52.300 Y98.954 Z-1.500 F120.000
G3 X51.954 Y99.300 Z-1.500 I-0.318 J0.028 K0.000 F120.000
G1 X11.046 Y99.300 Z-1.500 F120.000
G3 X10.770 Y99.183 Z-1.500 I-0.028 J-0.318 K0.000 F120.000
G1 X10.770 Y99.183 Z-2.000 F60.000
G3 X10.700 Y98.954 Z-2.000 I0.248 J-0.201 K0.000 F120.000
G1 X10.700 Y29.046 Z-2.000 F120.000
G3 X11.046 Y28.700 Z-2.000 I0.318 J-0.028 K0.000 F120.000
G1 X51.954 Y28.700 Z-2.000 F120.000
G3 X52.300 Y29.046 Z-2.000 I0.028 J0.318 K0.000 F120.000
G1 X52.300 Y98.954 Z-2.000 F120.000
G3 X51.954 Y99.300 Z-2.000 I-0.318 J0.028 K0.000 F120.000
G1 X11.046 Y99.300 Z-2.000 F120.000
G3 X10.770 Y99.183 Z-2.000 I-0.028 J-0.318 K0.000 F120.000
G1 X10.770 Y99.183 Z-2.500 F60.000
G3 X10.700 Y98.954 Z-2.500 I0.248 J-0.201 K0.000 F120.000
G1 X10.700 Y29.046 Z-2.500 F120.000
G3 X11.046 Y28.700 Z-2.500 I0.318 J-0.028 K0.000 F120.000
G1 X51.954 Y28.700 Z-2.500 F120.000
G3 X52.300 Y29.046 Z-2.500 I0.028 J0.318 K0.000 F120.000
G1 X52.300 Y98.954 Z-2.500 F120.000
G3 X51.954 Y99.300 Z-2.500 I-0.318 J0.028 K0.000 F120.000
G1 X11.046 Y99.300 Z-2.500 F120.000
G3 X10.770 Y99.183 Z-2.500 I-0.028 J-0.318 K0.000 F120.000
G1 X10.770 Y99.183 Z-3.000 F60.000
G3 X10.700 Y98.954 Z-3.000 I0.248 J-0.201 K0.000 F120.000
G1 X10.700 Y29.046 Z-3.000 F120.000
G3 X11.046 Y28.700 Z-3.000 I0.318 J-0.028 K0.000 F120.000
G1 X51.954 Y28.700 Z-3.000 F120.000
G3 X52.300 Y29.046 Z-3.000 I0.028 J0.318 K0.000 F120.000
G1 X52.300 Y98.954 Z-3.000 F120.000
G3 X51.954 Y99.300 Z-3.000 I-0.318 J0.028 K0.000 F120.000
G1 X11.046 Y99.300 Z-3.000 F120.000
G3 X10.770 Y99.183 Z-3.000 I-0.028 J-0.318 K0.000 F120.000
G1 X10.770 Y99.183 Z-3.500 F60.000
G3 X10.700 Y98.954 Z-3.500 I0.248 J-0.201 K0.000 F120.000
G1 X10.700 Y29.046 Z-3.500 F120.000
G3 X11.046 Y28.700 Z-3.500 I0.318 J-0.028 K0.000 F120.000
G1 X51.954 Y28.700 Z-3.500 F120.000
G3 X52.300 Y29.046 Z-3.500 I0.028 J0.318 K0.000 F120.000
G1 X52.300 Y98.954 Z-3.500 F120.000
G3 X51.954 Y99.300 Z-3.500 I-0.318 J0.028 K0.000 F120.000
G1 X11.046 Y99.300 Z-3.500 F120.000
G3 X10.770 Y99.183 Z-3.500 I-0.028 J-0.318 K0.000 F120.000
G1 X10.770 Y99.183 Z-4.000 F60.000
G3 X10.700 Y98.954 Z-4.000 I0.248 J-0.201 K0.000 F120.000
G1 X10.700 Y29.046 Z-4.000 F120.000
G3 X11.046 Y28.700 Z-4.000 I0.318 J-0.028 K0.000 F120.000
G1 X51.954 Y28.700 Z-4.000 F120.000
G3 X52.300 Y29.046 Z-4.000 I0.028 J0.318 K0.000 F120.000
G1 X52.300 Y98.954 Z-4.000 F120.000
G3 X51.954 Y99.300 Z-4.000 I-0.318 J0.028 K0.000 F120.000
G1 X11.046 Y99.300 Z-4.000 F120.000
G3 X10.770 Y99.183 Z-4.000 I-0.028 J-0.318 K0.000 F120.000
G1 X10.770 Y99.183 Z-4.500 F60.000
G3 X10.700 Y98.954 Z-4.500 I0.248 J-0.201 K0.000 F120.000
G1 X10.700 Y29.046 Z-4.500 F120.000
G3 X11.046 Y28.700 Z-4.500 I0.318 J-0.028 K0.000 F120.000
G1 X51.954 Y28.700 Z-4.500 F120.000
G3 X52.300 Y29.046 Z-4.500 I0.028 J0.318 K0.000 F120.000
G1 X52.300 Y98.954 Z-4.500 F120.000
G3 X51.954 Y99.300 Z-4.500 I-0.318 J0.028 K0.000 F120.000
G1 X11.046 Y99.300 Z-4.500 F120.000
G3 X10.770 Y99.183 Z-4.500 I-0.028 J-0.318 K0.000 F120.000
G1 X10.770 Y99.183 Z-5.000 F60.000
G3 X10.700 Y98.954 Z-5.000 I0.248 J-0.201 K0.000 F120.000
G1 X10.700 Y29.046 Z-5.000 F120.000
G3 X11.046 Y28.700 Z-5.000 I0.318 J-0.028 K0.000 F120.000
G1 X51.954 Y28.700 Z-5.000 F120.000
G3 X52.300 Y29.046 Z-5.000 I0.028 J0.318 K0.000 F120.000
G1 X52.300 Y98.954 Z-5.000 F120.000
G3 X51.954 Y99.300 Z-5.000 I-0.318 J0.028 K0.000 F120.000
G1 X11.046 Y99.300 Z-5.000 F120.000
G3 X10.770 Y99.183 Z-5.000 I-0.028 J-0.318 K0.000 F120.000
G1 X10.770 Y99.183 Z-5.500 F60.000
G3 X10.700 Y98.954 Z-5.500 I0.248 J-0.201 K0.000 F120.000
G1 X10.700 Y29.046 Z-5.500 F120.000
G3 X11.046 Y28.700 Z-5.500 I0.318 J-0.028 K0.000 F120.000
G1 X51.954 Y28.700 Z-5.500 F120.000
G3 X52.300 Y29.046 Z-5.500 I0.028 J0.318 K0.000 F120.000
G1 X52.300 Y98.954 Z-5.500 F120.000
G3 X51.954 Y99.300 Z-5.500 I-0.318 J0.028 K0.000 F120.000
G1 X11.046 Y99.300 Z-5.500 F120.000
G3 X10.770 Y99.183 Z-5.500 I-0.028 J-0.318 K0.000 F120.000
G1 X10.770 Y99.183 Z-6.000 F60.000
G3 X10.700 Y98.954 Z-6.000 I0.248 J-0.201 K0.000 F120.000
G1 X10.700 Y29.046 Z-6.000 F120.000
G3 X11.046 Y28.700 Z-6.000 I0.318 J-0.028 K0.000 F120.000
G1 X51.954 Y28.700 Z-6.000 F120.000
G3 X52.300 Y29.046 Z-6.000 I0.028 J0.318 K0.000 F120.000
G1 X52.300 Y98.954 Z-6.000 F120.000
G3 X51.954 Y99.300 Z-6.000 I-0.318 J0.028 K0.000 F120.000
G1 X11.046 Y99.300 Z-6.000 F120.000
G3 X10.770 Y99.183 Z-6.000 I-0.028 J-0.318 K0.000 F120.000
G1 X10.770 Y99.183 Z-6.500 F60.000
G3 X10.700 Y98.954 Z-6.500 I0.248 J-0.201 K0.000 F120.000
G1 X10.700 Y29.046 Z-6.500 F120.000
G3 X11.046 Y28.700 Z-6.500 I0.318 J-0.028 K0.000 F120.000
G1 X51.954 Y28.700 Z-6.500 F120.000
G3 X52.300 Y29.046 Z-6.500 I0.028 J0.318 K0.000 F120.000
G1 X52.300 Y98.954 Z-6.500 F120.000
G3 X51.954 Y99.300 Z-6.500 I-0.318 J0.028 K0.000 F120.000
G1 X11.046 Y99.300 Z-6.500 F120.000
G3 X10.770 Y99.183 Z-6.500 I-0.028 J-0.318 K0.000 F120.000
G1 X10.770 Y99.183 Z-7.000 F60.000
G3 X10.700 Y98.954 Z-7.000 I0.248 J-0.201 K0.000 F120.000
G1 X10.700 Y29.046 Z-7.000 F120.000
G3 X11.046 Y28.700 Z-7.000 I0.318 J-0.028 K0.000 F120.000
G1 X51.954 Y28.700 Z-7.000 F120.000
G3 X52.300 Y29.046 Z-7.000 I0.028 J0.318 K0.000 F120.000
G1 X52.300 Y98.954 Z-7.000 F120.000
G3 X51.954 Y99.300 Z-7.000 I-0.318 J0.028 K0.000 F120.000
G1 X11.046 Y99.300 Z-7.000 F120.000
G3 X10.770 Y99.183 Z-7.000 I-0.028 J-0.318 K0.000 F120.000
G1 X10.770 Y99.183 Z-7.500 F60.000
G3 X10.700 Y98.954 Z-7.500 I0.248 J-0.201 K0.000 F120.000
G1 X10.700 Y29.046 Z-7.500 F120.000
G3 X11.046 Y28.700 Z-7.500 I0.318 J-0.028 K0.000 F120.000
G1 X51.954 Y28.700 Z-7.500 F120.000
G3 X52.300 Y29.046 Z-7.500 I0.028 J0.318 K0.000 F120.000
G1 X52.300 Y98.954 Z-7.500 F120.000
G3 X51.954 Y99.300 Z-7.500 I-0.318 J0.028 K0.000 F120.000
G1 X11.046 Y99.300 Z-7.500 F120.000
G3 X10.770 Y99.183 Z-7.500 I-0.028 J-0.318 K0.000 F120.000
G1 X10.770 Y99.183 Z-8.000 F60.000
G3 X10.700 Y98.954 Z-8.000 I0.248 J-0.201 K0.000 F120.000
G1 X10.700 Y29.046 Z-8.000 F120.000
G3 X11.046 Y28.700 Z-8.000 I0.318 J-0.028 K0.000 F120.000
G1 X51.954 Y28.700 Z-8.000 F120.000
G3 X52.300 Y29.046 Z-8.000 I0.028 J0.318 K0.000 F120.000
G1 X52.300 Y98.954 Z-8.000 F120.000
G3 X51.954 Y99.300 Z-8.000 I-0.318 J0.028 K0.000 F120.000
G1 X11.046 Y99.300 Z-8.000 F120.000
G3 X10.770 Y99.183 Z-8.000 I-0.028 J-0.318 K0.000 F120.000
G1 X10.770 Y99.183 Z-8.500 F60.000
G3 X10.700 Y98.954 Z-8.500 I0.248 J-0.201 K0.000 F120.000
G1 X10.700 Y29.046 Z-8.500 F120.000
G3 X11.046 Y28.700 Z-8.500 I0.318 J-0.028 K0.000 F120.000
G1 X51.954 Y28.700 Z-8.500 F120.000
G3 X52.300 Y29.046 Z-8.500 I0.028 J0.318 K0.000 F120.000
G1 X52.300 Y98.954 Z-8.500 F120.000
G3 X51.954 Y99.300 Z-8.500 I-0.318 J0.028 K0.000 F120.000
G1 X11.046 Y99.300 Z-8.500 F120.000
G3 X10.770 Y99.183 Z-8.500 I-0.028 J-0.318 K0.000 F120.000
G1 X10.770 Y99.183 Z-9.000 F60.000
G3 X10.700 Y98.954 Z-9.000 I0.248 J-0.201 K0.000 F120.000
G1 X10.700 Y29.046 Z-9.000 F120.000
G3 X11.046 Y28.700 Z-9.000 I0.318 J-0.028 K0.000 F120.000
G1 X51.954 Y28.700 Z-9.000 F120.000
G3 X52.300 Y29.046 Z-9.000 I0.028 J0.318 K0.000 F120.000
G1 X52.300 Y98.954 Z-9.000 F120.000
G3 X51.954 Y99.300 Z-9.000 I-0.318 J0.028 K0.000 F120.000
G1 X11.046 Y99.300 Z-9.000 F120.000
G3 X10.770 Y99.183 Z-9.000 I-0.028 J-0.318 K0.000 F120.000
G1 X10.770 Y99.183 Z-9.500 F60.000
G3 X10.700 Y98.954 Z-9.500 I0.248 J-0.201 K0.000 F120.000
G1 X10.700 Y29.046 Z-9.500 F120.000
G3 X11.046 Y28.700 Z-9.500 I0.318 J-0.028 K0.000 F120.000
G1 X51.954 Y28.700 Z-9.500 F120.000
G3 X52.300 Y29.046 Z-9.500 I0.028 J0.318 K0.000 F120.000
G1 X52.300 Y98.954 Z-9.500 F120.000
G3 X51.954 Y99.300 Z-9.500 I-0.318 J0.028 K0.000 F120.000
G1 X11.046 Y99.300 Z-9.500 F120.000
G3 X10.770 Y99.183 Z-9.500 I-0.028 J-0.318 K0.000 F120.000
G1 X10.770 Y99.183 Z-10.000 F60.000
G3 X10.700 Y98.954 Z-10.000 I0.248 J-0.201 K0.000 F120.000
G1 X10.700 Y29.046 Z-10.000 F120.000
G3 X11.046 Y28.700 Z-10.000 I0.318 J-0.028 K0.000 F120.000
G1 X51.954 Y28.700 Z-10.000 F120.000
G3 X52.300 Y29.046 Z-10.000 I0.028 J0.318 K0.000 F120.000
G1 X52.300 Y98.954 Z-10.000 F120.000
G3 X51.954 Y99.300 Z-10.000 I-0.318 J0.028 K0.000 F120.000
G1 X11.046 Y99.300 Z-10.000 F120.000
G3 X10.770 Y99.183 Z-10.000 I-0.028 J-0.318 K0.000 F120.000
G0 Z2.000
G0 Z2.000
G0 X10.770 Y99.183
G0 X60.733 Y95.518
G0 X60.733 Y95.518
G1 X60.733 Y95.518 Z-0.500 F60.000
G1 X60.700 Y94.979 Z-0.500 F120.000
G1 X60.700 Y29.046 Z-0.500 F120.000
G3 X61.046 Y28.700 Z-0.500 I0.318 J-0.028 K0.000 F120.000
G1 X68.954 Y28.700 Z-0.500 F120.000
G3 X69.300 Y29.046 Z-0.500 I0.028 J0.318 K0.000 F120.000
G1 X69.300 Y94.979 Z-0.500 F120.000
G3 X60.733 Y95.518 Z-0.500 I-4.299 J0.020 K0.000 F120.000
G1 X60.733 Y95.518 Z-1.000 F60.000
G1 X60.700 Y94.979 Z-1.000 F120.000
G1 X60.700 Y29.046 Z-1.000 F120.000
G3 X61.046 Y28.700 Z-1.000 I0.318 J-0.028 K0.000 F120.000
G1 X68.954 Y28.700 Z-1.000 F120.000
G3 X69.300 Y29.046 Z-1.000 I0.028 J0.318 K0.000 F120.000
G1 X69.300 Y94.979 Z-1.000 F120.000
G3 X60.733 Y95.518 Z-1.000 I-4.299 J0.020 K0.000 F120.000
G1 X60.733 Y95.518 Z-1.500 F60.000
G1 X60.700 Y94.979 Z-1.500 F120.000
G1 X60.700 Y29.046 Z-1.500 F120.000
G3 X61.046 Y28.700 Z-1.500 I0.318 J-0.028 K0.000 F120.000
G1 X68.954 Y28.700 Z-1.500 F120.000
G3 X69.300 Y29.046 Z-1.500 I0.028 J0.318 K0.000 F120.000
G1 X69.300 Y94.979 Z-1.500 F120.000
G3 X60.733 Y95.518 Z-1.500 I-4.299 J0.020 K0.000 F120.000
G1 X60.733 Y95.518 Z-2.000 F60.000
G1 X60.700 Y94.979 Z-2.000 F120.000
G1 X60.700 Y29.046 Z-2.000 F120.000
G3 X61.046 Y28.700 Z-2.000 I0.318 J-0.028 K0.000 F120.000
G1 X68.954 Y28.700 Z-2.000 F120.000
G3 X69.300 Y29.046 Z-2.000 I0.028 J0.318 K0.000 F120.000
G1 X69.300 Y94.979 Z-2.000 F120.000
G3 X60.733 Y95.518 Z-2.000 I-4.299 J0.020 K0.000 F120.000
G1 X60.733 Y95.518 Z-2.500 F60.000
G1 X60.700 Y94.979 Z-2.500 F120.000
G1 X60.700 Y29.046 Z-2.500 F120.000
G3 X61.046 Y28.700 Z-2.500 I0.318 J-0.028 K0.000 F120.000
G1 X68.954 Y28.700 Z-2.500 F120.000
G3 X69.300 Y29.046 Z-2.500 I0.028 J0.318 K0.000 F120.000
G1 X69.300 Y94.979 Z-2.500 F120.000
G3 X60.733 Y95.518 Z-2.500 I-4.299 J0.020 K0.000 F120.000
G1 X60.733 Y95.518 Z-3.000 F60.000
G1 X60.700 Y94.979 Z-3.000 F120.000
G1 X60.700 Y29.046 Z-3.000 F120.000
G3 X61.046 Y28.700 Z-3.000 I0.318 J-0.028 K0.000 F120.000
G1 X68.954 Y28.700 Z-3.000 F120.000
G3 X69.300 Y29.046 Z-3.000 I0.028 J0.318 K0.000 F120.000
G1 X69.300 Y94.979 Z-3.000 F120.000
G3 X60.733 Y95.518 Z-3.000 I-4.299 J0.020 K0.000 F120.000
G1 X60.733 Y95.518 Z-3.500 F60.000
G1 X60.700 Y94.979 Z-3.500 F120.000
G1 X60.700 Y29.046 Z-3.500 F120.000
G3 X61.046 Y28.700 Z-3.500 I0.318 J-0.028 K0.000 F120.000
G1 X68.954 Y28.700 Z-3.500 F120.000
G3 X69.300 Y29.046 Z-3.500 I0.028 J0.318 K0.000 F120.000
G1 X69.300 Y94.979 Z-3.500 F120.000
G3 X60.733 Y95.518 Z-3.500 I-4.299 J0.020 K0.000 F120.000
G1 X60.733 Y95.518 Z-4.000 F60.000
G1 X60.700 Y94.979 Z-4.000 F120.000
G1 X60.700 Y29.046 Z-4.000 F120.000
G3 X61.046 Y28.700 Z-4.000 I0.318 J-0.028 K0.000 F120.000
G1 X68.954 Y28.700 Z-4.000 F120.000
G3 X69.300 Y29.046 Z-4.000 I0.028 J0.318 K0.000 F120.000
G1 X69.300 Y94.979 Z-4.000 F120.000
G3 X60.733 Y95.518 Z-4.000 I-4.299 J0.020 K0.000 F120.000
G1 X60.733 Y95.518 Z-4.500 F60.000
G1 X60.700 Y94.979 Z-4.500 F120.000
G1 X60.700 Y29.046 Z-4.500 F120.000
G3 X61.046 Y28.700 Z-4.500 I0.318 J-0.028 K0.000 F120.000
G1 X68.954 Y28.700 Z-4.500 F120.000
G3 X69.300 Y29.046 Z-4.500 I0.028 J0.318 K0.000 F120.000
G1 X69.300 Y94.979 Z-4.500 F120.000
G3 X60.733 Y95.518 Z-4.500 I-4.299 J0.020 K0.000 F120.000
G1 X60.733 Y95.518 Z-5.000 F60.000
G1 X60.700 Y94.979 Z-5.000 F120.000
G1 X60.700 Y29.046 Z-5.000 F120.000
G3 X61.046 Y28.700 Z-5.000 I0.318 J-0.028 K0.000 F120.000
G1 X68.954 Y28.700 Z-5.000 F120.000
G3 X69.300 Y29.046 Z-5.000 I0.028 J0.318 K0.000 F120.000
G1 X69.300 Y94.979 Z-5.000 F120.000
G3 X60.733 Y95.518 Z-5.000 I-4.299 J0.020 K0.000 F120.000
G1 X60.733 Y95.518 Z-5.500 F60.000
G1 X60.700 Y94.979 Z-5.500 F120.000
G1 X60.700 Y29.046 Z-5.500 F120.000
G3 X61.046 Y28.700 Z-5.500 I0.318 J-0.028 K0.000 F120.000
G1 X68.954 Y28.700 Z-5.500 F120.000
G3 X69.300 Y29.046 Z-5.500 I0.028 J0.318 K0.000 F120.000
G1 X69.300 Y94.979 Z-5.500 F120.000
G3 X60.733 Y95.518 Z-5.500 I-4.299 J0.020 K0.000 F120.000
G1 X60.733 Y95.518 Z-6.000 F60.000
G1 X60.700 Y94.979 Z-6.000 F120.000
G1 X60.700 Y29.046 Z-6.000 F120.000
G3 X61.046 Y28.700 Z-6.000 I0.318 J-0.028 K0.000 F120.000
G1 X68.954 Y28.700 Z-6.000 F120.000
G3 X69.300 Y29.046 Z-6.000 I0.028 J0.318 K0.000 F120.000
G1 X69.300 Y94.979 Z-6.000 F120.000
G3 X60.733 Y95.518 Z-6.000 I-4.299 J0.020 K0.000 F120.000
G1 X60.733 Y95.518 Z-6.500 F60.000
G1 X60.700 Y94.979 Z-6.500 F120.000
G1 X60.700 Y29.046 Z-6.500 F120.000
G3 X61.046 Y28.700 Z-6.500 I0.318 J-0.028 K0.000 F120.000
G1 X68.954 Y28.700 Z-6.500 F120.000
G3 X69.300 Y29.046 Z-6.500 I0.028 J0.318 K0.000 F120.000
G1 X69.300 Y94.979 Z-6.500 F120.000
G3 X60.733 Y95.518 Z-6.500 I-4.299 J0.020 K0.000 F120.000
G1 X60.733 Y95.518 Z-7.000 F60.000
G1 X60.700 Y94.979 Z-7.000 F120.000
G1 X60.700 Y29.046 Z-7.000 F120.000
G3 X61.046 Y28.700 Z-7.000 I0.318 J-0.028 K0.000 F120.000
G1 X68.954 Y28.700 Z-7.000 F120.000
G3 X69.300 Y29.046 Z-7.000 I0.028 J0.318 K0.000 F120.000
G1 X69.300 Y94.979 Z-7.000 F120.000
G3 X60.733 Y95.518 Z-7.000 I-4.299 J0.020 K0.000 F120.000
G1 X60.733 Y95.518 Z-7.500 F60.000
G1 X60.700 Y94.979 Z-7.500 F120.000
G1 X60.700 Y29.046 Z-7.500 F120.000
G3 X61.046 Y28.700 Z-7.500 I0.318 J-0.028 K0.000 F120.000
G1 X68.954 Y28.700 Z-7.500 F120.000
G3 X69.300 Y29.046 Z-7.500 I0.028 J0.318 K0.000 F120.000
G1 X69.300 Y94.979 Z-7.500 F120.000
G3 X60.733 Y95.518 Z-7.500 I-4.299 J0.020 K0.000 F120.000
G1 X60.733 Y95.518 Z-8.000 F60.000
G1 X60.700 Y94.979 Z-8.000 F120.000
G1 X60.700 Y29.046 Z-8.000 F120.000
G3 X61.046 Y28.700 Z-8.000 I0.318 J-0.028 K0.000 F120.000
G1 X68.954 Y28.700 Z-8.000 F120.000
G3 X69.300 Y29.046 Z-8.000 I0.028 J0.318 K0.000 F120.000
G1 X69.300 Y94.979 Z-8.000 F120.000
G3 X60.733 Y95.518 Z-8.000 I-4.299 J0.020 K0.000 F120.000
G1 X60.733 Y95.518 Z-8.500 F60.000
G1 X60.700 Y94.979 Z-8.500 F120.000
G1 X60.700 Y29.046 Z-8.500 F120.000
G3 X61.046 Y28.700 Z-8.500 I0.318 J-0.028 K0.000 F120.000
G1 X68.954 Y28.700 Z-8.500 F120.000
G3 X69.300 Y29.046 Z-8.500 I0.028 J0.318 K0.000 F120.000
G1 X69.300 Y94.979 Z-8.500 F120.000
G3 X60.733 Y95.518 Z-8.500 I-4.299 J0.020 K0.000 F120.000
G1 X60.733 Y95.518 Z-9.000 F60.000
G1 X60.700 Y94.979 Z-9.000 F120.000
G1 X60.700 Y29.046 Z-9.000 F120.000
G3 X61.046 Y28.700 Z-9.000 I0.318 J-0.028 K0.000 F120.000
G1 X68.954 Y28.700 Z-9.000 F120.000
G3 X69.300 Y29.046 Z-9.000 I0.028 J0.318 K0.000 F120.000
G1 X69.300 Y94.979 Z-9.000 F120.000
G3 X60.733 Y95.518 Z-9.000 I-4.299 J0.020 K0.000 F120.000
G1 X60.733 Y95.518 Z-9.500 F60.000
G1 X60.700 Y94.979 Z-9.500 F120.000
G1 X60.700 Y29.046 Z-9.500 F120.000
G3 X61.046 Y28.700 Z-9.500 I0.318 J-0.028 K0.000 F120.000
G1 X68.954 Y28.700 Z-9.500 F120.000
G3 X69.300 Y29.046 Z-9.500 I0.028 J0.318 K0.000 F120.000
G1 X69.300 Y94.979 Z-9.500 F120.000
G3 X60.733 Y95.518 Z-9.500 I-4.299 J0.020 K0.000 F120.000
G1 X60.733 Y95.518 Z-10.000 F60.000
G1 X60.700 Y94.979 Z-10.000 F120.000
G1 X60.700 Y29.046 Z-10.000 F120.000
G3 X61.046 Y28.700 Z-10.000 I0.318 J-0.028 K0.000 F120.000
G1 X68.954 Y28.700 Z-10.000 F120.000
G3 X69.300 Y29.046 Z-10.000 I0.028 J0.318 K0.000 F120.000
G1 X69.300 Y94.979 Z-10.000 F120.000
G3 X60.733 Y95.518 Z-10.000 I-4.299 J0.020 K0.000 F120.000
G0 Z2.000
G0 Z2.000
G0 X60.733 Y95.518
G0 X78.990 Y80.813
G0 X78.990 Y80.813
G1 X78.990 Y80.813 Z-0.500 F60.000
G3 X78.802 Y79.504 Z-0.500 I1.010 J-0.813 K0.000 F120.000
G3 X81.198 Y80.496 Z-0.500 I1.198 J0.496 K0.000 F120.000
G3 X78.990 Y80.813 Z-0.500 I-1.198 J-0.496 K0.000 F120.000
G1 X78.990 Y80.813 Z-1.000 F60.000
G3 X78.802 Y79.504 Z-1.000 I1.010 J-0.813 K0.000 F120.000
G3 X81.198 Y80.496 Z-1.000 I1.198 J0.496 K0.000 F120.000
G3 X78.990 Y80.813 Z-1.000 I-1.198 J-0.496 K0.000 F120.000
G1 X78.990 Y80.813 Z-1.500 F60.000
G3 X78.802 Y79.504 Z-1.500 I1.010 J-0.813 K0.000 F120.000
G3 X81.198 Y80.496 Z-1.500 I1.198 J0.496 K0.000 F120.000
G3 X78.990 Y80.813 Z-1.500 I-1.198 J-0.496 K0.000 F120.000
G1 X78.990 Y80.813 Z-2.000 F60.000
G3 X78.802 Y79.504 Z-2.000 I1.010 J-0.813 K0.000 F120.000
G3 X81.198 Y80.496 Z-2.000 I1.198 J0.496 K0.000 F120.000
G3 X78.990 Y80.813 Z-2.000 I-1.198 J-0.496 K0.000 F120.000
G1 X78.990 Y80.813 Z-2.500 F60.000
G3 X78.802 Y79.504 Z-2.500 I1.010 J-0.813 K0.000 F120.000
G3 X81.198 Y80.496 Z-2.500 I1.198 J0.496 K0.000 F120.000
G3 X78.990 Y80.813 Z-2.500 I-1.198 J-0.496 K0.000 F120.000
G1 X78.990 Y80.813 Z-3.000 F60.000
G3 X78.802 Y79.504 Z-3.000 I1.010 J-0.813 K0.000 F120.000
G3 X81.198 Y80.496 Z-3.000 I1.198 J0.496 K0.000 F120.000
G3 X78.990 Y80.813 Z-3.000 I-1.198 J-0.496 K0.000 F120.000
G1 X78.990 Y80.813 Z-3.500 F60.000
G3 X78.802 Y79.504 Z-3.500 I1.010 J-0.813 K0.000 F120.000
G3 X81.198 Y80.496 Z-3.500 I1.198 J0.496 K0.000 F120.000
G3 X78.990 Y80.813 Z-3.500 I-1.198 J-0.496 K0.000 F120.000
G1 X78.990 Y80.813 Z-4.000 F60.000
G3 X78.802 Y79.504 Z-4.000 I1.010 J-0.813 K0.000 F120.000
G3 X81.198 Y80.496 Z-4.000 I1.198 J0.496 K0.000 F120.000
G3 X78.990 Y80.813 Z-4.000 I-1.198 J-0.496 K0.000 F120.000
G1 X78.990 Y80.813 Z-4.500 F60.000
G3 X78.802 Y79.504 Z-4.500 I1.010 J-0.813 K0.000 F120.000
G3 X81.198 Y80.496 Z-4.500 I1.198 J0.496 K0.000 F120.000
G3 X78.990 Y80.813 Z-4.500 I-1.198 J-0.496 K0.000 F120.000
G1 X78.990 Y80.813 Z-5.000 F60.000
G3 X78.802 Y79.504 Z-5.000 I1.010 J-0.813 K0.000 F120.000
G3 X81.198 Y80.496 Z-5.000 I1.198 J0.496 K0.000 F120.000
G3 X78.990 Y80.813 Z-5.000 I-1.198 J-0.496 K0.000 F120.000
G1 X78.990 Y80.813 Z-5.500 F60.000
G3 X78.802 Y79.504 Z-5.500 I1.010 J-0.813 K0.000 F120.000
G3 X81.198 Y80.496 Z-5.500 I1.198 J0.496 K0.000 F120.000
G3 X78.990 Y80.813 Z-5.500 I-1.198 J-0.496 K0.000 F120.000
G1 X78.990 Y80.813 Z-6.000 F60.000
G3 X78.802 Y79.504 Z-6.000 I1.010 J-0.813 K0.000 F120.000
G3 X81.198 Y80.496 Z-6.000 I1.198 J0.496 K0.000 F120.000
G3 X78.990 Y80.813 Z-6.000 I-1.198 J-0.496 K0.000 F120.000
G1 X78.990 Y80.813 Z-6.500 F60.000
G3 X78.802 Y79.504 Z-6.500 I1.010 J-0.813 K0.000 F120.000
G3 X81.198 Y80.496 Z-6.500 I1.198 J0.496 K0.000 F120.000
G3 X78.990 Y80.813 Z-6.500 I-1.198 J-0.496 K0.000 F120.000
G1 X78.990 Y80.813 Z-7.000 F60.000
G3 X78.802 Y79.504 Z-7.000 I1.010 J-0.813 K0.000 F120.000
G3 X81.198 Y80.496 Z-7.000 I1.198 J0.496 K0.000 F120.000
G3 X78.990 Y80.813 Z-7.000 I-1.198 J-0.496 K0.000 F120.000
G1 X78.990 Y80.813 Z-7.500 F60.000
G3 X78.802 Y79.504 Z-7.500 I1.010 J-0.813 K0.000 F120.000
G3 X81.198 Y80.496 Z-7.500 I1.198 J0.496 K0.000 F120.000
G3 X78.990 Y80.813 Z-7.500 I-1.198 J-0.496 K0.000 F120.000
G1 X78.990 Y80.813 Z-8.000 F60.000
G3 X78.802 Y79.504 Z-8.000 I1.010 J-0.813 K0.000 F120.000
G3 X81.198 Y80.496 Z-8.000 I1.198 J0.496 K0.000 F120.000
G3 X78.990 Y80.813 Z-8.000 I-1.198 J-0.496 K0.000 F120.000
G1 X78.990 Y80.813 Z-8.500 F60.000
G3 X78.802 Y79.504 Z-8.500 I1.010 J-0.813 K0.000 F120.000
G3 X81.198 Y80.496 Z-8.500 I1.198 J0.496 K0.000 F120.000
G3 X78.990 Y80.813 Z-8.500 I-1.198 J-0.496 K0.000 F120.000
G1 X78.990 Y80.813 Z-9.000 F60.000
G3 X78.802 Y79.504 Z-9.000 I1.010 J-0.813 K0.000 F120.000
G3 X81.198 Y80.496 Z-9.000 I1.198 J0.496 K0.000 F120.000
G3 X78.990 Y80.813 Z-9.000 I-1.198 J-0.496 K0.000 F120.000
G1 X78.990 Y80.813 Z-9.500 F60.000
G3 X78.802 Y79.504 Z-9.500 I1.010 J-0.813 K0.000 F120.000
G3 X81.198 Y80.496 Z-9.500 I1.198 J0.496 K0.000 F120.000
G3 X78.990 Y80.813 Z-9.500 I-1.198 J-0.496 K0.000 F120.000
G1 X78.990 Y80.813 Z-10.000 F60.000
G3 X78.802 Y79.504 Z-10.000 I1.010 J-0.813 K0.000 F120.000
G3 X81.198 Y80.496 Z-10.000 I1.198 J0.496 K0.000 F120.000
G3 X78.990 Y80.813 Z-10.000 I-1.198 J-0.496 K0.000 F120.000
G0 Z2.000
G0 Z2.000
G0 X78.990 Y80.813
G0 X90.700
G0 X90.700
G1 X90.700 Y80.813 Z-0.500 F60.000
G1 X90.700 Y29.046 Z-0.500 F120.000
G3 X91.046 Y28.700 Z-0.500 I0.318 J-0.028 K0.000 F120.000
G1 X98.954 Y28.700 Z-0.500 F120.000
G3 X99.300 Y29.046 Z-0.500 I0.028 J0.318 K0.000 F120.000
G1 X99.300 Y94.979 Z-0.500 F120.000
G3 X90.733 Y95.518 Z-0.500 I-4.299 J0.020 K0.000 F120.000
G1 X90.700 Y94.979 Z-0.500 F120.000
G1 X90.700 Y80.813 Z-0.500 F120.000
G1 X90.700 Y80.813 Z-1.000 F60.000
G1 X90.700 Y29.046 Z-1.000 F120.000
G3 X91.046 Y28.700 Z-1.000 I0.318 J-0.028 K0.000 F120.000
G1 X98.954 Y28.700 Z-1.000 F120.000
G3 X99.300 Y29.046 Z-1.000 I0.028 J0.318 K0.000 F120.000
G1 X99.300 Y94.979 Z-1.000 F120.000
G3 X90.733 Y95.518 Z-1.000 I-4.299 J0.020 K0.000 F120.000
G1 X90.700 Y94.979 Z-1.000 F120.000
G1 X90.700 Y80.813 Z-1.000 F120.000
G1 X90.700 Y80.813 Z-1.500 F60.000
G1 X90.700 Y29.046 Z-1.500 F120.000
G3 X91.046 Y28.700 Z-1.500 I0.318 J-0.028 K0.000 F120.000
G1 X98.954 Y28.700 Z-1.500 F120.000
G3 X99.300 Y29.046 Z-1.500 I0.028 J0.318 K0.000 F120.000
G1 X99.300 Y94.979 Z-1.500 F120.000
G3 X90.733 Y95.518 Z-1.500 I-4.299 J0.020 K0.000 F120.000
G1 X90.700 Y94.979 Z-1.500 F120.000
G1 X90.700 Y80.813 Z-1.500 F120.000
G1 X90.700 Y80.813 Z-2.000 F60.000
G1 X90.700 Y29.046 Z-2.000 F120.000
G3 X91.046 Y28.700 Z-2.000 I0.318 J-0.028 K0.000 F120.000
G1 X98.954 Y28.700 Z-2.000 F120.000
G3 X99.300 Y29.046 Z-2.000 I0.028 J0.318 K0.000 F120.000
G1 X99.300 Y94.979 Z-2.000 F120.000
G3 X90.733 Y95.518 Z-2.000 I-4.299 J0.020 K0.000 F120.000
G1 X90.700 Y94.979 Z-2.000 F120.000
G1 X90.700 Y80.813 Z-2.000 F120.000
G1 X90.700 Y80.813 Z-2.500 F60.000
G1 X90.700 Y29.046 Z-2.500 F120.000
G3 X91.046 Y28.700 Z-2.500 I0.318 J-0.028 K0.000 F120.000
G1 X98.954 Y28.700 Z-2.500 F120.000
G3 X99.300 Y29.046 Z-2.500 I0.028 J0.318 K0.000 F120.000
G1 X99.300 Y94.979 Z-2.500 F120.000
G3 X90.733 Y95.518 Z-2.500 I-4.299 J0.020 K0.000 F120.000
G1 X90.700 Y94.979 Z-2.500 F120.000
G1 X90.700 Y80.813 Z-2.500 F120.000
G1 X90.700 Y80.813 Z-3.000 F60.000
G1 X90.700 Y29.046 Z-3.000 F120.000
G3 X91.046 Y28.700 Z-3.000 I0.318 J-0.028 K0.000 F120.000
G1 X98.954 Y28.700 Z-3.000 F120.000
G3 X99.300 Y29.046 Z-3.000 I0.028 J0.318 K0.000 F120.000
G1 X99.300 Y94.979 Z-3.000 F120.000
G3 X90.733 Y95.518 Z-3.000 I-4.299 J0.020 K0.000 F120.000
G1 X90.700 Y94.979 Z-3.000 F120.000
G1 X90.700 Y80.813 Z-3.000 F120.000
G1 X90.700 Y80.813 Z-3.500 F60.000
G1 X90.700 Y29.046 Z-3.500 F120.000
G3 X91.046 Y28.700 Z-3.500 I0.318 J-0.028 K0.000 F120.000
G1 X98.954 Y28.700 Z-3.500 F120.000
G3 X99.300 Y29.046 Z-3.500 I0.028 J0.318 K0.000 F120.000
G1 X99.300 Y94.979 Z-3.500 F120.000
G3 X90.733 Y95.518 Z-3.500 I-4.299 J0.020 K0.000 F120.000
G1 X90.700 Y94.979 Z-3.500 F120.000
G1 X90.700 Y80.813 Z-3.500 F120.000
G1 X90.700 Y80.813 Z-4.000 F60.000
G1 X90.700 Y29.046 Z-4.000 F120.000
G3 X91.046 Y28.700 Z-4.000 I0.318 J-0.028 K0.000 F120.000
G1 X98.954 Y28.700 Z-4.000 F120.000
G3 X99.300 Y29.046 Z-4.000 I0.028 J0.318 K0.000 F120.000
G1 X99.300 Y94.979 Z-4.000 F120.000
G3 X90.733 Y95.518 Z-4.000 I-4.299 J0.020 K0.000 F120.000
G1 X90.700 Y94.979 Z-4.000 F120.000
G1 X90.700 Y80.813 Z-4.000 F120.000
G1 X90.700 Y80.813 Z-4.500 F60.000
G1 X90.700 Y29.046 Z-4.500 F120.000
G3 X91.046 Y28.700 Z-4.500 I0.318 J-0.028 K0.000 F120.000
G1 X98.954 Y28.700 Z-4.500 F120.000
G3 X99.300 Y29.046 Z-4.500 I0.028 J0.318 K0.000 F120.000
G1 X99.300 Y94.979 Z-4.500 F120.000
G3 X90.733 Y95.518 Z-4.500 I-4.299 J0.020 K0.000 F120.000
G1 X90.700 Y94.979 Z-4.500 F120.000
G1 X90.700 Y80.813 Z-4.500 F120.000
G1 X90.700 Y80.813 Z-5.000 F60.000
G1 X90.700 Y29.046 Z-5.000 F120.000
G3 X91.046 Y28.700 Z-5.000 I0.318 J-0.028 K0.000 F120.000
G1 X98.954 Y28.700 Z-5.000 F120.000
G3 X99.300 Y29.046 Z-5.000 I0.028 J0.318 K0.000 F120.000
G1 X99.300 Y94.979 Z-5.000 F120.000
G3 X90.733 Y95.518 Z-5.000 I-4.299 J0.020 K0.000 F120.000
G1 X90.700 Y94.979 Z-5.000 F120.000
G1 X90.700 Y80.813 Z-5.000 F120.000
G1 X90.700 Y80.813 Z-5.500 F60.000
G1 X90.700 Y29.046 Z-5.500 F120.000
G3 X91.046 Y28.700 Z-5.500 I0.318 J-0.028 K0.000 F120.000
G1 X98.954 Y28.700 Z-5.500 F120.000
G3 X99.300 Y29.046 Z-5.500 I0.028 J0.318 K0.000 F120.000
G1 X99.300 Y94.979 Z-5.500 F120.000
G3 X90.733 Y95.518 Z-5.500 I-4.299 J0.020 K0.000 F120.000
G1 X90.700 Y94.979 Z-5.500 F120.000
G1 X90.700 Y80.813 Z-5.500 F120.000
G1 X90.700 Y80.813 Z-6.000 F60.000
G1 X90.700 Y29.046 Z-6.000 F120.000
G3 X91.046 Y28.700 Z-6.000 I0.318 J-0.028 K0.000 F120.000
G1 X98.954 Y28.700 Z-6.000 F120.000
G3 X99.300 Y29.046 Z-6.000 I0.028 J0.318 K0.000 F120.000
G1 X99.300 Y94.979 Z-6.000 F120.000
G3 X90.733 Y95.518 Z-6.000 I-4.299 J0.020 K0.000 F120.000
G1 X90.700 Y94.979 Z-6.000 F120.000
G1 X90.700 Y80.813 Z-6.000 F120.000
G1 X90.700 Y80.813 Z-6.500 F60.000
G1 X90.700 Y29.046 Z-6.500 F120.000
G3 X91.046 Y28.700 Z-6.500 I0.318 J-0.028 K0.000 F120.000
G1 X98.954 Y28.700 Z-6.500 F120.000
G3 X99.300 Y29.046 Z-6.500 I0.028 J0.318 K0.000 F120.000
G1 X99.300 Y94.979 Z-6.500 F120.000
G3 X90.733 Y95.518 Z-6.500 I-4.299 J0.020 K0.000 F120.000
G1 X90.700 Y94.979 Z-6.500 F120.000
G1 X90.700 Y80.813 Z-6.500 F120.000
G1 X90.700 Y80.813 Z-7.000 F60.000
G1 X90.700 Y29.046 Z-7.000 F120.000
G3 X91.046 Y28.700 Z-7.000 I0.318 J-0.028 K0.000 F120.000
G1 X98.954 Y28.700 Z-7.000 F120.000
G3 X99.300 Y29.046 Z-7.000 I0.028 J0.318 K0.000 F120.000
G1 X99.300 Y94.979 Z-7.000 F120.000
G3 X90.733 Y95.518 Z-7.000 I-4.299 J0.020 K0.000 F120.000
G1 X90.700 Y94.979 Z-7.000 F120.000
G1 X90.700 Y80.813 Z-7.000 F120.000
G1 X90.700 Y80.813 Z-7.500 F60.000
G1 X90.700 Y29.046 Z-7.500 F120.000
G3 X91.046 Y28.700 Z-7.500 I0.318 J-0.028 K0.000 F120.000
G1 X98.954 Y28.700 Z-7.500 F120.000
G3 X99.300 Y29.046 Z-7.500 I0.028 J0.318 K0.000 F120.000
G1 X99.300 Y94.979 Z-7.500 F120.000
G3 X90.733 Y95.518 Z-7.500 I-4.299 J0.020 K0.000 F120.000
G1 X90.700 Y94.979 Z-7.500 F120.000
G1 X90.700 Y80.813 Z-7.500 F120.000
G1 X90.700 Y80.813 Z-8.000 F60.000
G1 X90.700 Y29.046 Z-8.000 F120.000
G3 X91.046 Y28.700 Z-8.000 I0.318 J-0.028 K0.000 F120.000
G1 X98.954 Y28.700 Z-8.000 F120.000
G3 X99.300 Y29.046 Z-8.000 I0.028 J0.318 K0.000 F120.000
G1 X99.300 Y94.979 Z-8.000 F120.000
G3 X90.733 Y95.518 Z-8.000 I-4.299 J0.020 K0.000 F120.000
G1 X90.700 Y94.979 Z-8.000 F120.000
G1 X90.700 Y80.813 Z-8.000 F120.000
G1 X90.700 Y80.813 Z-8.500 F60.000
G1 X90.700 Y29.046 Z-8.500 F120.000
G3 X91.046 Y28.700 Z-8.500 I0.318 J-0.028 K0.000 F120.000
G1 X98.954 Y28.700 Z-8.500 F120.000
G3 X99.300 Y29.046 Z-8.500 I0.028 J0.318 K0.000 F120.000
G1 X99.300 Y94.979 Z-8.500 F120.000
G3 X90.733 Y95.518 Z-8.500 I-4.299 J0.020 K0.000 F120.000
G1 X90.700 Y94.979 Z-8.500 F120.000
G1 X90.700 Y80.813 Z-8.500 F120.000
G1 X90.700 Y80.813 Z-9.000 F60.000
G1 X90.700 Y29.046 Z-9.000 F120.000
G3 X91.046 Y28.700 Z-9.000 I0.318 J-0.028 K0.000 F120.000
G1 X98.954 Y28.700 Z-9.000 F120.000
G3 X99.300 Y29.046 Z-9.000 I0.028 J0.318 K0.000 F120.000
G1 X99.300 Y94.979 Z-9.000 F120.000
G3 X90.733 Y95.518 Z-9.000 I-4.299 J0.020 K0.000 F120.000
G1 X90.700 Y94.979 Z-9.000 F120.000
G1 X90.700 Y80.813 Z-9.000 F120.000
G1 X90.700 Y80.813 Z-9.500 F60.000
G1 X90.700 Y29.046 Z-9.500 F120.000
G3 X91.046 Y28.700 Z-9.500 I0.318 J-0.028 K0.000 F120.000
G1 X98.954 Y28.700 Z-9.500 F120.000
G3 X99.300 Y29.046 Z-9.500 I0.028 J0.318 K0.000 F120.000
G1 X99.300 Y94.979 Z-9.500 F120.000
G3 X90.733 Y95.518 Z-9.500 I-4.299 J0.020 K0.000 F120.000
G1 X90.700 Y94.979 Z-9.500 F120.000
G1 X90.700 Y80.813 Z-9.500 F120.000
G1 X90.700 Y80.813 Z-10.000 F60.000
G1 X90.700 Y29.046 Z-10.000 F120.000
G3 X91.046 Y28.700 Z-10.000 I0.318 J-0.028 K0.000 F120.000
G1 X98.954 Y28.700 Z-10.000 F120.000
G3 X99.300 Y29.046 Z-10.000 I0.028 J0.318 K0.000 F120.000
G1 X99.300 Y94.979 Z-10.000 F120.000
G3 X90.733 Y95.518 Z-10.000 I-4.299 J0.020 K0.000 F120.000
G1 X90.700 Y94.979 Z-10.000 F120.000
G1 X90.700 Y80.813 Z-10.000 F120.000
G0 Z2.000
G0 Z2.000
G0 X90.700 Y80.813
G0 X107.700
G0 X107.700
G1 X107.700 Y80.813 Z-0.500 F60.000
G1 X107.700 Y29.046 Z-0.500 F120.000
G3 X108.046 Y28.700 Z-0.500 I0.318 J-0.028 K0.000 F120.000
G1 X148.954 Y28.700 Z-0.500 F120.000
G3 X149.300 Y29.046 Z-0.500 I0.028 J0.318 K0.000 F120.000
G1 X149.300 Y98.954 Z-0.500 F120.000
G3 X148.954 Y99.300 Z-0.500 I-0.318 J0.028 K0.000 F120.000
G1 X108.046 Y99.300 Z-0.500 F120.000
G3 X107.700 Y98.954 Z-0.500 I-0.028 J-0.318 K0.000 F120.000
G1 X107.700 Y80.813 Z-0.500 F120.000
G1 X107.700 Y80.813 Z-1.000 F60.000
G1 X107.700 Y29.046 Z-1.000 F120.000
G3 X108.046 Y28.700 Z-1.000 I0.318 J-0.028 K0.000 F120.000
G1 X148.954 Y28.700 Z-1.000 F120.000
G3 X149.300 Y29.046 Z-1.000 I0.028 J0.318 K0.000 F120.000
G1 X149.300 Y98.954 Z-1.000 F120.000
G3 X148.954 Y99.300 Z-1.000 I-0.318 J0.028 K0.000 F120.000
G1 X108.046 Y99.300 Z-1.000 F120.000
G3 X107.700 Y98.954 Z-1.000 I-0.028 J-0.318 K0.000 F120.000
G1 X107.700 Y80.813 Z-1.000 F120.000
G1 X107.700 Y80.813 Z-1.500 F60.000
G1 X107.700 Y29.046 Z-1.500 F120.000
G3 X108.046 Y28.700 Z-1.500 I0.318 J-0.028 K0.000 F120.000
G1 X148.954 Y28.700 Z-1.500 F120.000
G3 X149.300 Y29.046 Z-1.500 I0.028 J0.318 K0.000 F120.000
G1 X149.300 Y98.954 Z-1.500 F120.000
G3 X148.954 Y99.300 Z-1.500 I-0.318 J0.028 K0.000 F120.000
G1 X108.046 Y99.300 Z-1.500 F120.000
G3 X107.700 Y98.954 Z-1.500 I-0.028 J-0.318 K0.000 F120.000
G1 X107.700 Y80.813 Z-1.500 F120.000
G1 X107.700 Y80.813 Z-2.000 F60.000
G1 X107.700 Y29.046 Z-2.000 F120.000
G3 X108.046 Y28.700 Z-2.000 I0.318 J-0.028 K0.000 F120.000
G1 X148.954 Y28.700 Z-2.000 F120.000
G3 X149.300 Y29.046 Z-2.000 I0.028 J0.318 K0.000 F120.000
G1 X149.300 Y98.954 Z-2.000 F120.000
G3 X148.954 Y99.300 Z-2.000 I-0.318 J0.028 K0.000 F120.000
G1 X108.046 Y99.300 Z-2.000 F120.000
G3 X107.700 Y98.954 Z-2.000 I-0.028 J-0.318 K0.000 F120.000
G1 X107.700 Y80.813 Z-2.000 F120.000
G1 X107.700 Y80.813 Z-2.500 F60.000
G1 X107.700 Y29.046 Z-2.500 F120.000
G3 X108.046 Y28.700 Z-2.500 I0.318 J-0.028 K0.000 F120.000
G1 X148.954 Y28.700 Z-2.500 F120.000
G3 X149.300 Y29.046 Z-2.500 I0.028 J0.318 K0.000 F120.000
G1 X149.300 Y98.954 Z-2.500 F120.000
G3 X148.954 Y99.300 Z-2.500 I-0.318 J0.028 K0.000 F120.000
G1 X108.046 Y99.300 Z-2.500 F120.000
G3 X107.700 Y98.954 Z-2.500 I-0.028 J-0.318 K0.000 F120.000
G1 X107.700 Y80.813 Z-2.500 F120.000
G1 X107.700 Y80.813 Z-3.000 F60.000
G1 X107.700 Y29.046 Z-3.000 F120.000
G3 X108.046 Y28.700 Z-3.000 I0.318 J-0.028 K0.000 F120.000
G1 X148.954 Y28.700 Z-3.000 F120.000
G3 X149.300 Y29.046 Z-3.000 I0.028 J0.318 K0.000 F120.000
G1 X149.300 Y98.954 Z-3.000 F120.000
G3 X148.954 Y99.300 Z-3.000 I-0.318 J0.028 K0.000 F120.000
G1 X108.046 Y99.300 Z-3.000 F120.000
G3 X107.700 Y98.954 Z-3.000 I-0.028 J-0.318 K0.000 F120.000
G1 X107.700 Y80.813 Z-3.000 F120.000
G1 X107.700 Y80.813 Z-3.500 F60.000
G1 X107.700 Y29.046 Z-3.500 F120.000
G3 X108.046 Y28.700 Z-3.500 I0.318 J-0.028 K0.000 F120.000
G1 X148.954 Y28.700 Z-3.500 F120.000
G3 X149.300 Y29.046 Z-3.500 I0.028 J0.318 K0.000 F120.000
G1 X149.300 Y98.954 Z-3.500 F120.000
G3 X148.954 Y99.300 Z-3.500 I-0.318 J0.028 K0.000 F120.000
G1 X108.046 Y99.300 Z-3.500 F120.000
G3 X107.700 Y98.954 Z-3.500 I-0.028 J-0.318 K0.000 F120.000
G1 X107.700 Y80.813 Z-3.500 F120.000
G1 X107.700 Y80.813 Z-4.000 F60.000
G1 X107.700 Y29.046 Z-4.000 F120.000
G3 X108.046 Y28.700 Z-4.000 I0.318 J-0.028 K0.000 F120.000
G1 X148.954 Y28.700 Z-4.000 F120.000
G3 X149.300 Y29.046 Z-4.000 I0.028 J0.318 K0.000 F120.000
G1 X149.300 Y98.954 Z-4.000 F120.000
G3 X148.954 Y99.300 Z-4.000 I-0.318 J0.028 K0.000 F120.000
G1 X108.046 Y99.300 Z-4.000 F120.000
G3 X107.700 Y98.954 Z-4.000 I-0.028 J-0.318 K0.000 F120.000
G1 X107.700 Y80.813 Z-4.000 F120.000
G1 X107.700 Y80.813 Z-4.500 F60.000
G1 X107.700 Y29.046 Z-4.500 F120.000
G3 X108.046 Y28.700 Z-4.500 I0.318 J-0.028 K0.000 F120.000
G1 X148.954 Y28.700 Z-4.500 F120.000
G3 X149.300 Y29.046 Z-4.500 I0.028 J0.318 K0.000 F120.000
G1 X149.300 Y98.954 Z-4.500 F120.000
G3 X148.954 Y99.300 Z-4.500 I-0.318 J0.028 K0.000 F120.000
G1 X108.046 Y99.300 Z-4.500 F120.000
G3 X107.700 Y98.954 Z-4.500 I-0.028 J-0.318 K0.000 F120.000
G1 X107.700 Y80.813 Z-4.500 F120.000
G1 X107.700 Y80.813 Z-5.000 F60.000
G1 X107.700 Y29.046 Z-5.000 F120.000
G3 X108.046 Y28.700 Z-5.000 I0.318 J-0.028 K0.000 F120.000
G1 X148.954 Y28.700 Z-5.000 F120.000
G3 X149.300 Y29.046 Z-5.000 I0.028 J0.318 K0.000 F120.000
G1 X149.300 Y98.954 Z-5.000 F120.000
G3 X148.954 Y99.300 Z-5.000 I-0.318 J0.028 K0.000 F120.000
G1 X108.046 Y99.300 Z-5.000 F120.000
G3 X107.700 Y98.954 Z-5.000 I-0.028 J-0.318 K0.000 F120.000
G1 X107.700 Y80.813 Z-5.000 F120.000
G1 X107.700 Y80.813 Z-5.500 F60.000
G1 X107.700 Y29.046 Z-5.500 F120.000
G3 X108.046 Y28.700 Z-5.500 I0.318 J-0.028 K0.000 F120.000
G1 X148.954 Y28.700 Z-5.500 F120.000
G3 X149.300 Y29.046 Z-5.500 I0.028 J0.318 K0.000 F120.000
G1 X149.300 Y98.954 Z-5.500 F120.000
G3 X148.954 Y99.300 Z-5.500 I-0.318 J0.028 K0.000 F120.000
G1 X108.046 Y99.300 Z-5.500 F120.000
G3 X107.700 Y98.954 Z-5.500 I-0.028 J-0.318 K0.000 F120.000
G1 X107.700 Y80.813 Z-5.500 F120.000
G1 X107.700 Y80.813 Z-6.000 F60.000
G1 X107.700 Y29.046 Z-6.000 F120.000
G3 X108.046 Y28.700 Z-6.000 I0.318 J-0.028 K0.000 F120.000
G1 X148.954 Y28.700 Z-6.000 F120.000
G3 X149.300 Y29.046 Z-6.000 I0.028 J0.318 K0.000 F120.000
G1 X149.300 Y98.954 Z-6.000 F120.000
G3 X148.954 Y99.300 Z-6.000 I-0.318 J0.028 K0.000 F120.000
G1 X108.046 Y99.300 Z-6.000 F120.000
G3 X107.700 Y98.954 Z-6.000 I-0.028 J-0.318 K0.000 F120.000
G1 X107.700 Y80.813 Z-6.000 F120.000
G1 X107.700 Y80.813 Z-6.500 F60.000
G1 X107.700 Y29.046 Z-6.500 F120.000
G3 X108.046 Y28.700 Z-6.500 I0.318 J-0.028 K0.000 F120.000
G1 X148.954 Y28.700 Z-6.500 F120.000
G3 X149.300 Y29.046 Z-6.500 I0.028 J0.318 K0.000 F120.000
G1 X149.300 Y98.954 Z-6.500 F120.000
G3 X148.954 Y99.300 Z-6.500 I-0.318 J0.028 K0.000 F120.000
G1 X108.046 Y99.300 Z-6.500 F120.000
G3 X107.700 Y98.954 Z-6.500 I-0.028 J-0.318 K0.000 F120.000
G1 X107.700 Y80.813 Z-6.500 F120.000
G1 X107.700 Y80.813 Z-7.000 F60.000
G1 X107.700 Y29.046 Z-7.000 F120.000
G3 X108.046 Y28.700 Z-7.000 I0.318 J-0.028 K0.000 F120.000
G1 X148.954 Y28.700 Z-7.000 F120.000
G3 X149.300 Y29.046 Z-7.000 I0.028 J0.318 K0.000 F120.000
G1 X149.300 Y98.954 Z-7.000 F120.000
G3 X148.954 Y99.300 Z-7.000 I-0.318 J0.028 K0.000 F120.000
G1 X108.046 Y99.300 Z-7.000 F120.000
G3 X107.700 Y98.954 Z-7.000 I-0.028 J-0.318 K0.000 F120.000
G1 X107.700 Y80.813 Z-7.000 F120.000
G1 X107.700 Y80.813 Z-7.500 F60.000
G1 X107.700 Y29.046 Z-7.500 F120.000
G3 X108.046 Y28.700 Z-7.500 I0.318 J-0.028 K0.000 F120.000
G1 X148.954 Y28.700 Z-7.500 F120.000
G3 X149.300 Y29.046 Z-7.500 I0.028 J0.318 K0.000 F120.000
G1 X149.300 Y98.954 Z-7.500 F120.000
G3 X148.954 Y99.300 Z-7.500 I-0.318 J0.028 K0.000 F120.000
G1 X108.046 Y99.300 Z-7.500 F120.000
G3 X107.700 Y98.954 Z-7.500 I-0.028 J-0.318 K0.000 F120.000
G1 X107.700 Y80.813 Z-7.500 F120.000
G1 X107.700 Y80.813 Z-8.000 F60.000
G1 X107.700 Y29.046 Z-8.000 F120.000
G3 X108.046 Y28.700 Z-8.000 I0.318 J-0.028 K0.000 F120.000
G1 X148.954 Y28.700 Z-8.000 F120.000
G3 X149.300 Y29.046 Z-8.000 I0.028 J0.318 K0.000 F120.000
G1 X149.300 Y98.954 Z-8.000 F120.000
G3 X148.954 Y99.300 Z-8.000 I-0.318 J0.028 K0.000 F120.000
G1 X108.046 Y99.300 Z-8.000 F120.000
G3 X107.700 Y98.954 Z-8.000 I-0.028 J-0.318 K0.000 F120.000
G1 X107.700 Y80.813 Z-8.000 F120.000
G1 X107.700 Y80.813 Z-8.500 F60.000
G1 X107.700 Y29.046 Z-8.500 F120.000
G3 X108.046 Y28.700 Z-8.500 I0.318 J-0.028 K0.000 F120.000
G1 X148.954 Y28.700 Z-8.500 F120.000
G3 X149.300 Y29.046 Z-8.500 I0.028 J0.318 K0.000 F120.000
G1 X149.300 Y98.954 Z-8.500 F120.000
G3 X148.954 Y99.300 Z-8.500 I-0.318 J0.028 K0.000 F120.000
G1 X108.046 Y99.300 Z-8.500 F120.000
G3 X107.700 Y98.954 Z-8.500 I-0.028 J-0.318 K0.000 F120.000
G1 X107.700 Y80.813 Z-8.500 F120.000
G1 X107.700 Y80.813 Z-9.000 F60.000
G1 X107.700 Y29.046 Z-9.000 F120.000
G3 X108.046 Y28.700 Z-9.000 I0.318 J-0.028 K0.000 F120.000
G1 X148.954 Y28.700 Z-9.000 F120.000
G3 X149.300 Y29.046 Z-9.000 I0.028 J0.318 K0.000 F120.000
G1 X149.300 Y98.954 Z-9.000 F120.000
G3 X148.954 Y99.300 Z-9.000 I-0.318 J0.028 K0.000 F120.000
G1 X108.046 Y99.300 Z-9.000 F120.000
G3 X107.700 Y98.954 Z-9.000 I-0.028 J-0.318 K0.000 F120.000
G1 X107.700 Y80.813 Z-9.000 F120.000
G1 X107.700 Y80.813 Z-9.500 F60.000
G1 X107.700 Y29.046 Z-9.500 F120.000
G3 X108.046 Y28.700 Z-9.500 I0.318 J-0.028 K0.000 F120.000
G1 X148.954 Y28.700 Z-9.500 F120.000
G3 X149.300 Y29.046 Z-9.500 I0.028 J0.318 K0.000 F120.000
G1 X149.300 Y98.954 Z-9.500 F120.000
G3 X148.954 Y99.300 Z-9.500 I-0.318 J0.028 K0.000 F120.000
G1 X108.046 Y99.300 Z-9.500 F120.000
G3 X107.700 Y98.954 Z-9.500 I-0.028 J-0.318 K0.000 F120.000
G1 X107.700 Y80.813 Z-9.500 F120.000
G1 X107.700 Y80.813 Z-10.000 F60.000
G1 X107.700 Y29.046 Z-10.000 F120.000
G3 X108.046 Y28.700 Z-10.000 I0.318 J-0.028 K0.000 F120.000
G1 X148.954 Y28.700 Z-10.000 F120.000
G3 X149.300 Y29.046 Z-10.000 I0.028 J0.318 K0.000 F120.000
G1 X149.300 Y98.954 Z-10.000 F120.000
G3 X148.954 Y99.300 Z-10.000 I-0.318 J0.028 K0.000 F120.000
G1 X108.046 Y99.300 Z-10.000 F120.000
G3 X107.700 Y98.954 Z-10.000 I-0.028 J-0.318 K0.000 F120.000
G1 X107.700 Y80.813 Z-10.000 F120.000
G0 Z2.000
G0 Z2.000
G0 X107.700 Y80.813
G0 X152.286 Y102.650
G0 X152.286 Y102.650
G1 X152.286 Y102.650 Z-0.500 F60.000
G3 X153.345 Y102.283 Z-0.500 I0.714 J0.350 K0.000 F120.000
G3 X152.655 Y103.717 Z-0.500 I-0.345 J0.717 K0.000 F120.000
G3 X152.286 Y102.650 Z-0.500 I0.345 J-0.717 K0.000 F120.000
G1 X152.286 Y102.650 Z-1.000 F60.000
G3 X153.345 Y102.283 Z-1.000 I0.714 J0.350 K0.000 F120.000
G3 X152.655 Y103.717 Z-1.000 I-0.345 J0.717 K0.000 F120.000
G3 X152.286 Y102.650 Z-1.000 I0.345 J-0.717 K0.000 F120.000
G1 X152.286 Y102.650 Z-1.500 F60.000
G3 X153.345 Y102.283 Z-1.500 I0.714 J0.350 K0.000 F120.000
G3 X152.655 Y103.717 Z-1.500 I-0.345 J0.717 K0.000 F120.000
G3 X152.286 Y102.650 Z-1.500 I0.345 J-0.717 K0.000 F120.000
G1 X152.286 Y102.650 Z-2.000 F60.000
G3 X153.345 Y102.283 Z-2.000 I0.714 J0.350 K0.000 F120.000
G3 X152.655 Y103.717 Z-2.000 I-0.345 J0.717 K0.000 F120.000
G3 X152.286 Y102.650 Z-2.000 I0.345 J-0.717 K0.000 F120.000
G1 X152.286 Y102.650 Z-2.500 F60.000
G3 X153.345 Y102.283 Z-2.500 I0.714 J0.350 K0.000 F120.000
G3 X152.655 Y103.717 Z-2.500 I-0.345 J0.717 K0.000 F120.000
G3 X152.286 Y102.650 Z-2.500 I0.345 J-0.717 K0.000 F120.000
G1 X152.286 Y102.650 Z-3.000 F60.000
G3 X153.345 Y102.283 Z-3.000 I0.714 J0.350 K0.000 F120.000
G3 X152.655 Y103.717 Z-3.000 I-0.345 J0.717 K0.000 F120.000
G3 X152.286 Y102.650 Z-3.000 I0.345 J-0.717 K0.000 F120.000
G1 X152.286 Y102.650 Z-3.500 F60.000
G3 X153.345 Y102.283 Z-3.500 I0.714 J0.350 K0.000 F120.000
G3 X152.655 Y103.717 Z-3.500 I-0.345 J0.717 K0.000 F120.000
G3 X152.286 Y102.650 Z-3.500 I0.345 J-0.717 K0.000 F120.000
G1 X152.286 Y102.650 Z-4.000 F60.000
G3 X153.345 Y102.283 Z-4.000 I0.714 J0.350 K0.000 F120.000
G3 X152.655 Y103.717 Z-4.000 I-0.345 J0.717 K0.000 F120.000
G3 X152.286 Y102.650 Z-4.000 I0.345 J-0.717 K0.000 F120.000
G1 X152.286 Y102.650 Z-4.500 F60.000
G3 X153.345 Y102.283 Z-4.500 I0.714 J0.350 K0.000 F120.000
G3 X152.655 Y103.717 Z-4.500 I-0.345 J0.717 K0.000 F120.000
G3 X152.286 Y102.650 Z-4.500 I0.345 J-0.717 K0.000 F120.000
G1 X152.286 Y102.650 Z-5.000 F60.000
G3 X153.345 Y102.283 Z-5.000 I0.714 J0.350 K0.000 F120.000
G3 X152.655 Y103.717 Z-5.000 I-0.345 J0.717 K0.000 F120.000
G3 X152.286 Y102.650 Z-5.000 I0.345 J-0.717 K0.000 F120.000
G1 X152.286 Y102.650 Z-5.500 F60.000
G3 X153.345 Y102.283 Z-5.500 I0.714 J0.350 K0.000 F120.000
G3 X152.655 Y103.717 Z-5.500 I-0.345 J0.717 K0.000 F120.000
G3 X152.286 Y102.650 Z-5.500 I0.345 J-0.717 K0.000 F120.000
G1 X152.286 Y102.650 Z-6.000 F60.000
G3 X153.345 Y102.283 Z-6.000 I0.714 J0.350 K0.000 F120.000
G3 X152.655 Y103.717 Z-6.000 I-0.345 J0.717 K0.000 F120.000
G3 X152.286 Y102.650 Z-6.000 I0.345 J-0.717 K0.000 F120.000
G1 X152.286 Y102.650 Z-6.500 F60.000
G3 X153.345 Y102.283 Z-6.500 I0.714 J0.350 K0.000 F120.000
G3 X152.655 Y103.717 Z-6.500 I-0.345 J0.717 K0.000 F120.000
G3 X152.286 Y102.650 Z-6.500 I0.345 J-0.717 K0.000 F120.000
G1 X152.286 Y102.650 Z-7.000 F60.000
G3 X153.345 Y102.283 Z-7.000 I0.714 J0.350 K0.000 F120.000
G3 X152.655 Y103.717 Z-7.000 I-0.345 J0.717 K0.000 F120.000
G3 X152.286 Y102.650 Z-7.000 I0.345 J-0.717 K0.000 F120.000
G1 X152.286 Y102.650 Z-7.500 F60.000
G3 X153.345 Y102.283 Z-7.500 I0.714 J0.350 K0.000 F120.000
G3 X152.655 Y103.717 Z-7.500 I-0.345 J0.717 K0.000 F120.000
G3 X152.286 Y102.650 Z-7.500 I0.345 J-0.717 K0.000 F120.000
G1 X152.286 Y102.650 Z-8.000 F60.000
G3 X153.345 Y102.283 Z-8.000 I0.714 J0.350 K0.000 F120.000
G3 X152.655 Y103.717 Z-8.000 I-0.345 J0.717 K0.000 F120.000
G3 X152.286 Y102.650 Z-8.000 I0.345 J-0.717 K0.000 F120.000
G1 X152.286 Y102.650 Z-8.500 F60.000
G3 X153.345 Y102.283 Z-8.500 I0.714 J0.350 K0.000 F120.000
G3 X152.655 Y103.717 Z-8.500 I-0.345 J0.717 K0.000 F120.000
G3 X152.286 Y102.650 Z-8.500 I0.345 J-0.717 K0.000 F120.000
G1 X152.286 Y102.650 Z-9.000 F60.000
G3 X153.345 Y102.283 Z-9.000 I0.714 J0.350 K0.000 F120.000
G3 X152.655 Y103.717 Z-9.000 I-0.345 J0.717 K0.000 F120.000
G3 X152.286 Y102.650 Z-9.000 I0.345 J-0.717 K0.000 F120.000
G1 X152.286 Y102.650 Z-9.500 F60.000
G3 X153.345 Y102.283 Z-9.500 I0.714 J0.350 K0.000 F120.000
G3 X152.655 Y103.717 Z-9.500 I-0.345 J0.717 K0.000 F120.000
G3 X152.286 Y102.650 Z-9.500 I0.345 J-0.717 K0.000 F120.000
G1 X152.286 Y102.650 Z-10.000 F60.000
G3 X153.345 Y102.283 Z-10.000 I0.714 J0.350 K0.000 F120.000
G3 X152.655 Y103.717 Z-10.000 I-0.345 J0.717 K0.000 F120.000
G3 X152.286 Y102.650 Z-10.000 I0.345 J-0.717 K0.000 F120.000
G0 Z2.000
G0 Z2.000
G0 X152.286 Y102.650
G0 X150.022 Y20.795
G0 X150.022 Y20.795
G1 X150.022 Y20.795 Z-0.500 F60.000
G3 X149.655 Y20.717 Z-0.500 I-0.022 J-0.795 K0.000 F120.000
G3 X150.345 Y19.283 Z-0.500 I0.345 J-0.717 K0.000 F120.000
G3 X150.022 Y20.795 Z-0.500 I-0.345 J0.717 K0.000 F120.000
G1 X150.022 Y20.795 Z-1.000 F60.000
G3 X149.655 Y20.717 Z-1.000 I-0.022 J-0.795 K0.000 F120.000
G3 X150.345 Y19.283 Z-1.000 I0.345 J-0.717 K0.000 F120.000
G3 X150.022 Y20.795 Z-1.000 I-0.345 J0.717 K0.000 F120.000
G1 X150.022 Y20.795 Z-1.500 F60.000
G3 X149.655 Y20.717 Z-1.500 I-0.022 J-0.795 K0.000 F120.000
G3 X150.345 Y19.283 Z-1.500 I0.345 J-0.717 K0.000 F120.000
G3 X150.022 Y20.795 Z-1.500 I-0.345 J0.717 K0.000 F120.000
G1 X150.022 Y20.795 Z-2.000 F60.000
G3 X149.655 Y20.717 Z-2.000 I-0.022 J-0.795 K0.000 F120.000
G3 X150.345 Y19.283 Z-2.000 I0.345 J-0.717 K0.000 F120.000
G3 X150.022 Y20.795 Z-2.000 I-0.345 J0.717 K0.000 F120.000
G1 X150.022 Y20.795 Z-2.500 F60.000
G3 X149.655 Y20.717 Z-2.500 I-0.022 J-0.795 K0.000 F120.000
G3 X150.345 Y19.283 Z-2.500 I0.345 J-0.717 K0.000 F120.000
G3 X150.022 Y20.795 Z-2.500 I-0.345 J0.717 K0.000 F120.000
G1 X150.022 Y20.795 Z-3.000 F60.000
G3 X149.655 Y20.717 Z-3.000 I-0.022 J-0.795 K0.000 F120.000
G3 X150.345 Y19.283 Z-3.000 I0.345 J-0.717 K0.000 F120.000
G3 X150.022 Y20.795 Z-3.000 I-0.345 J0.717 K0.000 F120.000
G1 X150.022 Y20.795 Z-3.500 F60.000
G3 X149.655 Y20.717 Z-3.500 I-0.022 J-0.795 K0.000 F120.000
G3 X150.345 Y19.283 Z-3.500 I0.345 J-0.717 K0.000 F120.000
G3 X150.022 Y20.795 Z-3.500 I-0.345 J0.717 K0.000 F120.000
G1 X150.022 Y20.795 Z-4.000 F60.000
G3 X149.655 Y20.717 Z-4.000 I-0.022 J-0.795 K0.000 F120.000
G3 X150.345 Y19.283 Z-4.000 I0.345 J-0.717 K0.000 F120.000
G3 X150.022 Y20.795 Z-4.000 I-0.345 J0.717 K0.000 F120.000
G1 X150.022 Y20.795 Z-4.500 F60.000
G3 X149.655 Y20.717 Z-4.500 I-0.022 J-0.795 K0.000 F120.000
G3 X150.345 Y19.283 Z-4.500 I0.345 J-0.717 K0.000 F120.000
G3 X150.022 Y20.795 Z-4.500 I-0.345 J0.717 K0.000 F120.000
G1 X150.022 Y20.795 Z-5.000 F60.000
G3 X149.655 Y20.717 Z-5.000 I-0.022 J-0.795 K0.000 F120.000
G3 X150.345 Y19.283 Z-5.000 I0.345 J-0.717 K0.000 F120.000
G3 X150.022 Y20.795 Z-5.000 I-0.345 J0.717 K0.000 F120.000
G1 X150.022 Y20.795 Z-5.500 F60.000
G3 X149.655 Y20.717 Z-5.500 I-0.022 J-0.795 K0.000 F120.000
G3 X150.345 Y19.283 Z-5.500 I0.345 J-0.717 K0.000 F120.000
G3 X150.022 Y20.795 Z-5.500 I-0.345 J0.717 K0.000 F120.000
G1 X150.022 Y20.795 Z-6.000 F60.000
G3 X149.655 Y20.717 Z-6.000 I-0.022 J-0.795 K0.000 F120.000
G3 X150.345 Y19.283 Z-6.000 I0.345 J-0.717 K0.000 F120.000
G3 X150.022 Y20.795 Z-6.000 I-0.345 J0.717 K0.000 F120.000
G1 X150.022 Y20.795 Z-6.500 F60.000
G3 X149.655 Y20.717 Z-6.500 I-0.022 J-0.795 K0.000 F120.000
G3 X150.345 Y19.283 Z-6.500 I0.345 J-0.717 K0.000 F120.000
G3 X150.022 Y20.795 Z-6.500 I-0.345 J0.717 K0.000 F120.000
G1 X150.022 Y20.795 Z-7.000 F60.000
G3 X149.655 Y20.717 Z-7.000 I-0.022 J-0.795 K0.000 F120.000
G3 X150.345 Y19.283 Z-7.000 I0.345 J-0.717 K0.000 F120.000
G3 X150.022 Y20.795 Z-7.000 I-0.345 J0.717 K0.000 F120.000
G1 X150.022 Y20.795 Z-7.500 F60.000
G3 X149.655 Y20.717 Z-7.500 I-0.022 J-0.795 K0.000 F120.000
G3 X150.345 Y19.283 Z-7.500 I0.345 J-0.717 K0.000 F120.000
G3 X150.022 Y20.795 Z-7.500 I-0.345 J0.717 K0.000 F120.000
G1 X150.022 Y20.795 Z-8.000 F60.000
G3 X149.655 Y20.717 Z-8.000 I-0.022 J-0.795 K0.000 F120.000
G3 X150.345 Y19.283 Z-8.000 I0.345 J-0.717 K0.000 F120.000
G3 X150.022 Y20.795 Z-8.000 I-0.345 J0.717 K0.000 F120.000
G1 X150.022 Y20.795 Z-8.500 F60.000
G3 X149.655 Y20.717 Z-8.500 I-0.022 J-0.795 K0.000 F120.000
G3 X150.345 Y19.283 Z-8.500 I0.345 J-0.717 K0.000 F120.000
G3 X150.022 Y20.795 Z-8.500 I-0.345 J0.717 K0.000 F120.000
G1 X150.022 Y20.795 Z-9.000 F60.000
G3 X149.655 Y20.717 Z-9.000 I-0.022 J-0.795 K0.000 F120.000
G3 X150.345 Y19.283 Z-9.000 I0.345 J-0.717 K0.000 F120.000
G3 X150.022 Y20.795 Z-9.000 I-0.345 J0.717 K0.000 F120.000
G1 X150.022 Y20.795 Z-9.500 F60.000
G3 X149.655 Y20.717 Z-9.500 I-0.022 J-0.795 K0.000 F120.000
G3 X150.345 Y19.283 Z-9.500 I0.345 J-0.717 K0.000 F120.000
G3 X150.022 Y20.795 Z-9.500 I-0.345 J0.717 K0.000 F120.000
G1 X150.022 Y20.795 Z-10.000 F60.000
G3 X149.655 Y20.717 Z-10.000 I-0.022 J-0.795 K0.000 F120.000
G3 X150.345 Y19.283 Z-10.000 I0.345 J-0.717 K0.000 F120.000
G3 X150.022 Y20.795 Z-10.000 I-0.345 J0.717 K0.000 F120.000
G0 Z2.000
G0 Z2.000
(Finish operation: Profile054)
(Begin operation: Profile055)
(Path: Profile055)
(Profile055)
(Compensated Tool Path. Diameter: 1.4)
G0 Z2.000
G0 X160.199 Y110.200
G1 X160.199 Y110.200 Z-0.500 F60.000
G2 X160.694 Y109.091 Z-0.500 I-1.205 J-1.203 K0.000 F120.000
G1 X160.700 Y1.000 Z-0.500 F120.000
G2 X159.091 Y-0.694 Z-0.500 I-1.703 J0.006 K0.000 F120.000
G1 X155.000 Y-0.700 Z-0.500 F120.000
G2 X154.505 Y-0.495 Z-0.500 I-0.000 J0.700 K0.000 F120.000
G1 X149.505 Y4.505 Z-0.500 F120.000
G2 X149.300 Y5.000 Z-0.500 I0.495 J0.495 K0.000 F120.000
G1 X149.300 Y6.000 Z-0.500 F120.000
G2 X150.000 Y6.700 Z-0.500 I0.700 J0.000 K0.000 F120.000
G1 X152.967 Y6.700 Z-0.500 F120.000
G1 X153.284 Y6.729 Z-0.500 F120.000
G3 X152.967 Y9.800 Z-0.500 I-0.287 J1.522 K0.000 F120.000
G1 X142.000 Y9.800 Z-0.500 F120.000
G2 X141.300 Y10.500 Z-0.500 I0.000 J0.700 K0.000 F120.000
G1 X141.300 Y21.966 Z-0.500 F120.000
G3 X139.966 Y23.300 Z-0.500 I-1.309 J0.026 K0.000 F120.000
G1 X20.034 Y23.300 Z-0.500 F120.000
G3 X18.700 Y21.966 Z-0.500 I-0.026 J-1.309 K0.000 F120.000
G1 X18.700 Y10.500 Z-0.500 F120.000
G2 X18.000 Y9.800 Z-0.500 I-0.700 J0.000 K0.000 F120.000
G1 X7.031 Y9.800 Z-0.500 F120.000
G1 X6.731 Y9.774 Z-0.500 F120.000
G3 X7.031 Y6.700 Z-0.500 I0.270 J-1.525 K0.000 F120.000
G1 X10.000 Y6.700 Z-0.500 F120.000
G2 X10.700 Y6.000 Z-0.500 I-0.000 J-0.700 K0.000 F120.000
G1 X10.700 Y5.000 Z-0.500 F120.000
G2 X10.495 Y4.505 Z-0.500 I-0.700 J-0.000 K0.000 F120.000
G1 X5.495 Y-0.495 Z-0.500 F120.000
G2 X5.000 Y-0.700 Z-0.500 I-0.495 J0.495 K0.000 F120.000
G1 X1.000 Y-0.700 Z-0.500 F120.000
G2 X-0.694 Y0.909 Z-0.500 I0.006 J1.703 K0.000 F120.000
G1 X-0.700 Y109.000 Z-0.500 F120.000
G2 X0.909 Y110.694 Z-0.500 I1.703 J-0.006 K0.000 F120.000
G1 X159.000 Y110.700 Z-0.500 F120.000
G2 X160.199 Y110.200 Z-0.500 I-0.006 J-1.703 K0.000 F120.000
G1 X160.199 Y110.200 Z-1.000 F60.000
G2 X160.694 Y109.091 Z-1.000 I-1.205 J-1.203 K0.000 F120.000
G1 X160.700 Y1.000 Z-1.000 F120.000
G2 X159.091 Y-0.694 Z-1.000 I-1.703 J0.006 K0.000 F120.000
G1 X155.000 Y-0.700 Z-1.000 F120.000
G2 X154.505 Y-0.495 Z-1.000 I-0.000 J0.700 K0.000 F120.000
G1 X149.505 Y4.505 Z-1.000 F120.000
G2 X149.300 Y5.000 Z-1.000 I0.495 J0.495 K0.000 F120.000
G1 X149.300 Y6.000 Z-1.000 F120.000
G2 X150.000 Y6.700 Z-1.000 I0.700 J0.000 K0.000 F120.000
G1 X152.967 Y6.700 Z-1.000 F120.000
G1 X153.284 Y6.729 Z-1.000 F120.000
G3 X152.967 Y9.800 Z-1.000 I-0.287 J1.522 K0.000 F120.000
G1 X142.000 Y9.800 Z-1.000 F120.000
G2 X141.300 Y10.500 Z-1.000 I0.000 J0.700 K0.000 F120.000
G1 X141.300 Y21.966 Z-1.000 F120.000
G3 X139.966 Y23.300 Z-1.000 I-1.309 J0.026 K0.000 F120.000
G1 X20.034 Y23.300 Z-1.000 F120.000
G3 X18.700 Y21.966 Z-1.000 I-0.026 J-1.309 K0.000 F120.000
G1 X18.700 Y10.500 Z-1.000 F120.000
G2 X18.000 Y9.800 Z-1.000 I-0.700 J0.000 K0.000 F120.000
G1 X7.031 Y9.800 Z-1.000 F120.000
G1 X6.731 Y9.774 Z-1.000 F120.000
G3 X7.031 Y6.700 Z-1.000 I0.270 J-1.525 K0.000 F120.000
G1 X10.000 Y6.700 Z-1.000 F120.000
G2 X10.700 Y6.000 Z-1.000 I-0.000 J-0.700 K0.000 F120.000
G1 X10.700 Y5.000 Z-1.000 F120.000
G2 X10.495 Y4.505 Z-1.000 I-0.700 J-0.000 K0.000 F120.000
G1 X5.495 Y-0.495 Z-1.000 F120.000
G2 X5.000 Y-0.700 Z-1.000 I-0.495 J0.495 K0.000 F120.000
G1 X1.000 Y-0.700 Z-1.000 F120.000
G2 X-0.694 Y0.909 Z-1.000 I0.006 J1.703 K0.000 F120.000
G1 X-0.700 Y109.000 Z-1.000 F120.000
G2 X0.909 Y110.694 Z-1.000 I1.703 J-0.006 K0.000 F120.000
G1 X159.000 Y110.700 Z-1.000 F120.000
G2 X160.199 Y110.200 Z-1.000 I-0.006 J-1.703 K0.000 F120.000
G1 X160.199 Y110.200 Z-1.500 F60.000
G2 X160.694 Y109.091 Z-1.500 I-1.205 J-1.203 K0.000 F120.000
G1 X160.700 Y1.000 Z-1.500 F120.000
G2 X159.091 Y-0.694 Z-1.500 I-1.703 J0.006 K0.000 F120.000
G1 X155.000 Y-0.700 Z-1.500 F120.000
G2 X154.505 Y-0.495 Z-1.500 I-0.000 J0.700 K0.000 F120.000
G1 X149.505 Y4.505 Z-1.500 F120.000
G2 X149.300 Y5.000 Z-1.500 I0.495 J0.495 K0.000 F120.000
G1 X149.300 Y6.000 Z-1.500 F120.000
G2 X150.000 Y6.700 Z-1.500 I0.700 J0.000 K0.000 F120.000
G1 X152.967 Y6.700 Z-1.500 F120.000
G1 X153.284 Y6.729 Z-1.500 F120.000
G3 X152.967 Y9.800 Z-1.500 I-0.287 J1.522 K0.000 F120.000
G1 X142.000 Y9.800 Z-1.500 F120.000
G2 X141.300 Y10.500 Z-1.500 I0.000 J0.700 K0.000 F120.000
G1 X141.300 Y21.966 Z-1.500 F120.000
G3 X139.966 Y23.300 Z-1.500 I-1.309 J0.026 K0.000 F120.000
G1 X20.034 Y23.300 Z-1.500 F120.000
G3 X18.700 Y21.966 Z-1.500 I-0.026 J-1.309 K0.000 F120.000
G1 X18.700 Y10.500 Z-1.500 F120.000
G2 X18.000 Y9.800 Z-1.500 I-0.700 J0.000 K0.000 F120.000
G1 X7.031 Y9.800 Z-1.500 F120.000
G1 X6.731 Y9.774 Z-1.500 F120.000
G3 X7.031 Y6.700 Z-1.500 I0.270 J-1.525 K0.000 F120.000
G1 X10.000 Y6.700 Z-1.500 F120.000
G2 X10.700 Y6.000 Z-1.500 I-0.000 J-0.700 K0.000 F120.000
G1 X10.700 Y5.000 Z-1.500 F120.000
G2 X10.495 Y4.505 Z-1.500 I-0.700 J-0.000 K0.000 F120.000
G1 X5.495 Y-0.495 Z-1.500 F120.000
G2 X5.000 Y-0.700 Z-1.500 I-0.495 J0.495 K0.000 F120.000
G1 X1.000 Y-0.700 Z-1.500 F120.000
G2 X-0.694 Y0.909 Z-1.500 I0.006 J1.703 K0.000 F120.000
G1 X-0.700 Y109.000 Z-1.500 F120.000
G2 X0.909 Y110.694 Z-1.500 I1.703 J-0.006 K0.000 F120.000
G1 X159.000 Y110.700 Z-1.500 F120.000
G2 X160.199 Y110.200 Z-1.500 I-0.006 J-1.703 K0.000 F120.000
G1 X160.199 Y110.200 Z-2.000 F60.000
G2 X160.694 Y109.091 Z-2.000 I-1.205 J-1.203 K0.000 F120.000
G1 X160.700 Y1.000 Z-2.000 F120.000
G2 X159.091 Y-0.694 Z-2.000 I-1.703 J0.006 K0.000 F120.000
G1 X155.000 Y-0.700 Z-2.000 F120.000
G2 X154.505 Y-0.495 Z-2.000 I-0.000 J0.700 K0.000 F120.000
G1 X149.505 Y4.505 Z-2.000 F120.000
G2 X149.300 Y5.000 Z-2.000 I0.495 J0.495 K0.000 F120.000
G1 X149.300 Y6.000 Z-2.000 F120.000
G2 X150.000 Y6.700 Z-2.000 I0.700 J0.000 K0.000 F120.000
G1 X152.967 Y6.700 Z-2.000 F120.000
G1 X153.284 Y6.729 Z-2.000 F120.000
G3 X152.967 Y9.800 Z-2.000 I-0.287 J1.522 K0.000 F120.000
G1 X142.000 Y9.800 Z-2.000 F120.000
G2 X141.300 Y10.500 Z-2.000 I0.000 J0.700 K0.000 F120.000
G1 X141.300 Y21.966 Z-2.000 F120.000
G3 X139.966 Y23.300 Z-2.000 I-1.309 J0.026 K0.000 F120.000
G1 X20.034 Y23.300 Z-2.000 F120.000
G3 X18.700 Y21.966 Z-2.000 I-0.026 J-1.309 K0.000 F120.000
G1 X18.700 Y10.500 Z-2.000 F120.000
G2 X18.000 Y9.800 Z-2.000 I-0.700 J0.000 K0.000 F120.000
G1 X7.031 Y9.800 Z-2.000 F120.000
G1 X6.731 Y9.774 Z-2.000 F120.000
G3 X7.031 Y6.700 Z-2.000 I0.270 J-1.525 K0.000 F120.000
G1 X10.000 Y6.700 Z-2.000 F120.000
G2 X10.700 Y6.000 Z-2.000 I-0.000 J-0.700 K0.000 F120.000
G1 X10.700 Y5.000 Z-2.000 F120.000
G2 X10.495 Y4.505 Z-2.000 I-0.700 J-0.000 K0.000 F120.000
G1 X5.495 Y-0.495 Z-2.000 F120.000
G2 X5.000 Y-0.700 Z-2.000 I-0.495 J0.495 K0.000 F120.000
G1 X1.000 Y-0.700 Z-2.000 F120.000
G2 X-0.694 Y0.909 Z-2.000 I0.006 J1.703 K0.000 F120.000
G1 X-0.700 Y109.000 Z-2.000 F120.000
G2 X0.909 Y110.694 Z-2.000 I1.703 J-0.006 K0.000 F120.000
G1 X159.000 Y110.700 Z-2.000 F120.000
G2 X160.199 Y110.200 Z-2.000 I-0.006 J-1.703 K0.000 F120.000
G1 X160.199 Y110.200 Z-2.500 F60.000
G2 X160.694 Y109.091 Z-2.500 I-1.205 J-1.203 K0.000 F120.000
G1 X160.700 Y1.000 Z-2.500 F120.000
G2 X159.091 Y-0.694 Z-2.500 I-1.703 J0.006 K0.000 F120.000
G1 X155.000 Y-0.700 Z-2.500 F120.000
G2 X154.505 Y-0.495 Z-2.500 I-0.000 J0.700 K0.000 F120.000
G1 X149.505 Y4.505 Z-2.500 F120.000
G2 X149.300 Y5.000 Z-2.500 I0.495 J0.495 K0.000 F120.000
G1 X149.300 Y6.000 Z-2.500 F120.000
G2 X150.000 Y6.700 Z-2.500 I0.700 J0.000 K0.000 F120.000
G1 X152.967 Y6.700 Z-2.500 F120.000
G1 X153.284 Y6.729 Z-2.500 F120.000
G3 X152.967 Y9.800 Z-2.500 I-0.287 J1.522 K0.000 F120.000
G1 X142.000 Y9.800 Z-2.500 F120.000
G2 X141.300 Y10.500 Z-2.500 I0.000 J0.700 K0.000 F120.000
G1 X141.300 Y21.966 Z-2.500 F120.000
G3 X139.966 Y23.300 Z-2.500 I-1.309 J0.026 K0.000 F120.000
G1 X20.034 Y23.300 Z-2.500 F120.000
G3 X18.700 Y21.966 Z-2.500 I-0.026 J-1.309 K0.000 F120.000
G1 X18.700 Y10.500 Z-2.500 F120.000
G2 X18.000 Y9.800 Z-2.500 I-0.700 J0.000 K0.000 F120.000
G1 X7.031 Y9.800 Z-2.500 F120.000
G1 X6.731 Y9.774 Z-2.500 F120.000
G3 X7.031 Y6.700 Z-2.500 I0.270 J-1.525 K0.000 F120.000
G1 X10.000 Y6.700 Z-2.500 F120.000
G2 X10.700 Y6.000 Z-2.500 I-0.000 J-0.700 K0.000 F120.000
G1 X10.700 Y5.000 Z-2.500 F120.000
G2 X10.495 Y4.505 Z-2.500 I-0.700 J-0.000 K0.000 F120.000
G1 X5.495 Y-0.495 Z-2.500 F120.000
G2 X5.000 Y-0.700 Z-2.500 I-0.495 J0.495 K0.000 F120.000
G1 X1.000 Y-0.700 Z-2.500 F120.000
G2 X-0.694 Y0.909 Z-2.500 I0.006 J1.703 K0.000 F120.000
G1 X-0.700 Y109.000 Z-2.500 F120.000
G2 X0.909 Y110.694 Z-2.500 I1.703 J-0.006 K0.000 F120.000
G1 X159.000 Y110.700 Z-2.500 F120.000
G2 X160.199 Y110.200 Z-2.500 I-0.006 J-1.703 K0.000 F120.000
G1 X160.199 Y110.200 Z-3.000 F60.000
G2 X160.694 Y109.091 Z-3.000 I-1.205 J-1.203 K0.000 F120.000
G1 X160.700 Y1.000 Z-3.000 F120.000
G2 X159.091 Y-0.694 Z-3.000 I-1.703 J0.006 K0.000 F120.000
G1 X155.000 Y-0.700 Z-3.000 F120.000
G2 X154.505 Y-0.495 Z-3.000 I-0.000 J0.700 K0.000 F120.000
G1 X149.505 Y4.505 Z-3.000 F120.000
G2 X149.300 Y5.000 Z-3.000 I0.495 J0.495 K0.000 F120.000
G1 X149.300 Y6.000 Z-3.000 F120.000
G2 X150.000 Y6.700 Z-3.000 I0.700 J0.000 K0.000 F120.000
G1 X152.967 Y6.700 Z-3.000 F120.000
G1 X153.284 Y6.729 Z-3.000 F120.000
G3 X152.967 Y9.800 Z-3.000 I-0.287 J1.522 K0.000 F120.000
G1 X142.000 Y9.800 Z-3.000 F120.000
G2 X141.300 Y10.500 Z-3.000 I0.000 J0.700 K0.000 F120.000
G1 X141.300 Y21.966 Z-3.000 F120.000
G3 X139.966 Y23.300 Z-3.000 I-1.309 J0.026 K0.000 F120.000
G1 X20.034 Y23.300 Z-3.000 F120.000
G3 X18.700 Y21.966 Z-3.000 I-0.026 J-1.309 K0.000 F120.000
G1 X18.700 Y10.500 Z-3.000 F120.000
G2 X18.000 Y9.800 Z-3.000 I-0.700 J0.000 K0.000 F120.000
G1 X7.031 Y9.800 Z-3.000 F120.000
G1 X6.731 Y9.774 Z-3.000 F120.000
G3 X7.031 Y6.700 Z-3.000 I0.270 J-1.525 K0.000 F120.000
G1 X10.000 Y6.700 Z-3.000 F120.000
G2 X10.700 Y6.000 Z-3.000 I-0.000 J-0.700 K0.000 F120.000
G1 X10.700 Y5.000 Z-3.000 F120.000
G2 X10.495 Y4.505 Z-3.000 I-0.700 J-0.000 K0.000 F120.000
G1 X5.495 Y-0.495 Z-3.000 F120.000
G2 X5.000 Y-0.700 Z-3.000 I-0.495 J0.495 K0.000 F120.000
G1 X1.000 Y-0.700 Z-3.000 F120.000
G2 X-0.694 Y0.909 Z-3.000 I0.006 J1.703 K0.000 F120.000
G1 X-0.700 Y109.000 Z-3.000 F120.000
G2 X0.909 Y110.694 Z-3.000 I1.703 J-0.006 K0.000 F120.000
G1 X159.000 Y110.700 Z-3.000 F120.000
G2 X160.199 Y110.200 Z-3.000 I-0.006 J-1.703 K0.000 F120.000
G1 X160.199 Y110.200 Z-3.500 F60.000
G2 X160.694 Y109.091 Z-3.500 I-1.205 J-1.203 K0.000 F120.000
G1 X160.700 Y1.000 Z-3.500 F120.000
G2 X159.091 Y-0.694 Z-3.500 I-1.703 J0.006 K0.000 F120.000
G1 X155.000 Y-0.700 Z-3.500 F120.000
G2 X154.505 Y-0.495 Z-3.500 I-0.000 J0.700 K0.000 F120.000
G1 X149.505 Y4.505 Z-3.500 F120.000
G2 X149.300 Y5.000 Z-3.500 I0.495 J0.495 K0.000 F120.000
G1 X149.300 Y6.000 Z-3.500 F120.000
G2 X150.000 Y6.700 Z-3.500 I0.700 J0.000 K0.000 F120.000
G1 X152.967 Y6.700 Z-3.500 F120.000
G1 X153.284 Y6.729 Z-3.500 F120.000
G3 X152.967 Y9.800 Z-3.500 I-0.287 J1.522 K0.000 F120.000
G1 X142.000 Y9.800 Z-3.500 F120.000
G2 X141.300 Y10.500 Z-3.500 I0.000 J0.700 K0.000 F120.000
G1 X141.300 Y21.966 Z-3.500 F120.000
G3 X139.966 Y23.300 Z-3.500 I-1.309 J0.026 K0.000 F120.000
G1 X20.034 Y23.300 Z-3.500 F120.000
G3 X18.700 Y21.966 Z-3.500 I-0.026 J-1.309 K0.000 F120.000
G1 X18.700 Y10.500 Z-3.500 F120.000
G2 X18.000 Y9.800 Z-3.500 I-0.700 J0.000 K0.000 F120.000
G1 X7.031 Y9.800 Z-3.500 F120.000
G1 X6.731 Y9.774 Z-3.500 F120.000
G3 X7.031 Y6.700 Z-3.500 I0.270 J-1.525 K0.000 F120.000
G1 X10.000 Y6.700 Z-3.500 F120.000
G2 X10.700 Y6.000 Z-3.500 I-0.000 J-0.700 K0.000 F120.000
G1 X10.700 Y5.000 Z-3.500 F120.000
G2 X10.495 Y4.505 Z-3.500 I-0.700 J-0.000 K0.000 F120.000
G1 X5.495 Y-0.495 Z-3.500 F120.000
G2 X5.000 Y-0.700 Z-3.500 I-0.495 J0.495 K0.000 F120.000
G1 X1.000 Y-0.700 Z-3.500 F120.000
G2 X-0.694 Y0.909 Z-3.500 I0.006 J1.703 K0.000 F120.000
G1 X-0.700 Y109.000 Z-3.500 F120.000
G2 X0.909 Y110.694 Z-3.500 I1.703 J-0.006 K0.000 F120.000
G1 X159.000 Y110.700 Z-3.500 F120.000
G2 X160.199 Y110.200 Z-3.500 I-0.006 J-1.703 K0.000 F120.000
G1 X160.199 Y110.200 Z-4.000 F60.000
G2 X160.694 Y109.091 Z-4.000 I-1.205 J-1.203 K0.000 F120.000
G1 X160.700 Y1.000 Z-4.000 F120.000
G2 X159.091 Y-0.694 Z-4.000 I-1.703 J0.006 K0.000 F120.000
G1 X155.000 Y-0.700 Z-4.000 F120.000
G2 X154.505 Y-0.495 Z-4.000 I-0.000 J0.700 K0.000 F120.000
G1 X149.505 Y4.505 Z-4.000 F120.000
G2 X149.300 Y5.000 Z-4.000 I0.495 J0.495 K0.000 F120.000
G1 X149.300 Y6.000 Z-4.000 F120.000
G2 X150.000 Y6.700 Z-4.000 I0.700 J0.000 K0.000 F120.000
G1 X152.967 Y6.700 Z-4.000 F120.000
G1 X153.284 Y6.729 Z-4.000 F120.000
G3 X152.967 Y9.800 Z-4.000 I-0.287 J1.522 K0.000 F120.000
G1 X142.000 Y9.800 Z-4.000 F120.000
G2 X141.300 Y10.500 Z-4.000 I0.000 J0.700 K0.000 F120.000
G1 X141.300 Y21.966 Z-4.000 F120.000
G3 X139.966 Y23.300 Z-4.000 I-1.309 J0.026 K0.000 F120.000
G1 X20.034 Y23.300 Z-4.000 F120.000
G3 X18.700 Y21.966 Z-4.000 I-0.026 J-1.309 K0.000 F120.000
G1 X18.700 Y10.500 Z-4.000 F120.000
G2 X18.000 Y9.800 Z-4.000 I-0.700 J0.000 K0.000 F120.000
G1 X7.031 Y9.800 Z-4.000 F120.000
G1 X6.731 Y9.774 Z-4.000 F120.000
G3 X7.031 Y6.700 Z-4.000 I0.270 J-1.525 K0.000 F120.000
G1 X10.000 Y6.700 Z-4.000 F120.000
G2 X10.700 Y6.000 Z-4.000 I-0.000 J-0.700 K0.000 F120.000
G1 X10.700 Y5.000 Z-4.000 F120.000
G2 X10.495 Y4.505 Z-4.000 I-0.700 J-0.000 K0.000 F120.000
G1 X5.495 Y-0.495 Z-4.000 F120.000
G2 X5.000 Y-0.700 Z-4.000 I-0.495 J0.495 K0.000 F120.000
G1 X1.000 Y-0.700 Z-4.000 F120.000
G2 X-0.694 Y0.909 Z-4.000 I0.006 J1.703 K0.000 F120.000
G1 X-0.700 Y109.000 Z-4.000 F120.000
G2 X0.909 Y110.694 Z-4.000 I1.703 J-0.006 K0.000 F120.000
G1 X159.000 Y110.700 Z-4.000 F120.000
G2 X160.199 Y110.200 Z-4.000 I-0.006 J-1.703 K0.000 F120.000
G1 X160.199 Y110.200 Z-4.500 F60.000
G2 X160.694 Y109.091 Z-4.500 I-1.205 J-1.203 K0.000 F120.000
G1 X160.700 Y1.000 Z-4.500 F120.000
G2 X159.091 Y-0.694 Z-4.500 I-1.703 J0.006 K0.000 F120.000
G1 X155.000 Y-0.700 Z-4.500 F120.000
G2 X154.505 Y-0.495 Z-4.500 I-0.000 J0.700 K0.000 F120.000
G1 X149.505 Y4.505 Z-4.500 F120.000
G2 X149.300 Y5.000 Z-4.500 I0.495 J0.495 K0.000 F120.000
G1 X149.300 Y6.000 Z-4.500 F120.000
G2 X150.000 Y6.700 Z-4.500 I0.700 J0.000 K0.000 F120.000
G1 X152.967 Y6.700 Z-4.500 F120.000
G1 X153.284 Y6.729 Z-4.500 F120.000
G3 X152.967 Y9.800 Z-4.500 I-0.287 J1.522 K0.000 F120.000
G1 X142.000 Y9.800 Z-4.500 F120.000
G2 X141.300 Y10.500 Z-4.500 I0.000 J0.700 K0.000 F120.000
G1 X141.300 Y21.966 Z-4.500 F120.000
G3 X139.966 Y23.300 Z-4.500 I-1.309 J0.026 K0.000 F120.000
G1 X20.034 Y23.300 Z-4.500 F120.000
G3 X18.700 Y21.966 Z-4.500 I-0.026 J-1.309 K0.000 F120.000
G1 X18.700 Y10.500 Z-4.500 F120.000
G2 X18.000 Y9.800 Z-4.500 I-0.700 J0.000 K0.000 F120.000
G1 X7.031 Y9.800 Z-4.500 F120.000
G1 X6.731 Y9.774 Z-4.500 F120.000
G3 X7.031 Y6.700 Z-4.500 I0.270 J-1.525 K0.000 F120.000
G1 X10.000 Y6.700 Z-4.500 F120.000
G2 X10.700 Y6.000 Z-4.500 I-0.000 J-0.700 K0.000 F120.000
G1 X10.700 Y5.000 Z-4.500 F120.000
G2 X10.495 Y4.505 Z-4.500 I-0.700 J-0.000 K0.000 F120.000
G1 X5.495 Y-0.495 Z-4.500 F120.000
G2 X5.000 Y-0.700 Z-4.500 I-0.495 J0.495 K0.000 F120.000
G1 X1.000 Y-0.700 Z-4.500 F120.000
G2 X-0.694 Y0.909 Z-4.500 I0.006 J1.703 K0.000 F120.000
G1 X-0.700 Y109.000 Z-4.500 F120.000
G2 X0.909 Y110.694 Z-4.500 I1.703 J-0.006 K0.000 F120.000
G1 X159.000 Y110.700 Z-4.500 F120.000
G2 X160.199 Y110.200 Z-4.500 I-0.006 J-1.703 K0.000 F120.000
G1 X160.199 Y110.200 Z-5.000 F60.000
G2 X160.694 Y109.091 Z-5.000 I-1.205 J-1.203 K0.000 F120.000
G1 X160.700 Y1.000 Z-5.000 F120.000
G2 X159.091 Y-0.694 Z-5.000 I-1.703 J0.006 K0.000 F120.000
G1 X155.000 Y-0.700 Z-5.000 F120.000
G2 X154.505 Y-0.495 Z-5.000 I-0.000 J0.700 K0.000 F120.000
G1 X149.505 Y4.505 Z-5.000 F120.000
G2 X149.300 Y5.000 Z-5.000 I0.495 J0.495 K0.000 F120.000
G1 X149.300 Y6.000 Z-5.000 F120.000
G2 X150.000 Y6.700 Z-5.000 I0.700 J0.000 K0.000 F120.000
G1 X152.967 Y6.700 Z-5.000 F120.000
G1 X153.284 Y6.729 Z-5.000 F120.000
G3 X152.967 Y9.800 Z-5.000 I-0.287 J1.522 K0.000 F120.000
G1 X142.000 Y9.800 Z-5.000 F120.000
G2 X141.300 Y10.500 Z-5.000 I0.000 J0.700 K0.000 F120.000
G1 X141.300 Y21.966 Z-5.000 F120.000
G3 X139.966 Y23.300 Z-5.000 I-1.309 J0.026 K0.000 F120.000
G1 X20.034 Y23.300 Z-5.000 F120.000
G3 X18.700 Y21.966 Z-5.000 I-0.026 J-1.309 K0.000 F120.000
G1 X18.700 Y10.500 Z-5.000 F120.000
G2 X18.000 Y9.800 Z-5.000 I-0.700 J0.000 K0.000 F120.000
G1 X7.031 Y9.800 Z-5.000 F120.000
G1 X6.731 Y9.774 Z-5.000 F120.000
G3 X7.031 Y6.700 Z-5.000 I0.270 J-1.525 K0.000 F120.000
G1 X10.000 Y6.700 Z-5.000 F120.000
G2 X10.700 Y6.000 Z-5.000 I-0.000 J-0.700 K0.000 F120.000
G1 X10.700 Y5.000 Z-5.000 F120.000
G2 X10.495 Y4.505 Z-5.000 I-0.700 J-0.000 K0.000 F120.000
G1 X5.495 Y-0.495 Z-5.000 F120.000
G2 X5.000 Y-0.700 Z-5.000 I-0.495 J0.495 K0.000 F120.000
G1 X1.000 Y-0.700 Z-5.000 F120.000
G2 X-0.694 Y0.909 Z-5.000 I0.006 J1.703 K0.000 F120.000
G1 X-0.700 Y109.000 Z-5.000 F120.000
G2 X0.909 Y110.694 Z-5.000 I1.703 J-0.006 K0.000 F120.000
G1 X159.000 Y110.700 Z-5.000 F120.000
G2 X160.199 Y110.200 Z-5.000 I-0.006 J-1.703 K0.000 F120.000
G1 X160.199 Y110.200 Z-5.500 F60.000
G2 X160.694 Y109.091 Z-5.500 I-1.205 J-1.203 K0.000 F120.000
G1 X160.700 Y1.000 Z-5.500 F120.000
G2 X159.091 Y-0.694 Z-5.500 I-1.703 J0.006 K0.000 F120.000
G1 X155.000 Y-0.700 Z-5.500 F120.000
G2 X154.505 Y-0.495 Z-5.500 I-0.000 J0.700 K0.000 F120.000
G1 X149.505 Y4.505 Z-5.500 F120.000
G2 X149.300 Y5.000 Z-5.500 I0.495 J0.495 K0.000 F120.000
G1 X149.300 Y6.000 Z-5.500 F120.000
G2 X150.000 Y6.700 Z-5.500 I0.700 J0.000 K0.000 F120.000
G1 X152.967 Y6.700 Z-5.500 F120.000
G1 X153.284 Y6.729 Z-5.500 F120.000
G3 X152.967 Y9.800 Z-5.500 I-0.287 J1.522 K0.000 F120.000
G1 X142.000 Y9.800 Z-5.500 F120.000
G2 X141.300 Y10.500 Z-5.500 I0.000 J0.700 K0.000 F120.000
G1 X141.300 Y21.966 Z-5.500 F120.000
G3 X139.966 Y23.300 Z-5.500 I-1.309 J0.026 K0.000 F120.000
G1 X20.034 Y23.300 Z-5.500 F120.000
G3 X18.700 Y21.966 Z-5.500 I-0.026 J-1.309 K0.000 F120.000
G1 X18.700 Y10.500 Z-5.500 F120.000
G2 X18.000 Y9.800 Z-5.500 I-0.700 J0.000 K0.000 F120.000
G1 X7.031 Y9.800 Z-5.500 F120.000
G1 X6.731 Y9.774 Z-5.500 F120.000
G3 X7.031 Y6.700 Z-5.500 I0.270 J-1.525 K0.000 F120.000
G1 X10.000 Y6.700 Z-5.500 F120.000
G2 X10.700 Y6.000 Z-5.500 I-0.000 J-0.700 K0.000 F120.000
G1 X10.700 Y5.000 Z-5.500 F120.000
G2 X10.495 Y4.505 Z-5.500 I-0.700 J-0.000 K0.000 F120.000
G1 X5.495 Y-0.495 Z-5.500 F120.000
G2 X5.000 Y-0.700 Z-5.500 I-0.495 J0.495 K0.000 F120.000
G1 X1.000 Y-0.700 Z-5.500 F120.000
G2 X-0.694 Y0.909 Z-5.500 I0.006 J1.703 K0.000 F120.000
G1 X-0.700 Y109.000 Z-5.500 F120.000
G2 X0.909 Y110.694 Z-5.500 I1.703 J-0.006 K0.000 F120.000
G1 X159.000 Y110.700 Z-5.500 F120.000
G2 X160.199 Y110.200 Z-5.500 I-0.006 J-1.703 K0.000 F120.000
G1 X160.199 Y110.200 Z-6.000 F60.000
G2 X160.694 Y109.091 Z-6.000 I-1.205 J-1.203 K0.000 F120.000
G1 X160.700 Y1.000 Z-6.000 F120.000
G2 X159.091 Y-0.694 Z-6.000 I-1.703 J0.006 K0.000 F120.000
G1 X155.000 Y-0.700 Z-6.000 F120.000
G2 X154.505 Y-0.495 Z-6.000 I-0.000 J0.700 K0.000 F120.000
G1 X149.505 Y4.505 Z-6.000 F120.000
G2 X149.300 Y5.000 Z-6.000 I0.495 J0.495 K0.000 F120.000
G1 X149.300 Y6.000 Z-6.000 F120.000
G2 X150.000 Y6.700 Z-6.000 I0.700 J0.000 K0.000 F120.000
G1 X152.967 Y6.700 Z-6.000 F120.000
G1 X153.284 Y6.729 Z-6.000 F120.000
G3 X152.967 Y9.800 Z-6.000 I-0.287 J1.522 K0.000 F120.000
G1 X142.000 Y9.800 Z-6.000 F120.000
G2 X141.300 Y10.500 Z-6.000 I0.000 J0.700 K0.000 F120.000
G1 X141.300 Y21.966 Z-6.000 F120.000
G3 X139.966 Y23.300 Z-6.000 I-1.309 J0.026 K0.000 F120.000
G1 X20.034 Y23.300 Z-6.000 F120.000
G3 X18.700 Y21.966 Z-6.000 I-0.026 J-1.309 K0.000 F120.000
G1 X18.700 Y10.500 Z-6.000 F120.000
G2 X18.000 Y9.800 Z-6.000 I-0.700 J0.000 K0.000 F120.000
G1 X7.031 Y9.800 Z-6.000 F120.000
G1 X6.731 Y9.774 Z-6.000 F120.000
G3 X7.031 Y6.700 Z-6.000 I0.270 J-1.525 K0.000 F120.000
G1 X10.000 Y6.700 Z-6.000 F120.000
G2 X10.700 Y6.000 Z-6.000 I-0.000 J-0.700 K0.000 F120.000
G1 X10.700 Y5.000 Z-6.000 F120.000
G2 X10.495 Y4.505 Z-6.000 I-0.700 J-0.000 K0.000 F120.000
G1 X5.495 Y-0.495 Z-6.000 F120.000
G2 X5.000 Y-0.700 Z-6.000 I-0.495 J0.495 K0.000 F120.000
G1 X1.000 Y-0.700 Z-6.000 F120.000
G2 X-0.694 Y0.909 Z-6.000 I0.006 J1.703 K0.000 F120.000
G1 X-0.700 Y109.000 Z-6.000 F120.000
G2 X0.909 Y110.694 Z-6.000 I1.703 J-0.006 K0.000 F120.000
G1 X159.000 Y110.700 Z-6.000 F120.000
G2 X160.199 Y110.200 Z-6.000 I-0.006 J-1.703 K0.000 F120.000
G1 X160.199 Y110.200 Z-6.500 F60.000
G2 X160.694 Y109.091 Z-6.500 I-1.205 J-1.203 K0.000 F120.000
G1 X160.700 Y1.000 Z-6.500 F120.000
G2 X159.091 Y-0.694 Z-6.500 I-1.703 J0.006 K0.000 F120.000
G1 X155.000 Y-0.700 Z-6.500 F120.000
G2 X154.505 Y-0.495 Z-6.500 I-0.000 J0.700 K0.000 F120.000
G1 X149.505 Y4.505 Z-6.500 F120.000
G2 X149.300 Y5.000 Z-6.500 I0.495 J0.495 K0.000 F120.000
G1 X149.300 Y6.000 Z-6.500 F120.000
G2 X150.000 Y6.700 Z-6.500 I0.700 J0.000 K0.000 F120.000
G1 X152.967 Y6.700 Z-6.500 F120.000
G1 X153.284 Y6.729 Z-6.500 F120.000
G3 X152.967 Y9.800 Z-6.500 I-0.287 J1.522 K0.000 F120.000
G1 X142.000 Y9.800 Z-6.500 F120.000
G2 X141.300 Y10.500 Z-6.500 I0.000 J0.700 K0.000 F120.000
G1 X141.300 Y21.966 Z-6.500 F120.000
G3 X139.966 Y23.300 Z-6.500 I-1.309 J0.026 K0.000 F120.000
G1 X20.034 Y23.300 Z-6.500 F120.000
G3 X18.700 Y21.966 Z-6.500 I-0.026 J-1.309 K0.000 F120.000
G1 X18.700 Y10.500 Z-6.500 F120.000
G2 X18.000 Y9.800 Z-6.500 I-0.700 J0.000 K0.000 F120.000
G1 X7.031 Y9.800 Z-6.500 F120.000
G1 X6.731 Y9.774 Z-6.500 F120.000
G3 X7.031 Y6.700 Z-6.500 I0.270 J-1.525 K0.000 F120.000
G1 X10.000 Y6.700 Z-6.500 F120.000
G2 X10.700 Y6.000 Z-6.500 I-0.000 J-0.700 K0.000 F120.000
G1 X10.700 Y5.000 Z-6.500 F120.000
G2 X10.495 Y4.505 Z-6.500 I-0.700 J-0.000 K0.000 F120.000
G1 X5.495 Y-0.495 Z-6.500 F120.000
G2 X5.000 Y-0.700 Z-6.500 I-0.495 J0.495 K0.000 F120.000
G1 X1.000 Y-0.700 Z-6.500 F120.000
G2 X-0.694 Y0.909 Z-6.500 I0.006 J1.703 K0.000 F120.000
G1 X-0.700 Y109.000 Z-6.500 F120.000
G2 X0.909 Y110.694 Z-6.500 I1.703 J-0.006 K0.000 F120.000
G1 X159.000 Y110.700 Z-6.500 F120.000
G2 X160.199 Y110.200 Z-6.500 I-0.006 J-1.703 K0.000 F120.000
G1 X160.199 Y110.200 Z-7.000 F60.000
G2 X160.694 Y109.091 Z-7.000 I-1.205 J-1.203 K0.000 F120.000
G1 X160.700 Y1.000 Z-7.000 F120.000
G2 X159.091 Y-0.694 Z-7.000 I-1.703 J0.006 K0.000 F120.000
G1 X155.000 Y-0.700 Z-7.000 F120.000
G2 X154.505 Y-0.495 Z-7.000 I-0.000 J0.700 K0.000 F120.000
G1 X149.505 Y4.505 Z-7.000 F120.000
G2 X149.300 Y5.000 Z-7.000 I0.495 J0.495 K0.000 F120.000
G1 X149.300 Y6.000 Z-7.000 F120.000
G2 X150.000 Y6.700 Z-7.000 I0.700 J0.000 K0.000 F120.000
G1 X152.967 Y6.700 Z-7.000 F120.000
G1 X153.284 Y6.729 Z-7.000 F120.000
G3 X152.967 Y9.800 Z-7.000 I-0.287 J1.522 K0.000 F120.000
G1 X142.000 Y9.800 Z-7.000 F120.000
G2 X141.300 Y10.500 Z-7.000 I0.000 J0.700 K0.000 F120.000
G1 X141.300 Y21.966 Z-7.000 F120.000
G3 X139.966 Y23.300 Z-7.000 I-1.309 J0.026 K0.000 F120.000
G1 X20.034 Y23.300 Z-7.000 F120.000
G3 X18.700 Y21.966 Z-7.000 I-0.026 J-1.309 K0.000 F120.000
G1 X18.700 Y10.500 Z-7.000 F120.000
G2 X18.000 Y9.800 Z-7.000 I-0.700 J0.000 K0.000 F120.000
G1 X7.031 Y9.800 Z-7.000 F120.000
G1 X6.731 Y9.774 Z-7.000 F120.000
G3 X7.031 Y6.700 Z-7.000 I0.270 J-1.525 K0.000 F120.000
G1 X10.000 Y6.700 Z-7.000 F120.000
G2 X10.700 Y6.000 Z-7.000 I-0.000 J-0.700 K0.000 F120.000
G1 X10.700 Y5.000 Z-7.000 F120.000
G2 X10.495 Y4.505 Z-7.000 I-0.700 J-0.000 K0.000 F120.000
G1 X5.495 Y-0.495 Z-7.000 F120.000
G2 X5.000 Y-0.700 Z-7.000 I-0.495 J0.495 K0.000 F120.000
G1 X1.000 Y-0.700 Z-7.000 F120.000
G2 X-0.694 Y0.909 Z-7.000 I0.006 J1.703 K0.000 F120.000
G1 X-0.700 Y109.000 Z-7.000 F120.000
G2 X0.909 Y110.694 Z-7.000 I1.703 J-0.006 K0.000 F120.000
G1 X159.000 Y110.700 Z-7.000 F120.000
G2 X160.199 Y110.200 Z-7.000 I-0.006 J-1.703 K0.000 F120.000
G1 X160.199 Y110.200 Z-7.500 F60.000
G2 X160.694 Y109.091 Z-7.500 I-1.205 J-1.203 K0.000 F120.000
G1 X160.700 Y1.000 Z-7.500 F120.000
G2 X159.091 Y-0.694 Z-7.500 I-1.703 J0.006 K0.000 F120.000
G1 X155.000 Y-0.700 Z-7.500 F120.000
G2 X154.505 Y-0.495 Z-7.500 I-0.000 J0.700 K0.000 F120.000
G1 X149.505 Y4.505 Z-7.500 F120.000
G2 X149.300 Y5.000 Z-7.500 I0.495 J0.495 K0.000 F120.000
G1 X149.300 Y6.000 Z-7.500 F120.000
G2 X150.000 Y6.700 Z-7.500 I0.700 J0.000 K0.000 F120.000
G1 X152.967 Y6.700 Z-7.500 F120.000
G1 X153.284 Y6.729 Z-7.500 F120.000
G3 X152.967 Y9.800 Z-7.500 I-0.287 J1.522 K0.000 F120.000
G1 X142.000 Y9.800 Z-7.500 F120.000
G2 X141.300 Y10.500 Z-7.500 I0.000 J0.700 K0.000 F120.000
G1 X141.300 Y21.966 Z-7.500 F120.000
G3 X139.966 Y23.300 Z-7.500 I-1.309 J0.026 K0.000 F120.000
G1 X20.034 Y23.300 Z-7.500 F120.000
G3 X18.700 Y21.966 Z-7.500 I-0.026 J-1.309 K0.000 F120.000
G1 X18.700 Y10.500 Z-7.500 F120.000
G2 X18.000 Y9.800 Z-7.500 I-0.700 J0.000 K0.000 F120.000
G1 X7.031 Y9.800 Z-7.500 F120.000
G1 X6.731 Y9.774 Z-7.500 F120.000
G3 X7.031 Y6.700 Z-7.500 I0.270 J-1.525 K0.000 F120.000
G1 X10.000 Y6.700 Z-7.500 F120.000
G2 X10.700 Y6.000 Z-7.500 I-0.000 J-0.700 K0.000 F120.000
G1 X10.700 Y5.000 Z-7.500 F120.000
G2 X10.495 Y4.505 Z-7.500 I-0.700 J-0.000 K0.000 F120.000
G1 X5.495 Y-0.495 Z-7.500 F120.000
G2 X5.000 Y-0.700 Z-7.500 I-0.495 J0.495 K0.000 F120.000
G1 X1.000 Y-0.700 Z-7.500 F120.000
G2 X-0.694 Y0.909 Z-7.500 I0.006 J1.703 K0.000 F120.000
G1 X-0.700 Y109.000 Z-7.500 F120.000
G2 X0.909 Y110.694 Z-7.500 I1.703 J-0.006 K0.000 F120.000
G1 X159.000 Y110.700 Z-7.500 F120.000
G2 X160.199 Y110.200 Z-7.500 I-0.006 J-1.703 K0.000 F120.000
G1 X160.199 Y110.200 Z-8.000 F60.000
G2 X160.694 Y109.091 Z-8.000 I-1.205 J-1.203 K0.000 F120.000
G1 X160.700 Y1.000 Z-8.000 F120.000
G2 X159.091 Y-0.694 Z-8.000 I-1.703 J0.006 K0.000 F120.000
G1 X155.000 Y-0.700 Z-8.000 F120.000
G2 X154.505 Y-0.495 Z-8.000 I-0.000 J0.700 K0.000 F120.000
G1 X149.505 Y4.505 Z-8.000 F120.000
G2 X149.300 Y5.000 Z-8.000 I0.495 J0.495 K0.000 F120.000
G1 X149.300 Y6.000 Z-8.000 F120.000
G2 X150.000 Y6.700 Z-8.000 I0.700 J0.000 K0.000 F120.000
G1 X152.967 Y6.700 Z-8.000 F120.000
G1 X153.284 Y6.729 Z-8.000 F120.000
G3 X152.967 Y9.800 Z-8.000 I-0.287 J1.522 K0.000 F120.000
G1 X142.000 Y9.800 Z-8.000 F120.000
G2 X141.300 Y10.500 Z-8.000 I0.000 J0.700 K0.000 F120.000
G1 X141.300 Y21.966 Z-8.000 F120.000
G3 X139.966 Y23.300 Z-8.000 I-1.309 J0.026 K0.000 F120.000
G1 X20.034 Y23.300 Z-8.000 F120.000
G3 X18.700 Y21.966 Z-8.000 I-0.026 J-1.309 K0.000 F120.000
G1 X18.700 Y10.500 Z-8.000 F120.000
G2 X18.000 Y9.800 Z-8.000 I-0.700 J0.000 K0.000 F120.000
G1 X7.031 Y9.800 Z-8.000 F120.000
G1 X6.731 Y9.774 Z-8.000 F120.000
G3 X7.031 Y6.700 Z-8.000 I0.270 J-1.525 K0.000 F120.000
G1 X10.000 Y6.700 Z-8.000 F120.000
G2 X10.700 Y6.000 Z-8.000 I-0.000 J-0.700 K0.000 F120.000
G1 X10.700 Y5.000 Z-8.000 F120.000
G2 X10.495 Y4.505 Z-8.000 I-0.700 J-0.000 K0.000 F120.000
G1 X5.495 Y-0.495 Z-8.000 F120.000
G2 X5.000 Y-0.700 Z-8.000 I-0.495 J0.495 K0.000 F120.000
G1 X1.000 Y-0.700 Z-8.000 F120.000
G2 X-0.694 Y0.909 Z-8.000 I0.006 J1.703 K0.000 F120.000
G1 X-0.700 Y109.000 Z-8.000 F120.000
G2 X0.909 Y110.694 Z-8.000 I1.703 J-0.006 K0.000 F120.000
G1 X159.000 Y110.700 Z-8.000 F120.000
G2 X160.199 Y110.200 Z-8.000 I-0.006 J-1.703 K0.000 F120.000
G1 X160.199 Y110.200 Z-8.500 F60.000
G2 X160.694 Y109.091 Z-8.500 I-1.205 J-1.203 K0.000 F120.000
G1 X160.700 Y1.000 Z-8.500 F120.000
G2 X159.091 Y-0.694 Z-8.500 I-1.703 J0.006 K0.000 F120.000
G1 X155.000 Y-0.700 Z-8.500 F120.000
G2 X154.505 Y-0.495 Z-8.500 I-0.000 J0.700 K0.000 F120.000
G1 X149.505 Y4.505 Z-8.500 F120.000
G2 X149.300 Y5.000 Z-8.500 I0.495 J0.495 K0.000 F120.000
G1 X149.300 Y6.000 Z-8.500 F120.000
G2 X150.000 Y6.700 Z-8.500 I0.700 J0.000 K0.000 F120.000
G1 X152.967 Y6.700 Z-8.500 F120.000
G1 X153.284 Y6.729 Z-8.500 F120.000
G3 X152.967 Y9.800 Z-8.500 I-0.287 J1.522 K0.000 F120.000
G1 X142.000 Y9.800 Z-8.500 F120.000
G2 X141.300 Y10.500 Z-8.500 I0.000 J0.700 K0.000 F120.000
G1 X141.300 Y21.966 Z-8.500 F120.000
G3 X139.966 Y23.300 Z-8.500 I-1.309 J0.026 K0.000 F120.000
G1 X20.034 Y23.300 Z-8.500 F120.000
G3 X18.700 Y21.966 Z-8.500 I-0.026 J-1.309 K0.000 F120.000
G1 X18.700 Y10.500 Z-8.500 F120.000
G2 X18.000 Y9.800 Z-8.500 I-0.700 J0.000 K0.000 F120.000
G1 X7.031 Y9.800 Z-8.500 F120.000
G1 X6.731 Y9.774 Z-8.500 F120.000
G3 X7.031 Y6.700 Z-8.500 I0.270 J-1.525 K0.000 F120.000
G1 X10.000 Y6.700 Z-8.500 F120.000
G2 X10.700 Y6.000 Z-8.500 I-0.000 J-0.700 K0.000 F120.000
G1 X10.700 Y5.000 Z-8.500 F120.000
G2 X10.495 Y4.505 Z-8.500 I-0.700 J-0.000 K0.000 F120.000
G1 X5.495 Y-0.495 Z-8.500 F120.000
G2 X5.000 Y-0.700 Z-8.500 I-0.495 J0.495 K0.000 F120.000
G1 X1.000 Y-0.700 Z-8.500 F120.000
G2 X-0.694 Y0.909 Z-8.500 I0.006 J1.703 K0.000 F120.000
G1 X-0.700 Y109.000 Z-8.500 F120.000
G2 X0.909 Y110.694 Z-8.500 I1.703 J-0.006 K0.000 F120.000
G1 X159.000 Y110.700 Z-8.500 F120.000
G2 X160.199 Y110.200 Z-8.500 I-0.006 J-1.703 K0.000 F120.000
G1 X160.199 Y110.200 Z-9.000 F60.000
G2 X160.694 Y109.091 Z-9.000 I-1.205 J-1.203 K0.000 F120.000
G1 X160.700 Y1.000 Z-9.000 F120.000
G2 X159.091 Y-0.694 Z-9.000 I-1.703 J0.006 K0.000 F120.000
G1 X155.000 Y-0.700 Z-9.000 F120.000
G2 X154.505 Y-0.495 Z-9.000 I-0.000 J0.700 K0.000 F120.000
G1 X149.505 Y4.505 Z-9.000 F120.000
G2 X149.300 Y5.000 Z-9.000 I0.495 J0.495 K0.000 F120.000
G1 X149.300 Y6.000 Z-9.000 F120.000
G2 X150.000 Y6.700 Z-9.000 I0.700 J0.000 K0.000 F120.000
G1 X152.967 Y6.700 Z-9.000 F120.000
G1 X153.284 Y6.729 Z-9.000 F120.000
G3 X152.967 Y9.800 Z-9.000 I-0.287 J1.522 K0.000 F120.000
G1 X142.000 Y9.800 Z-9.000 F120.000
G2 X141.300 Y10.500 Z-9.000 I0.000 J0.700 K0.000 F120.000
G1 X141.300 Y21.966 Z-9.000 F120.000
G3 X139.966 Y23.300 Z-9.000 I-1.309 J0.026 K0.000 F120.000
G1 X20.034 Y23.300 Z-9.000 F120.000
G3 X18.700 Y21.966 Z-9.000 I-0.026 J-1.309 K0.000 F120.000
G1 X18.700 Y10.500 Z-9.000 F120.000
G2 X18.000 Y9.800 Z-9.000 I-0.700 J0.000 K0.000 F120.000
G1 X7.031 Y9.800 Z-9.000 F120.000
G1 X6.731 Y9.774 Z-9.000 F120.000
G3 X7.031 Y6.700 Z-9.000 I0.270 J-1.525 K0.000 F120.000
G1 X10.000 Y6.700 Z-9.000 F120.000
G2 X10.700 Y6.000 Z-9.000 I-0.000 J-0.700 K0.000 F120.000
G1 X10.700 Y5.000 Z-9.000 F120.000
G2 X10.495 Y4.505 Z-9.000 I-0.700 J-0.000 K0.000 F120.000
G1 X5.495 Y-0.495 Z-9.000 F120.000
G2 X5.000 Y-0.700 Z-9.000 I-0.495 J0.495 K0.000 F120.000
G1 X1.000 Y-0.700 Z-9.000 F120.000
G2 X-0.694 Y0.909 Z-9.000 I0.006 J1.703 K0.000 F120.000
G1 X-0.700 Y109.000 Z-9.000 F120.000
G2 X0.909 Y110.694 Z-9.000 I1.703 J-0.006 K0.000 F120.000
G1 X159.000 Y110.700 Z-9.000 F120.000
G2 X160.199 Y110.200 Z-9.000 I-0.006 J-1.703 K0.000 F120.000
G1 X160.199 Y110.200 Z-9.500 F60.000
G2 X160.694 Y109.091 Z-9.500 I-1.205 J-1.203 K0.000 F120.000
G1 X160.700 Y1.000 Z-9.500 F120.000
G2 X159.091 Y-0.694 Z-9.500 I-1.703 J0.006 K0.000 F120.000
G1 X155.000 Y-0.700 Z-9.500 F120.000
G2 X154.505 Y-0.495 Z-9.500 I-0.000 J0.700 K0.000 F120.000
G1 X149.505 Y4.505 Z-9.500 F120.000
G2 X149.300 Y5.000 Z-9.500 I0.495 J0.495 K0.000 F120.000
G1 X149.300 Y6.000 Z-9.500 F120.000
G2 X150.000 Y6.700 Z-9.500 I0.700 J0.000 K0.000 F120.000
G1 X152.967 Y6.700 Z-9.500 F120.000
G1 X153.284 Y6.729 Z-9.500 F120.000
G3 X152.967 Y9.800 Z-9.500 I-0.287 J1.522 K0.000 F120.000
G1 X142.000 Y9.800 Z-9.500 F120.000
G2 X141.300 Y10.500 Z-9.500 I0.000 J0.700 K0.000 F120.000
G1 X141.300 Y21.966 Z-9.500 F120.000
G3 X139.966 Y23.300 Z-9.500 I-1.309 J0.026 K0.000 F120.000
G1 X20.034 Y23.300 Z-9.500 F120.000
G3 X18.700 Y21.966 Z-9.500 I-0.026 J-1.309 K0.000 F120.000
G1 X18.700 Y10.500 Z-9.500 F120.000
G2 X18.000 Y9.800 Z-9.500 I-0.700 J0.000 K0.000 F120.000
G1 X7.031 Y9.800 Z-9.500 F120.000
G1 X6.731 Y9.774 Z-9.500 F120.000
G3 X7.031 Y6.700 Z-9.500 I0.270 J-1.525 K0.000 F120.000
G1 X10.000 Y6.700 Z-9.500 F120.000
G2 X10.700 Y6.000 Z-9.500 I-0.000 J-0.700 K0.000 F120.000
G1 X10.700 Y5.000 Z-9.500 F120.000
G2 X10.495 Y4.505 Z-9.500 I-0.700 J-0.000 K0.000 F120.000
G1 X5.495 Y-0.495 Z-9.500 F120.000
G2 X5.000 Y-0.700 Z-9.500 I-0.495 J0.495 K0.000 F120.000
G1 X1.000 Y-0.700 Z-9.500 F120.000
G2 X-0.694 Y0.909 Z-9.500 I0.006 J1.703 K0.000 F120.000
G1 X-0.700 Y109.000 Z-9.500 F120.000
G2 X0.909 Y110.694 Z-9.500 I1.703 J-0.006 K0.000 F120.000
G1 X159.000 Y110.700 Z-9.500 F120.000
G2 X160.199 Y110.200 Z-9.500 I-0.006 J-1.703 K0.000 F120.000
G1 X160.199 Y110.200 Z-10.000 F60.000
G2 X160.694 Y109.091 Z-10.000 I-1.205 J-1.203 K0.000 F120.000
G1 X160.700 Y1.000 Z-10.000 F120.000
G2 X159.091 Y-0.694 Z-10.000 I-1.703 J0.006 K0.000 F120.000
G1 X155.000 Y-0.700 Z-10.000 F120.000
G2 X154.505 Y-0.495 Z-10.000 I-0.000 J0.700 K0.000 F120.000
G1 X149.505 Y4.505 Z-10.000 F120.000
G2 X149.300 Y5.000 Z-10.000 I0.495 J0.495 K0.000 F120.000
G1 X149.300 Y6.000 Z-10.000 F120.000
G2 X150.000 Y6.700 Z-10.000 I0.700 J0.000 K0.000 F120.000
G1 X152.967 Y6.700 Z-10.000 F120.000
G1 X153.284 Y6.729 Z-10.000 F120.000
G3 X152.967 Y9.800 Z-10.000 I-0.287 J1.522 K0.000 F120.000
G1 X142.000 Y9.800 Z-10.000 F120.000
G2 X141.300 Y10.500 Z-10.000 I0.000 J0.700 K0.000 F120.000
G1 X141.300 Y21.966 Z-10.000 F120.000
G3 X139.966 Y23.300 Z-10.000 I-1.309 J0.026 K0.000 F120.000
G1 X20.034 Y23.300 Z-10.000 F120.000
G3 X18.700 Y21.966 Z-10.000 I-0.026 J-1.309 K0.000 F120.000
G1 X18.700 Y10.500 Z-10.000 F120.000
G2 X18.000 Y9.800 Z-10.000 I-0.700 J0.000 K0.000 F120.000
G1 X7.031 Y9.800 Z-10.000 F120.000
G1 X6.731 Y9.774 Z-10.000 F120.000
G3 X7.031 Y6.700 Z-10.000 I0.270 J-1.525 K0.000 F120.000
G1 X10.000 Y6.700 Z-10.000 F120.000
G2 X10.700 Y6.000 Z-10.000 I-0.000 J-0.700 K0.000 F120.000
G1 X10.700 Y5.000 Z-10.000 F120.000
G2 X10.495 Y4.505 Z-10.000 I-0.700 J-0.000 K0.000 F120.000
G1 X5.495 Y-0.495 Z-10.000 F120.000
G2 X5.000 Y-0.700 Z-10.000 I-0.495 J0.495 K0.000 F120.000
G1 X1.000 Y-0.700 Z-10.000 F120.000
G2 X-0.694 Y0.909 Z-10.000 I0.006 J1.703 K0.000 F120.000
G1 X-0.700 Y109.000 Z-10.000 F120.000
G2 X0.909 Y110.694 Z-10.000 I1.703 J-0.006 K0.000 F120.000
G1 X159.000 Y110.700 Z-10.000 F120.000
G2 X160.199 Y110.200 Z-10.000 I-0.006 J-1.703 K0.000 F120.000
G0 Z2.000
G0 Z2.000
(Finish operation: Profile055)
G0 X0 Y0
(Begin postamble)
M5
G17 G90
M2
