(Exported by FreeCAD)
(Post Processor: grbl_post)
(Output Time:2024-10-26 09:49:22.495784)
(Begin preamble)
G17 G90
G21
(Begin operation: G54)
(Path: G54)
G54
G0 Z5.000
(Finish operation: G54)
(Begin operation: Bit_1,012)
(Path: Bit_1,012)
(Bit_1,012)
(Begin toolchange)
( M6 T2 )
M3 S10000
(Finish operation: Bit_1,012)
(Begin operation: Pocket3D005)
(Path: Pocket3D005)
(Pocket3D005)
G0 Z5.000
G0 X80.920 Y80.916
G0 Z3.000
G1 X80.920 Y80.916 Z-0.500 F60.000
G3 X78.728 Y80.253 Z-0.500 I-0.918 J-0.918 K0.000 F120.000
G1 X78.700 Y79.966 Z-0.500 F120.000
G1 X78.700 Y24.660 Z-0.500 F120.000
G1 X81.300 Y24.661 Z-0.500 F120.000
G1 X81.300 Y79.966 Z-0.500 F120.000
G3 X80.920 Y80.916 Z-0.500 I-1.298 J0.032 K0.000 F120.000
G0 Z5.000
G0 X80.673 Y80.668 Z5.000
G0 X80.673 Y80.668 Z3.000
G1 X80.673 Y80.668 Z-0.500 F60.000
G3 X79.073 Y80.184 Z-0.500 I-0.670 J-0.672 K0.000 F120.000
G1 X79.050 Y79.948 Z-0.500 F120.000
G1 X79.050 Y25.010 Z-0.500 F120.000
G1 X80.950 Y25.011 Z-0.500 F120.000
G1 X80.950 Y79.948 Z-0.500 F120.000
G3 X80.673 Y80.668 Z-0.500 I-0.947 J0.048 K0.000 F120.000
G0 Z5.000
G0 X80.426 Y80.420 Z5.000
G0 X80.426 Y80.420 Z3.000
G1 X80.426 Y80.420 Z-0.500 F60.000
G3 X79.418 Y80.116 Z-0.500 I-0.422 J-0.425 K0.000 F120.000
G1 X79.400 Y79.931 Z-0.500 F120.000
G1 X79.400 Y25.360 Z-0.500 F120.000
G1 X80.600 Y25.361 Z-0.500 F120.000
G1 X80.600 Y79.931 Z-0.500 F120.000
G3 X80.426 Y80.420 Z-0.500 I-0.595 J0.063 K0.000 F120.000
G0 Z5.000
G0 X80.183 Y80.169 Z5.000
G0 X80.183 Y80.169 Z3.000
G1 X80.183 Y80.169 Z-0.500 F60.000
G3 X79.777 Y80.092 Z-0.500 I-0.176 J-0.182 K0.000 F120.000
G3 X79.750 Y79.914 Z-0.500 I0.435 J-0.157 K0.000 F120.000
G1 X79.750 Y25.710 Z-0.500 F120.000
G1 X80.250 Y25.711 Z-0.500 F120.000
G1 X80.250 Y79.914 Z-0.500 F120.000
G3 X80.183 Y80.169 Z-0.500 I-0.243 J0.073 K0.000 F120.000
G1 X80.183 Y80.169 Z-1.000 F60.000
G3 X79.777 Y80.092 Z-1.000 I-0.176 J-0.182 K0.000 F120.000
G3 X79.750 Y79.914 Z-1.000 I0.435 J-0.157 K0.000 F120.000
G1 X79.750 Y25.710 Z-1.000 F120.000
G1 X80.250 Y25.711 Z-1.000 F120.000
G1 X80.250 Y79.914 Z-1.000 F120.000
G3 X80.183 Y80.169 Z-1.000 I-0.243 J0.073 K0.000 F120.000
G0 Z5.000
G0 X80.433 Y80.412 Z5.000
G0 X80.433 Y80.412 Z3.000
G1 X80.433 Y80.412 Z-1.000 F60.000
G3 X79.418 Y80.116 Z-1.000 I-0.429 J-0.418 K0.000 F120.000
G1 X79.400 Y79.931 Z-1.000 F120.000
G1 X79.400 Y25.360 Z-1.000 F120.000
G1 X80.600 Y25.361 Z-1.000 F120.000
G1 X80.600 Y79.931 Z-1.000 F120.000
G3 X80.433 Y80.412 Z-1.000 I-0.595 J0.063 K0.000 F120.000
G0 Z5.000
G0 X80.685 Y80.655 Z5.000
G0 X80.685 Y80.655 Z3.000
G1 X80.685 Y80.655 Z-1.000 F60.000
G3 X79.073 Y80.184 Z-1.000 I-0.682 J-0.659 K0.000 F120.000
G1 X79.050 Y79.948 Z-1.000 F120.000
G1 X79.050 Y25.010 Z-1.000 F120.000
G1 X80.950 Y25.011 Z-1.000 F120.000
G1 X80.950 Y79.948 Z-1.000 F120.000
G3 X80.685 Y80.655 Z-1.000 I-0.947 J0.048 K0.000 F120.000
G0 Z5.000
G0 X80.938 Y80.898 Z5.000
G0 X80.938 Y80.898 Z3.000
G1 X80.938 Y80.898 Z-1.000 F60.000
G3 X78.728 Y80.253 Z-1.000 I-0.936 J-0.900 K0.000 F120.000
G1 X78.700 Y79.966 Z-1.000 F120.000
G1 X78.700 Y24.660 Z-1.000 F120.000
G1 X81.300 Y24.661 Z-1.000 F120.000
G1 X81.300 Y79.966 Z-1.000 F120.000
G3 X80.938 Y80.898 Z-1.000 I-1.298 J0.032 K0.000 F120.000
G1 X80.938 Y80.898 Z-1.500 F60.000
G3 X78.728 Y80.253 Z-1.500 I-0.936 J-0.900 K0.000 F120.000
G1 X78.700 Y79.966 Z-1.500 F120.000
G1 X78.700 Y24.660 Z-1.500 F120.000
G1 X81.300 Y24.661 Z-1.500 F120.000
G1 X81.300 Y79.966 Z-1.500 F120.000
G3 X80.938 Y80.898 Z-1.500 I-1.298 J0.032 K0.000 F120.000
G0 Z5.000
G0 X80.685 Y80.655 Z5.000
G0 X80.685 Y80.655 Z3.000
G1 X80.685 Y80.655 Z-1.500 F60.000
G3 X79.073 Y80.184 Z-1.500 I-0.683 J-0.658 K0.000 F120.000
G1 X79.050 Y79.948 Z-1.500 F120.000
G1 X79.050 Y25.010 Z-1.500 F120.000
G1 X80.950 Y25.011 Z-1.500 F120.000
G1 X80.950 Y79.948 Z-1.500 F120.000
G3 X80.685 Y80.655 Z-1.500 I-0.947 J0.048 K0.000 F120.000
G0 Z5.000
G0 X80.434 Y80.411 Z5.000
G0 X80.434 Y80.411 Z3.000
G1 X80.434 Y80.411 Z-1.500 F60.000
G3 X79.418 Y80.116 Z-1.500 I-0.430 J-0.417 K0.000 F120.000
G1 X79.400 Y79.931 Z-1.500 F120.000
G1 X79.400 Y25.360 Z-1.500 F120.000
G1 X80.600 Y25.361 Z-1.500 F120.000
G1 X80.600 Y79.931 Z-1.500 F120.000
G3 X80.434 Y80.411 Z-1.500 I-0.595 J0.063 K0.000 F120.000
G0 Z5.000
G0 X80.187 Y80.165 Z5.000
G0 X80.187 Y80.165 Z3.000
G1 X80.187 Y80.165 Z-1.500 F60.000
G3 X79.777 Y80.092 Z-1.500 I-0.180 J-0.179 K0.000 F120.000
G3 X79.750 Y79.914 Z-1.500 I0.435 J-0.157 K0.000 F120.000
G1 X79.750 Y25.710 Z-1.500 F120.000
G1 X80.250 Y25.711 Z-1.500 F120.000
G1 X80.250 Y79.914 Z-1.500 F120.000
G3 X80.187 Y80.165 Z-1.500 I-0.243 J0.073 K0.000 F120.000
G1 X80.187 Y80.165 Z-2.000 F60.000
G3 X79.777 Y80.092 Z-2.000 I-0.180 J-0.179 K0.000 F120.000
G3 X79.750 Y79.914 Z-2.000 I0.435 J-0.157 K0.000 F120.000
G1 X79.750 Y25.710 Z-2.000 F120.000
G1 X80.250 Y25.711 Z-2.000 F120.000
G1 X80.250 Y79.914 Z-2.000 F120.000
G3 X80.187 Y80.165 Z-2.000 I-0.243 J0.073 K0.000 F120.000
G0 Z5.000
G0 X80.441 Y80.404 Z5.000
G0 X80.441 Y80.404 Z3.000
G1 X80.441 Y80.404 Z-2.000 F60.000
G3 X79.418 Y80.116 Z-2.000 I-0.437 J-0.410 K0.000 F120.000
G1 X79.400 Y79.931 Z-2.000 F120.000
G1 X79.400 Y25.360 Z-2.000 F120.000
G1 X80.600 Y25.361 Z-2.000 F120.000
G1 X80.600 Y79.931 Z-2.000 F120.000
G3 X80.441 Y80.404 Z-2.000 I-0.595 J0.063 K0.000 F120.000
G0 Z5.000
G0 X80.698 Y80.642 Z5.000
G0 X80.698 Y80.642 Z3.000
G1 X80.698 Y80.642 Z-2.000 F60.000
G3 X79.073 Y80.184 Z-2.000 I-0.695 J-0.645 K0.000 F120.000
G1 X79.050 Y79.948 Z-2.000 F120.000
G1 X79.050 Y25.010 Z-2.000 F120.000
G1 X80.950 Y25.011 Z-2.000 F120.000
G1 X80.950 Y79.948 Z-2.000 F120.000
G3 X80.698 Y80.642 Z-2.000 I-0.947 J0.048 K0.000 F120.000
G0 Z5.000
G0 X80.955 Y80.880 Z5.000
G0 X80.955 Y80.880 Z3.000
G1 X80.955 Y80.880 Z-2.000 F60.000
G3 X78.728 Y80.253 Z-2.000 I-0.953 J-0.882 K0.000 F120.000
G1 X78.700 Y79.966 Z-2.000 F120.000
G1 X78.700 Y24.660 Z-2.000 F120.000
G1 X81.300 Y24.661 Z-2.000 F120.000
G1 X81.300 Y79.966 Z-2.000 F120.000
G3 X80.955 Y80.880 Z-2.000 I-1.298 J0.032 K0.000 F120.000
G1 X80.955 Y80.880 Z-2.500 F60.000
G3 X78.728 Y80.253 Z-2.500 I-0.953 J-0.882 K0.000 F120.000
G1 X78.700 Y79.966 Z-2.500 F120.000
G1 X78.700 Y24.660 Z-2.500 F120.000
G1 X81.300 Y24.661 Z-2.500 F120.000
G1 X81.300 Y79.966 Z-2.500 F120.000
G3 X80.955 Y80.880 Z-2.500 I-1.298 J0.032 K0.000 F120.000
G0 Z5.000
G0 X80.698 Y80.642 Z5.000
G0 X80.698 Y80.642 Z3.000
G1 X80.698 Y80.642 Z-2.500 F60.000
G3 X79.073 Y80.184 Z-2.500 I-0.695 J-0.645 K0.000 F120.000
G1 X79.050 Y79.948 Z-2.500 F120.000
G1 X79.050 Y25.010 Z-2.500 F120.000
G1 X80.950 Y25.011 Z-2.500 F120.000
G1 X80.950 Y79.948 Z-2.500 F120.000
G3 X80.698 Y80.642 Z-2.500 I-0.947 J0.048 K0.000 F120.000
G0 Z5.000
G0 X80.442 Y80.403 Z5.000
G0 X80.442 Y80.403 Z3.000
G1 X80.442 Y80.403 Z-2.500 F60.000
G3 X79.418 Y80.116 Z-2.500 I-0.438 J-0.409 K0.000 F120.000
G1 X79.400 Y79.931 Z-2.500 F120.000
G1 X79.400 Y25.360 Z-2.500 F120.000
G1 X80.600 Y25.361 Z-2.500 F120.000
G1 X80.600 Y79.931 Z-2.500 F120.000
G3 X80.442 Y80.403 Z-2.500 I-0.595 J0.063 K0.000 F120.000
G0 Z5.000
G0 X80.190 Y80.162 Z5.000
G0 X80.190 Y80.162 Z3.000
G1 X80.190 Y80.162 Z-2.500 F60.000
G3 X79.777 Y80.092 Z-2.500 I-0.183 J-0.175 K0.000 F120.000
G3 X79.750 Y79.914 Z-2.500 I0.435 J-0.157 K0.000 F120.000
G1 X79.750 Y25.710 Z-2.500 F120.000
G1 X80.250 Y25.711 Z-2.500 F120.000
G1 X80.250 Y79.914 Z-2.500 F120.000
G3 X80.190 Y80.162 Z-2.500 I-0.243 J0.073 K0.000 F120.000
G1 X80.190 Y80.162 Z-3.000 F60.000
G3 X79.777 Y80.092 Z-3.000 I-0.183 J-0.175 K0.000 F120.000
G3 X79.750 Y79.914 Z-3.000 I0.435 J-0.157 K0.000 F120.000
G1 X79.750 Y25.710 Z-3.000 F120.000
G1 X80.250 Y25.711 Z-3.000 F120.000
G1 X80.250 Y79.914 Z-3.000 F120.000
G3 X80.190 Y80.162 Z-3.000 I-0.243 J0.073 K0.000 F120.000
G0 Z5.000
G0 X80.449 Y80.395 Z5.000
G0 X80.449 Y80.395 Z3.000
G1 X80.449 Y80.395 Z-3.000 F60.000
G3 X79.418 Y80.116 Z-3.000 I-0.445 J-0.401 K0.000 F120.000
G1 X79.400 Y79.931 Z-3.000 F120.000
G1 X79.400 Y25.360 Z-3.000 F120.000
G1 X80.600 Y25.361 Z-3.000 F120.000
G1 X80.600 Y79.931 Z-3.000 F120.000
G3 X80.449 Y80.395 Z-3.000 I-0.595 J0.063 K0.000 F120.000
G0 Z5.000
G0 X80.710 Y80.628 Z5.000
G0 X80.710 Y80.628 Z3.000
G1 X80.710 Y80.628 Z-3.000 F60.000
G3 X79.073 Y80.184 Z-3.000 I-0.707 J-0.632 K0.000 F120.000
G1 X79.050 Y79.948 Z-3.000 F120.000
G1 X79.050 Y25.010 Z-3.000 F120.000
G1 X80.950 Y25.011 Z-3.000 F120.000
G1 X80.950 Y79.948 Z-3.000 F120.000
G3 X80.710 Y80.628 Z-3.000 I-0.947 J0.048 K0.000 F120.000
G0 Z5.000
G0 X80.972 Y80.861 Z5.000
G0 X80.972 Y80.861 Z3.000
G1 X80.972 Y80.861 Z-3.000 F60.000
G3 X78.728 Y80.253 Z-3.000 I-0.970 J-0.863 K0.000 F120.000
G1 X78.700 Y79.966 Z-3.000 F120.000
G1 X78.700 Y24.660 Z-3.000 F120.000
G1 X81.300 Y24.661 Z-3.000 F120.000
G1 X81.300 Y79.966 Z-3.000 F120.000
G3 X80.972 Y80.861 Z-3.000 I-1.298 J0.032 K0.000 F120.000
G1 X80.972 Y80.861 Z-3.500 F60.000
G3 X78.728 Y80.253 Z-3.500 I-0.970 J-0.863 K0.000 F120.000
G1 X78.700 Y79.966 Z-3.500 F120.000
G1 X78.700 Y24.660 Z-3.500 F120.000
G1 X81.300 Y24.661 Z-3.500 F120.000
G1 X81.300 Y79.966 Z-3.500 F120.000
G3 X80.972 Y80.861 Z-3.500 I-1.298 J0.032 K0.000 F120.000
G0 Z5.000
G0 X80.711 Y80.628 Z5.000
G0 X80.711 Y80.628 Z3.000
G1 X80.711 Y80.628 Z-3.500 F60.000
G3 X79.073 Y80.184 Z-3.500 I-0.708 J-0.631 K0.000 F120.000
G1 X79.050 Y79.948 Z-3.500 F120.000
G1 X79.050 Y25.010 Z-3.500 F120.000
G1 X80.950 Y25.011 Z-3.500 F120.000
G1 X80.950 Y79.948 Z-3.500 F120.000
G3 X80.711 Y80.628 Z-3.500 I-0.947 J0.048 K0.000 F120.000
G0 Z5.000
G0 X80.450 Y80.394 Z5.000
G0 X80.450 Y80.394 Z3.000
G1 X80.450 Y80.394 Z-3.500 F60.000
G3 X79.418 Y80.116 Z-3.500 I-0.446 J-0.400 K0.000 F120.000
G1 X79.400 Y79.931 Z-3.500 F120.000
G1 X79.400 Y25.360 Z-3.500 F120.000
G1 X80.600 Y25.361 Z-3.500 F120.000
G1 X80.600 Y79.931 Z-3.500 F120.000
G3 X80.450 Y80.394 Z-3.500 I-0.595 J0.063 K0.000 F120.000
G0 Z5.000
G0 X80.194 Y80.158 Z5.000
G0 X80.194 Y80.158 Z3.000
G1 X80.194 Y80.158 Z-3.500 F60.000
G3 X79.777 Y80.092 Z-3.500 I-0.186 J-0.172 K0.000 F120.000
G3 X79.750 Y79.914 Z-3.500 I0.435 J-0.157 K0.000 F120.000
G1 X79.750 Y25.710 Z-3.500 F120.000
G1 X80.250 Y25.711 Z-3.500 F120.000
G1 X80.250 Y79.914 Z-3.500 F120.000
G3 X80.194 Y80.158 Z-3.500 I-0.243 J0.073 K0.000 F120.000
G1 X80.194 Y80.158 Z-4.000 F60.000
G3 X79.777 Y80.092 Z-4.000 I-0.186 J-0.172 K0.000 F120.000
G3 X79.750 Y79.914 Z-4.000 I0.435 J-0.157 K0.000 F120.000
G1 X79.750 Y25.710 Z-4.000 F120.000
G1 X80.250 Y25.711 Z-4.000 F120.000
G1 X80.250 Y79.914 Z-4.000 F120.000
G3 X80.194 Y80.158 Z-4.000 I-0.243 J0.073 K0.000 F120.000
G0 Z5.000
G0 X80.457 Y80.386 Z5.000
G0 X80.457 Y80.386 Z3.000
G1 X80.457 Y80.386 Z-4.000 F60.000
G3 X79.418 Y80.116 Z-4.000 I-0.453 J-0.392 K0.000 F120.000
G1 X79.400 Y79.931 Z-4.000 F120.000
G1 X79.400 Y25.360 Z-4.000 F120.000
G1 X80.600 Y25.361 Z-4.000 F120.000
G1 X80.600 Y79.931 Z-4.000 F120.000
G3 X80.457 Y80.386 Z-4.000 I-0.595 J0.063 K0.000 F120.000
G0 Z5.000
G0 X80.723 Y80.614 Z5.000
G0 X80.723 Y80.614 Z3.000
G1 X80.723 Y80.614 Z-4.000 F60.000
G3 X79.073 Y80.184 Z-4.000 I-0.720 J-0.618 K0.000 F120.000
G1 X79.050 Y79.948 Z-4.000 F120.000
G1 X79.050 Y25.010 Z-4.000 F120.000
G1 X80.950 Y25.011 Z-4.000 F120.000
G1 X80.950 Y79.948 Z-4.000 F120.000
G3 X80.723 Y80.614 Z-4.000 I-0.947 J0.048 K0.000 F120.000
G0 Z5.000
G0 X80.989 Y80.842 Z5.000
G0 X80.989 Y80.842 Z3.000
G1 X80.989 Y80.842 Z-4.000 F60.000
G3 X78.728 Y80.253 Z-4.000 I-0.987 J-0.844 K0.000 F120.000
G1 X78.700 Y79.966 Z-4.000 F120.000
G1 X78.700 Y24.660 Z-4.000 F120.000
G1 X81.300 Y24.661 Z-4.000 F120.000
G1 X81.300 Y79.966 Z-4.000 F120.000
G3 X80.989 Y80.842 Z-4.000 I-1.298 J0.032 K0.000 F120.000
G0 Z5.000
G0 Z5.000
(Finish operation: Pocket3D005)
(Begin operation: Profile059)
(Path: Profile059)
(Profile059)
(Compensated Tool Path. Diameter: 1.4)
G0 Z5.000
G0 X10.563 Y20.563
G0 Z3.000
G1 X10.563 Y20.563 Z-1.000 F60.000
G2 X10.345 Y19.283 Z-1.000 I-0.563 J-0.563 K0.000 F120.000
G2 X9.655 Y20.717 Z-1.000 I-0.345 J0.717 K0.000 F120.000
G2 X10.563 Y20.563 Z-1.000 I0.345 J-0.717 K0.000 F120.000
G1 X10.563 Y20.563 Z-2.000 F60.000
G2 X10.345 Y19.283 Z-2.000 I-0.563 J-0.563 K0.000 F120.000
G2 X9.655 Y20.717 Z-2.000 I-0.345 J0.717 K0.000 F120.000
G2 X10.563 Y20.563 Z-2.000 I0.345 J-0.717 K0.000 F120.000
G1 X10.563 Y20.563 Z-3.000 F60.000
G2 X10.345 Y19.283 Z-3.000 I-0.563 J-0.563 K0.000 F120.000
G2 X9.655 Y20.717 Z-3.000 I-0.345 J0.717 K0.000 F120.000
G2 X10.563 Y20.563 Z-3.000 I0.345 J-0.717 K0.000 F120.000
G1 X10.563 Y20.563 Z-4.000 F60.000
G2 X10.345 Y19.283 Z-4.000 I-0.563 J-0.563 K0.000 F120.000
G2 X9.655 Y20.717 Z-4.000 I-0.345 J0.717 K0.000 F120.000
G2 X10.563 Y20.563 Z-4.000 I0.345 J-0.717 K0.000 F120.000
G1 X10.563 Y20.563 Z-5.000 F60.000
G2 X10.345 Y19.283 Z-5.000 I-0.563 J-0.563 K0.000 F120.000
G2 X9.655 Y20.717 Z-5.000 I-0.345 J0.717 K0.000 F120.000
G2 X10.563 Y20.563 Z-5.000 I0.345 J-0.717 K0.000 F120.000
G1 X10.563 Y20.563 Z-6.000 F60.000
G2 X10.345 Y19.283 Z-6.000 I-0.563 J-0.563 K0.000 F120.000
G2 X9.655 Y20.717 Z-6.000 I-0.345 J0.717 K0.000 F120.000
G2 X10.563 Y20.563 Z-6.000 I0.345 J-0.717 K0.000 F120.000
G1 X10.563 Y20.563 Z-7.000 F60.000
G2 X10.345 Y19.283 Z-7.000 I-0.563 J-0.563 K0.000 F120.000
G2 X9.655 Y20.717 Z-7.000 I-0.345 J0.717 K0.000 F120.000
G2 X10.563 Y20.563 Z-7.000 I0.345 J-0.717 K0.000 F120.000
G1 X10.563 Y20.563 Z-8.000 F60.000
G2 X10.345 Y19.283 Z-8.000 I-0.563 J-0.563 K0.000 F120.000
G2 X9.655 Y20.717 Z-8.000 I-0.345 J0.717 K0.000 F120.000
G2 X10.563 Y20.563 Z-8.000 I0.345 J-0.717 K0.000 F120.000
G1 X10.563 Y20.563 Z-9.000 F60.000
G2 X10.345 Y19.283 Z-9.000 I-0.563 J-0.563 K0.000 F120.000
G2 X9.655 Y20.717 Z-9.000 I-0.345 J0.717 K0.000 F120.000
G2 X10.563 Y20.563 Z-9.000 I0.345 J-0.717 K0.000 F120.000
G1 X10.563 Y20.563 Z-10.000 F60.000
G2 X10.345 Y19.283 Z-10.000 I-0.563 J-0.563 K0.000 F120.000
G2 X9.655 Y20.717 Z-10.000 I-0.345 J0.717 K0.000 F120.000
G2 X10.563 Y20.563 Z-10.000 I0.345 J-0.717 K0.000 F120.000
G0 Z5.000
G0 Z5.000
G0 X10.563 Y20.563
G0 X7.034 Y102.205
G0 X7.034 Y102.205 Z3.000
G1 X7.034 Y102.205 Z-1.000 F60.000
G2 X6.655 Y103.717 Z-1.000 I-0.034 J0.795 K0.000 F120.000
G2 X7.345 Y102.283 Z-1.000 I0.345 J-0.717 K0.000 F120.000
G2 X7.034 Y102.205 Z-1.000 I-0.345 J0.717 K0.000 F120.000
G1 X7.034 Y102.205 Z-2.000 F60.000
G2 X6.655 Y103.717 Z-2.000 I-0.034 J0.795 K0.000 F120.000
G2 X7.345 Y102.283 Z-2.000 I0.345 J-0.717 K0.000 F120.000
G2 X7.034 Y102.205 Z-2.000 I-0.345 J0.717 K0.000 F120.000
G1 X7.034 Y102.205 Z-3.000 F60.000
G2 X6.655 Y103.717 Z-3.000 I-0.034 J0.795 K0.000 F120.000
G2 X7.345 Y102.283 Z-3.000 I0.345 J-0.717 K0.000 F120.000
G2 X7.034 Y102.205 Z-3.000 I-0.345 J0.717 K0.000 F120.000
G1 X7.034 Y102.205 Z-4.000 F60.000
G2 X6.655 Y103.717 Z-4.000 I-0.034 J0.795 K0.000 F120.000
G2 X7.345 Y102.283 Z-4.000 I0.345 J-0.717 K0.000 F120.000
G2 X7.034 Y102.205 Z-4.000 I-0.345 J0.717 K0.000 F120.000
G1 X7.034 Y102.205 Z-5.000 F60.000
G2 X6.655 Y103.717 Z-5.000 I-0.034 J0.795 K0.000 F120.000
G2 X7.345 Y102.283 Z-5.000 I0.345 J-0.717 K0.000 F120.000
G2 X7.034 Y102.205 Z-5.000 I-0.345 J0.717 K0.000 F120.000
G1 X7.034 Y102.205 Z-6.000 F60.000
G2 X6.655 Y103.717 Z-6.000 I-0.034 J0.795 K0.000 F120.000
G2 X7.345 Y102.283 Z-6.000 I0.345 J-0.717 K0.000 F120.000
G2 X7.034 Y102.205 Z-6.000 I-0.345 J0.717 K0.000 F120.000
G1 X7.034 Y102.205 Z-7.000 F60.000
G2 X6.655 Y103.717 Z-7.000 I-0.034 J0.795 K0.000 F120.000
G2 X7.345 Y102.283 Z-7.000 I0.345 J-0.717 K0.000 F120.000
G2 X7.034 Y102.205 Z-7.000 I-0.345 J0.717 K0.000 F120.000
G1 X7.034 Y102.205 Z-8.000 F60.000
G2 X6.655 Y103.717 Z-8.000 I-0.034 J0.795 K0.000 F120.000
G2 X7.345 Y102.283 Z-8.000 I0.345 J-0.717 K0.000 F120.000
G2 X7.034 Y102.205 Z-8.000 I-0.345 J0.717 K0.000 F120.000
G1 X7.034 Y102.205 Z-9.000 F60.000
G2 X6.655 Y103.717 Z-9.000 I-0.034 J0.795 K0.000 F120.000
G2 X7.345 Y102.283 Z-9.000 I0.345 J-0.717 K0.000 F120.000
G2 X7.034 Y102.205 Z-9.000 I-0.345 J0.717 K0.000 F120.000
G1 X7.034 Y102.205 Z-10.000 F60.000
G2 X6.655 Y103.717 Z-10.000 I-0.034 J0.795 K0.000 F120.000
G2 X7.345 Y102.283 Z-10.000 I0.345 J-0.717 K0.000 F120.000
G2 X7.034 Y102.205 Z-10.000 I-0.345 J0.717 K0.000 F120.000
G0 Z5.000
G0 Z5.000
G0 X7.034 Y102.205
G0 X152.204 Y102.996
G0 X152.204 Y102.996 Z3.000
G1 X152.204 Y102.996 Z-1.000 F60.000
G2 X152.655 Y103.717 Z-1.000 I0.796 J0.004 K0.000 F120.000
G2 X153.345 Y102.283 Z-1.000 I0.345 J-0.717 K0.000 F120.000
G2 X152.204 Y102.996 Z-1.000 I-0.345 J0.717 K0.000 F120.000
G1 X152.204 Y102.996 Z-2.000 F60.000
G2 X152.655 Y103.717 Z-2.000 I0.796 J0.004 K0.000 F120.000
G2 X153.345 Y102.283 Z-2.000 I0.345 J-0.717 K0.000 F120.000
G2 X152.204 Y102.996 Z-2.000 I-0.345 J0.717 K0.000 F120.000
G1 X152.204 Y102.996 Z-3.000 F60.000
G2 X152.655 Y103.717 Z-3.000 I0.796 J0.004 K0.000 F120.000
G2 X153.345 Y102.283 Z-3.000 I0.345 J-0.717 K0.000 F120.000
G2 X152.204 Y102.996 Z-3.000 I-0.345 J0.717 K0.000 F120.000
G1 X152.204 Y102.996 Z-4.000 F60.000
G2 X152.655 Y103.717 Z-4.000 I0.796 J0.004 K0.000 F120.000
G2 X153.345 Y102.283 Z-4.000 I0.345 J-0.717 K0.000 F120.000
G2 X152.204 Y102.996 Z-4.000 I-0.345 J0.717 K0.000 F120.000
G1 X152.204 Y102.996 Z-5.000 F60.000
G2 X152.655 Y103.717 Z-5.000 I0.796 J0.004 K0.000 F120.000
G2 X153.345 Y102.283 Z-5.000 I0.345 J-0.717 K0.000 F120.000
G2 X152.204 Y102.996 Z-5.000 I-0.345 J0.717 K0.000 F120.000
G1 X152.204 Y102.996 Z-6.000 F60.000
G2 X152.655 Y103.717 Z-6.000 I0.796 J0.004 K0.000 F120.000
G2 X153.345 Y102.283 Z-6.000 I0.345 J-0.717 K0.000 F120.000
G2 X152.204 Y102.996 Z-6.000 I-0.345 J0.717 K0.000 F120.000
G1 X152.204 Y102.996 Z-7.000 F60.000
G2 X152.655 Y103.717 Z-7.000 I0.796 J0.004 K0.000 F120.000
G2 X153.345 Y102.283 Z-7.000 I0.345 J-0.717 K0.000 F120.000
G2 X152.204 Y102.996 Z-7.000 I-0.345 J0.717 K0.000 F120.000
G1 X152.204 Y102.996 Z-8.000 F60.000
G2 X152.655 Y103.717 Z-8.000 I0.796 J0.004 K0.000 F120.000
G2 X153.345 Y102.283 Z-8.000 I0.345 J-0.717 K0.000 F120.000
G2 X152.204 Y102.996 Z-8.000 I-0.345 J0.717 K0.000 F120.000
G1 X152.204 Y102.996 Z-9.000 F60.000
G2 X152.655 Y103.717 Z-9.000 I0.796 J0.004 K0.000 F120.000
G2 X153.345 Y102.283 Z-9.000 I0.345 J-0.717 K0.000 F120.000
G2 X152.204 Y102.996 Z-9.000 I-0.345 J0.717 K0.000 F120.000
G1 X152.204 Y102.996 Z-10.000 F60.000
G2 X152.655 Y103.717 Z-10.000 I0.796 J0.004 K0.000 F120.000
G2 X153.345 Y102.283 Z-10.000 I0.345 J-0.717 K0.000 F120.000
G2 X152.204 Y102.996 Z-10.000 I-0.345 J0.717 K0.000 F120.000
G0 Z5.000
G0 Z5.000
G0 X152.204 Y102.996
G0 X150.021 Y20.795
G0 X150.021 Y20.795 Z3.000
G1 X150.021 Y20.795 Z-1.000 F60.000
G2 X150.345 Y19.283 Z-1.000 I-0.021 J-0.795 K0.000 F120.000
G2 X149.655 Y20.717 Z-1.000 I-0.345 J0.717 K0.000 F120.000
G2 X150.021 Y20.795 Z-1.000 I0.345 J-0.717 K0.000 F120.000
G1 X150.021 Y20.795 Z-2.000 F60.000
G2 X150.345 Y19.283 Z-2.000 I-0.021 J-0.795 K0.000 F120.000
G2 X149.655 Y20.717 Z-2.000 I-0.345 J0.717 K0.000 F120.000
G2 X150.021 Y20.795 Z-2.000 I0.345 J-0.717 K0.000 F120.000
G1 X150.021 Y20.795 Z-3.000 F60.000
G2 X150.345 Y19.283 Z-3.000 I-0.021 J-0.795 K0.000 F120.000
G2 X149.655 Y20.717 Z-3.000 I-0.345 J0.717 K0.000 F120.000
G2 X150.021 Y20.795 Z-3.000 I0.345 J-0.717 K0.000 F120.000
G1 X150.021 Y20.795 Z-4.000 F60.000
G2 X150.345 Y19.283 Z-4.000 I-0.021 J-0.795 K0.000 F120.000
G2 X149.655 Y20.717 Z-4.000 I-0.345 J0.717 K0.000 F120.000
G2 X150.021 Y20.795 Z-4.000 I0.345 J-0.717 K0.000 F120.000
G1 X150.021 Y20.795 Z-5.000 F60.000
G2 X150.345 Y19.283 Z-5.000 I-0.021 J-0.795 K0.000 F120.000
G2 X149.655 Y20.717 Z-5.000 I-0.345 J0.717 K0.000 F120.000
G2 X150.021 Y20.795 Z-5.000 I0.345 J-0.717 K0.000 F120.000
G1 X150.021 Y20.795 Z-6.000 F60.000
G2 X150.345 Y19.283 Z-6.000 I-0.021 J-0.795 K0.000 F120.000
G2 X149.655 Y20.717 Z-6.000 I-0.345 J0.717 K0.000 F120.000
G2 X150.021 Y20.795 Z-6.000 I0.345 J-0.717 K0.000 F120.000
G1 X150.021 Y20.795 Z-7.000 F60.000
G2 X150.345 Y19.283 Z-7.000 I-0.021 J-0.795 K0.000 F120.000
G2 X149.655 Y20.717 Z-7.000 I-0.345 J0.717 K0.000 F120.000
G2 X150.021 Y20.795 Z-7.000 I0.345 J-0.717 K0.000 F120.000
G1 X150.021 Y20.795 Z-8.000 F60.000
G2 X150.345 Y19.283 Z-8.000 I-0.021 J-0.795 K0.000 F120.000
G2 X149.655 Y20.717 Z-8.000 I-0.345 J0.717 K0.000 F120.000
G2 X150.021 Y20.795 Z-8.000 I0.345 J-0.717 K0.000 F120.000
G1 X150.021 Y20.795 Z-9.000 F60.000
G2 X150.345 Y19.283 Z-9.000 I-0.021 J-0.795 K0.000 F120.000
G2 X149.655 Y20.717 Z-9.000 I-0.345 J0.717 K0.000 F120.000
G2 X150.021 Y20.795 Z-9.000 I0.345 J-0.717 K0.000 F120.000
G1 X150.021 Y20.795 Z-10.000 F60.000
G2 X150.345 Y19.283 Z-10.000 I-0.021 J-0.795 K0.000 F120.000
G2 X149.655 Y20.717 Z-10.000 I-0.345 J0.717 K0.000 F120.000
G2 X150.021 Y20.795 Z-10.000 I0.345 J-0.717 K0.000 F120.000
G0 Z5.000
G0 Z5.000
(Finish operation: Profile059)
(Begin operation: Profile060)
(Path: Profile060)
(Profile060)
(Compensated Tool Path. Diameter: 1.4)
G0 Z5.000
G0 X44.793 Y92.799
G0 Z3.000
G1 X44.793 Y92.799 Z-0.500 F60.000
G2 X50.300 Y79.483 Z-0.500 I-13.293 J-13.293 K0.000 F120.000
G1 X50.300 Y49.013 Z-0.500 F120.000
G2 X34.491 Y30.537 Z-0.500 I-18.800 J0.085 K0.000 F120.000
G2 X12.700 Y49.013 Z-0.500 I-2.991 J18.561 K0.000 F120.000
G1 X12.700 Y79.443 Z-0.500 F120.000
G2 X44.793 Y92.799 Z-0.500 I18.800 J0.063 K0.000 F120.000
G1 X44.793 Y92.799 Z-1.000 F60.000
G2 X50.300 Y79.483 Z-1.000 I-13.293 J-13.293 K0.000 F120.000
G1 X50.300 Y49.013 Z-1.000 F120.000
G2 X34.491 Y30.537 Z-1.000 I-18.800 J0.085 K0.000 F120.000
G2 X12.700 Y49.013 Z-1.000 I-2.991 J18.561 K0.000 F120.000
G1 X12.700 Y79.443 Z-1.000 F120.000
G2 X44.793 Y92.799 Z-1.000 I18.800 J0.063 K0.000 F120.000
G1 X44.793 Y92.799 Z-1.500 F60.000
G2 X50.300 Y79.483 Z-1.500 I-13.293 J-13.293 K0.000 F120.000
G1 X50.300 Y49.013 Z-1.500 F120.000
G2 X34.491 Y30.537 Z-1.500 I-18.800 J0.085 K0.000 F120.000
G2 X12.700 Y49.013 Z-1.500 I-2.991 J18.561 K0.000 F120.000
G1 X12.700 Y79.443 Z-1.500 F120.000
G2 X44.793 Y92.799 Z-1.500 I18.800 J0.063 K0.000 F120.000
G1 X44.793 Y92.799 Z-2.000 F60.000
G2 X50.300 Y79.483 Z-2.000 I-13.293 J-13.293 K0.000 F120.000
G1 X50.300 Y49.013 Z-2.000 F120.000
G2 X34.491 Y30.537 Z-2.000 I-18.800 J0.085 K0.000 F120.000
G2 X12.700 Y49.013 Z-2.000 I-2.991 J18.561 K0.000 F120.000
G1 X12.700 Y79.443 Z-2.000 F120.000
G2 X44.793 Y92.799 Z-2.000 I18.800 J0.063 K0.000 F120.000
G1 X44.793 Y92.799 Z-2.500 F60.000
G2 X50.300 Y79.483 Z-2.500 I-13.293 J-13.293 K0.000 F120.000
G1 X50.300 Y49.013 Z-2.500 F120.000
G2 X34.491 Y30.537 Z-2.500 I-18.800 J0.085 K0.000 F120.000
G2 X12.700 Y49.013 Z-2.500 I-2.991 J18.561 K0.000 F120.000
G1 X12.700 Y79.443 Z-2.500 F120.000
G2 X44.793 Y92.799 Z-2.500 I18.800 J0.063 K0.000 F120.000
G1 X44.793 Y92.799 Z-3.000 F60.000
G2 X50.300 Y79.483 Z-3.000 I-13.293 J-13.293 K0.000 F120.000
G1 X50.300 Y49.013 Z-3.000 F120.000
G2 X34.491 Y30.537 Z-3.000 I-18.800 J0.085 K0.000 F120.000
G2 X12.700 Y49.013 Z-3.000 I-2.991 J18.561 K0.000 F120.000
G1 X12.700 Y79.443 Z-3.000 F120.000
G2 X44.793 Y92.799 Z-3.000 I18.800 J0.063 K0.000 F120.000
G1 X44.793 Y92.799 Z-3.500 F60.000
G2 X50.300 Y79.483 Z-3.500 I-13.293 J-13.293 K0.000 F120.000
G1 X50.300 Y49.013 Z-3.500 F120.000
G2 X34.491 Y30.537 Z-3.500 I-18.800 J0.085 K0.000 F120.000
G2 X12.700 Y49.013 Z-3.500 I-2.991 J18.561 K0.000 F120.000
G1 X12.700 Y79.443 Z-3.500 F120.000
G2 X44.793 Y92.799 Z-3.500 I18.800 J0.063 K0.000 F120.000
G1 X44.793 Y92.799 Z-4.000 F60.000
G2 X50.300 Y79.483 Z-4.000 I-13.293 J-13.293 K0.000 F120.000
G1 X50.300 Y49.013 Z-4.000 F120.000
G2 X34.491 Y30.537 Z-4.000 I-18.800 J0.085 K0.000 F120.000
G2 X12.700 Y49.013 Z-4.000 I-2.991 J18.561 K0.000 F120.000
G1 X12.700 Y79.443 Z-4.000 F120.000
G2 X44.793 Y92.799 Z-4.000 I18.800 J0.063 K0.000 F120.000
G1 X44.793 Y92.799 Z-4.500 F60.000
G2 X50.300 Y79.483 Z-4.500 I-13.293 J-13.293 K0.000 F120.000
G1 X50.300 Y49.013 Z-4.500 F120.000
G2 X34.491 Y30.537 Z-4.500 I-18.800 J0.085 K0.000 F120.000
G2 X12.700 Y49.013 Z-4.500 I-2.991 J18.561 K0.000 F120.000
G1 X12.700 Y79.443 Z-4.500 F120.000
G2 X44.793 Y92.799 Z-4.500 I18.800 J0.063 K0.000 F120.000
G1 X44.793 Y92.799 Z-5.000 F60.000
G2 X50.300 Y79.483 Z-5.000 I-13.293 J-13.293 K0.000 F120.000
G1 X50.300 Y49.013 Z-5.000 F120.000
G2 X34.491 Y30.537 Z-5.000 I-18.800 J0.085 K0.000 F120.000
G2 X12.700 Y49.013 Z-5.000 I-2.991 J18.561 K0.000 F120.000
G1 X12.700 Y79.443 Z-5.000 F120.000
G2 X44.793 Y92.799 Z-5.000 I18.800 J0.063 K0.000 F120.000
G1 X44.793 Y92.799 Z-5.500 F60.000
G2 X50.300 Y79.483 Z-5.500 I-13.293 J-13.293 K0.000 F120.000
G1 X50.300 Y49.013 Z-5.500 F120.000
G2 X34.491 Y30.537 Z-5.500 I-18.800 J0.085 K0.000 F120.000
G2 X12.700 Y49.013 Z-5.500 I-2.991 J18.561 K0.000 F120.000
G1 X12.700 Y79.443 Z-5.500 F120.000
G2 X44.793 Y92.799 Z-5.500 I18.800 J0.063 K0.000 F120.000
G1 X44.793 Y92.799 Z-6.000 F60.000
G2 X50.300 Y79.483 Z-6.000 I-13.293 J-13.293 K0.000 F120.000
G1 X50.300 Y49.013 Z-6.000 F120.000
G2 X34.491 Y30.537 Z-6.000 I-18.800 J0.085 K0.000 F120.000
G2 X12.700 Y49.013 Z-6.000 I-2.991 J18.561 K0.000 F120.000
G1 X12.700 Y79.443 Z-6.000 F120.000
G2 X44.793 Y92.799 Z-6.000 I18.800 J0.063 K0.000 F120.000
G1 X44.793 Y92.799 Z-6.500 F60.000
G2 X50.300 Y79.483 Z-6.500 I-13.293 J-13.293 K0.000 F120.000
G1 X50.300 Y49.013 Z-6.500 F120.000
G2 X34.491 Y30.537 Z-6.500 I-18.800 J0.085 K0.000 F120.000
G2 X12.700 Y49.013 Z-6.500 I-2.991 J18.561 K0.000 F120.000
G1 X12.700 Y79.443 Z-6.500 F120.000
G2 X44.793 Y92.799 Z-6.500 I18.800 J0.063 K0.000 F120.000
G1 X44.793 Y92.799 Z-7.000 F60.000
G2 X50.300 Y79.483 Z-7.000 I-13.293 J-13.293 K0.000 F120.000
G1 X50.300 Y49.013 Z-7.000 F120.000
G2 X34.491 Y30.537 Z-7.000 I-18.800 J0.085 K0.000 F120.000
G2 X12.700 Y49.013 Z-7.000 I-2.991 J18.561 K0.000 F120.000
G1 X12.700 Y79.443 Z-7.000 F120.000
G2 X44.793 Y92.799 Z-7.000 I18.800 J0.063 K0.000 F120.000
G1 X44.793 Y92.799 Z-7.500 F60.000
G2 X50.300 Y79.483 Z-7.500 I-13.293 J-13.293 K0.000 F120.000
G1 X50.300 Y49.013 Z-7.500 F120.000
G2 X34.491 Y30.537 Z-7.500 I-18.800 J0.085 K0.000 F120.000
G2 X12.700 Y49.013 Z-7.500 I-2.991 J18.561 K0.000 F120.000
G1 X12.700 Y79.443 Z-7.500 F120.000
G2 X44.793 Y92.799 Z-7.500 I18.800 J0.063 K0.000 F120.000
G1 X44.793 Y92.799 Z-8.000 F60.000
G2 X50.300 Y79.483 Z-8.000 I-13.293 J-13.293 K0.000 F120.000
G1 X50.300 Y49.013 Z-8.000 F120.000
G2 X34.491 Y30.537 Z-8.000 I-18.800 J0.085 K0.000 F120.000
G2 X12.700 Y49.013 Z-8.000 I-2.991 J18.561 K0.000 F120.000
G1 X12.700 Y79.443 Z-8.000 F120.000
G2 X44.793 Y92.799 Z-8.000 I18.800 J0.063 K0.000 F120.000
G1 X44.793 Y92.799 Z-8.500 F60.000
G2 X50.300 Y79.483 Z-8.500 I-13.293 J-13.293 K0.000 F120.000
G1 X50.300 Y49.013 Z-8.500 F120.000
G2 X34.491 Y30.537 Z-8.500 I-18.800 J0.085 K0.000 F120.000
G2 X12.700 Y49.013 Z-8.500 I-2.991 J18.561 K0.000 F120.000
G1 X12.700 Y79.443 Z-8.500 F120.000
G2 X44.793 Y92.799 Z-8.500 I18.800 J0.063 K0.000 F120.000
G1 X44.793 Y92.799 Z-9.000 F60.000
G2 X50.300 Y79.483 Z-9.000 I-13.293 J-13.293 K0.000 F120.000
G1 X50.300 Y49.013 Z-9.000 F120.000
G2 X34.491 Y30.537 Z-9.000 I-18.800 J0.085 K0.000 F120.000
G2 X12.700 Y49.013 Z-9.000 I-2.991 J18.561 K0.000 F120.000
G1 X12.700 Y79.443 Z-9.000 F120.000
G2 X44.793 Y92.799 Z-9.000 I18.800 J0.063 K0.000 F120.000
G1 X44.793 Y92.799 Z-9.500 F60.000
G2 X50.300 Y79.483 Z-9.500 I-13.293 J-13.293 K0.000 F120.000
G1 X50.300 Y49.013 Z-9.500 F120.000
G2 X34.491 Y30.537 Z-9.500 I-18.800 J0.085 K0.000 F120.000
G2 X12.700 Y49.013 Z-9.500 I-2.991 J18.561 K0.000 F120.000
G1 X12.700 Y79.443 Z-9.500 F120.000
G2 X44.793 Y92.799 Z-9.500 I18.800 J0.063 K0.000 F120.000
G1 X44.793 Y92.799 Z-10.000 F60.000
G2 X50.300 Y79.483 Z-10.000 I-13.293 J-13.293 K0.000 F120.000
G1 X50.300 Y49.013 Z-10.000 F120.000
G2 X34.491 Y30.537 Z-10.000 I-18.800 J0.085 K0.000 F120.000
G2 X12.700 Y49.013 Z-10.000 I-2.991 J18.561 K0.000 F120.000
G1 X12.700 Y79.443 Z-10.000 F120.000
G2 X44.793 Y92.799 Z-10.000 I18.800 J0.063 K0.000 F120.000
G0 Z5.000
G0 Z5.000
G0 X44.793 Y92.799
G0 X60.727 Y94.535
G0 X60.727 Y94.535 Z3.000
G1 X60.727 Y94.535 Z-0.500 F60.000
G2 X65.022 Y99.300 Z-0.500 I4.274 J0.466 K0.000 F120.000
G1 X94.979 Y99.300 Z-0.500 F120.000
G2 X99.174 Y96.029 Z-0.500 I0.018 J-4.302 K0.000 F120.000
G2 X94.979 Y90.700 Z-0.500 I-4.176 J-1.028 K0.000 F120.000
G1 X65.022 Y90.700 Z-0.500 F120.000
G1 X64.461 Y90.735 Z-0.500 F120.000
G2 X60.727 Y94.535 Z-0.500 I0.540 J4.265 K0.000 F120.000
G1 X60.727 Y94.535 Z-1.000 F60.000
G2 X65.022 Y99.300 Z-1.000 I4.274 J0.466 K0.000 F120.000
G1 X94.979 Y99.300 Z-1.000 F120.000
G2 X99.174 Y96.029 Z-1.000 I0.018 J-4.302 K0.000 F120.000
G2 X94.979 Y90.700 Z-1.000 I-4.176 J-1.028 K0.000 F120.000
G1 X65.022 Y90.700 Z-1.000 F120.000
G1 X64.461 Y90.735 Z-1.000 F120.000
G2 X60.727 Y94.535 Z-1.000 I0.540 J4.265 K0.000 F120.000
G1 X60.727 Y94.535 Z-1.500 F60.000
G2 X65.022 Y99.300 Z-1.500 I4.274 J0.466 K0.000 F120.000
G1 X94.979 Y99.300 Z-1.500 F120.000
G2 X99.174 Y96.029 Z-1.500 I0.018 J-4.302 K0.000 F120.000
G2 X94.979 Y90.700 Z-1.500 I-4.176 J-1.028 K0.000 F120.000
G1 X65.022 Y90.700 Z-1.500 F120.000
G1 X64.461 Y90.735 Z-1.500 F120.000
G2 X60.727 Y94.535 Z-1.500 I0.540 J4.265 K0.000 F120.000
G1 X60.727 Y94.535 Z-2.000 F60.000
G2 X65.022 Y99.300 Z-2.000 I4.274 J0.466 K0.000 F120.000
G1 X94.979 Y99.300 Z-2.000 F120.000
G2 X99.174 Y96.029 Z-2.000 I0.018 J-4.302 K0.000 F120.000
G2 X94.979 Y90.700 Z-2.000 I-4.176 J-1.028 K0.000 F120.000
G1 X65.022 Y90.700 Z-2.000 F120.000
G1 X64.461 Y90.735 Z-2.000 F120.000
G2 X60.727 Y94.535 Z-2.000 I0.540 J4.265 K0.000 F120.000
G1 X60.727 Y94.535 Z-2.500 F60.000
G2 X65.022 Y99.300 Z-2.500 I4.274 J0.466 K0.000 F120.000
G1 X94.979 Y99.300 Z-2.500 F120.000
G2 X99.174 Y96.029 Z-2.500 I0.018 J-4.302 K0.000 F120.000
G2 X94.979 Y90.700 Z-2.500 I-4.176 J-1.028 K0.000 F120.000
G1 X65.022 Y90.700 Z-2.500 F120.000
G1 X64.461 Y90.735 Z-2.500 F120.000
G2 X60.727 Y94.535 Z-2.500 I0.540 J4.265 K0.000 F120.000
G1 X60.727 Y94.535 Z-3.000 F60.000
G2 X65.022 Y99.300 Z-3.000 I4.274 J0.466 K0.000 F120.000
G1 X94.979 Y99.300 Z-3.000 F120.000
G2 X99.174 Y96.029 Z-3.000 I0.018 J-4.302 K0.000 F120.000
G2 X94.979 Y90.700 Z-3.000 I-4.176 J-1.028 K0.000 F120.000
G1 X65.022 Y90.700 Z-3.000 F120.000
G1 X64.461 Y90.735 Z-3.000 F120.000
G2 X60.727 Y94.535 Z-3.000 I0.540 J4.265 K0.000 F120.000
G1 X60.727 Y94.535 Z-3.500 F60.000
G2 X65.022 Y99.300 Z-3.500 I4.274 J0.466 K0.000 F120.000
G1 X94.979 Y99.300 Z-3.500 F120.000
G2 X99.174 Y96.029 Z-3.500 I0.018 J-4.302 K0.000 F120.000
G2 X94.979 Y90.700 Z-3.500 I-4.176 J-1.028 K0.000 F120.000
G1 X65.022 Y90.700 Z-3.500 F120.000
G1 X64.461 Y90.735 Z-3.500 F120.000
G2 X60.727 Y94.535 Z-3.500 I0.540 J4.265 K0.000 F120.000
G1 X60.727 Y94.535 Z-4.000 F60.000
G2 X65.022 Y99.300 Z-4.000 I4.274 J0.466 K0.000 F120.000
G1 X94.979 Y99.300 Z-4.000 F120.000
G2 X99.174 Y96.029 Z-4.000 I0.018 J-4.302 K0.000 F120.000
G2 X94.979 Y90.700 Z-4.000 I-4.176 J-1.028 K0.000 F120.000
G1 X65.022 Y90.700 Z-4.000 F120.000
G1 X64.461 Y90.735 Z-4.000 F120.000
G2 X60.727 Y94.535 Z-4.000 I0.540 J4.265 K0.000 F120.000
G1 X60.727 Y94.535 Z-4.500 F60.000
G2 X65.022 Y99.300 Z-4.500 I4.274 J0.466 K0.000 F120.000
G1 X94.979 Y99.300 Z-4.500 F120.000
G2 X99.174 Y96.029 Z-4.500 I0.018 J-4.302 K0.000 F120.000
G2 X94.979 Y90.700 Z-4.500 I-4.176 J-1.028 K0.000 F120.000
G1 X65.022 Y90.700 Z-4.500 F120.000
G1 X64.461 Y90.735 Z-4.500 F120.000
G2 X60.727 Y94.535 Z-4.500 I0.540 J4.265 K0.000 F120.000
G1 X60.727 Y94.535 Z-5.000 F60.000
G2 X65.022 Y99.300 Z-5.000 I4.274 J0.466 K0.000 F120.000
G1 X94.979 Y99.300 Z-5.000 F120.000
G2 X99.174 Y96.029 Z-5.000 I0.018 J-4.302 K0.000 F120.000
G2 X94.979 Y90.700 Z-5.000 I-4.176 J-1.028 K0.000 F120.000
G1 X65.022 Y90.700 Z-5.000 F120.000
G1 X64.461 Y90.735 Z-5.000 F120.000
G2 X60.727 Y94.535 Z-5.000 I0.540 J4.265 K0.000 F120.000
G1 X60.727 Y94.535 Z-5.500 F60.000
G2 X65.022 Y99.300 Z-5.500 I4.274 J0.466 K0.000 F120.000
G1 X94.979 Y99.300 Z-5.500 F120.000
G2 X99.174 Y96.029 Z-5.500 I0.018 J-4.302 K0.000 F120.000
G2 X94.979 Y90.700 Z-5.500 I-4.176 J-1.028 K0.000 F120.000
G1 X65.022 Y90.700 Z-5.500 F120.000
G1 X64.461 Y90.735 Z-5.500 F120.000
G2 X60.727 Y94.535 Z-5.500 I0.540 J4.265 K0.000 F120.000
G1 X60.727 Y94.535 Z-6.000 F60.000
G2 X65.022 Y99.300 Z-6.000 I4.274 J0.466 K0.000 F120.000
G1 X94.979 Y99.300 Z-6.000 F120.000
G2 X99.174 Y96.029 Z-6.000 I0.018 J-4.302 K0.000 F120.000
G2 X94.979 Y90.700 Z-6.000 I-4.176 J-1.028 K0.000 F120.000
G1 X65.022 Y90.700 Z-6.000 F120.000
G1 X64.461 Y90.735 Z-6.000 F120.000
G2 X60.727 Y94.535 Z-6.000 I0.540 J4.265 K0.000 F120.000
G1 X60.727 Y94.535 Z-6.500 F60.000
G2 X65.022 Y99.300 Z-6.500 I4.274 J0.466 K0.000 F120.000
G1 X94.979 Y99.300 Z-6.500 F120.000
G2 X99.174 Y96.029 Z-6.500 I0.018 J-4.302 K0.000 F120.000
G2 X94.979 Y90.700 Z-6.500 I-4.176 J-1.028 K0.000 F120.000
G1 X65.022 Y90.700 Z-6.500 F120.000
G1 X64.461 Y90.735 Z-6.500 F120.000
G2 X60.727 Y94.535 Z-6.500 I0.540 J4.265 K0.000 F120.000
G1 X60.727 Y94.535 Z-7.000 F60.000
G2 X65.022 Y99.300 Z-7.000 I4.274 J0.466 K0.000 F120.000
G1 X94.979 Y99.300 Z-7.000 F120.000
G2 X99.174 Y96.029 Z-7.000 I0.018 J-4.302 K0.000 F120.000
G2 X94.979 Y90.700 Z-7.000 I-4.176 J-1.028 K0.000 F120.000
G1 X65.022 Y90.700 Z-7.000 F120.000
G1 X64.461 Y90.735 Z-7.000 F120.000
G2 X60.727 Y94.535 Z-7.000 I0.540 J4.265 K0.000 F120.000
G1 X60.727 Y94.535 Z-7.500 F60.000
G2 X65.022 Y99.300 Z-7.500 I4.274 J0.466 K0.000 F120.000
G1 X94.979 Y99.300 Z-7.500 F120.000
G2 X99.174 Y96.029 Z-7.500 I0.018 J-4.302 K0.000 F120.000
G2 X94.979 Y90.700 Z-7.500 I-4.176 J-1.028 K0.000 F120.000
G1 X65.022 Y90.700 Z-7.500 F120.000
G1 X64.461 Y90.735 Z-7.500 F120.000
G2 X60.727 Y94.535 Z-7.500 I0.540 J4.265 K0.000 F120.000
G1 X60.727 Y94.535 Z-8.000 F60.000
G2 X65.022 Y99.300 Z-8.000 I4.274 J0.466 K0.000 F120.000
G1 X94.979 Y99.300 Z-8.000 F120.000
G2 X99.174 Y96.029 Z-8.000 I0.018 J-4.302 K0.000 F120.000
G2 X94.979 Y90.700 Z-8.000 I-4.176 J-1.028 K0.000 F120.000
G1 X65.022 Y90.700 Z-8.000 F120.000
G1 X64.461 Y90.735 Z-8.000 F120.000
G2 X60.727 Y94.535 Z-8.000 I0.540 J4.265 K0.000 F120.000
G1 X60.727 Y94.535 Z-8.500 F60.000
G2 X65.022 Y99.300 Z-8.500 I4.274 J0.466 K0.000 F120.000
G1 X94.979 Y99.300 Z-8.500 F120.000
G2 X99.174 Y96.029 Z-8.500 I0.018 J-4.302 K0.000 F120.000
G2 X94.979 Y90.700 Z-8.500 I-4.176 J-1.028 K0.000 F120.000
G1 X65.022 Y90.700 Z-8.500 F120.000
G1 X64.461 Y90.735 Z-8.500 F120.000
G2 X60.727 Y94.535 Z-8.500 I0.540 J4.265 K0.000 F120.000
G1 X60.727 Y94.535 Z-9.000 F60.000
G2 X65.022 Y99.300 Z-9.000 I4.274 J0.466 K0.000 F120.000
G1 X94.979 Y99.300 Z-9.000 F120.000
G2 X99.174 Y96.029 Z-9.000 I0.018 J-4.302 K0.000 F120.000
G2 X94.979 Y90.700 Z-9.000 I-4.176 J-1.028 K0.000 F120.000
G1 X65.022 Y90.700 Z-9.000 F120.000
G1 X64.461 Y90.735 Z-9.000 F120.000
G2 X60.727 Y94.535 Z-9.000 I0.540 J4.265 K0.000 F120.000
G1 X60.727 Y94.535 Z-9.500 F60.000
G2 X65.022 Y99.300 Z-9.500 I4.274 J0.466 K0.000 F120.000
G1 X94.979 Y99.300 Z-9.500 F120.000
G2 X99.174 Y96.029 Z-9.500 I0.018 J-4.302 K0.000 F120.000
G2 X94.979 Y90.700 Z-9.500 I-4.176 J-1.028 K0.000 F120.000
G1 X65.022 Y90.700 Z-9.500 F120.000
G1 X64.461 Y90.735 Z-9.500 F120.000
G2 X60.727 Y94.535 Z-9.500 I0.540 J4.265 K0.000 F120.000
G1 X60.727 Y94.535 Z-10.000 F60.000
G2 X65.022 Y99.300 Z-10.000 I4.274 J0.466 K0.000 F120.000
G1 X94.979 Y99.300 Z-10.000 F120.000
G2 X99.174 Y96.029 Z-10.000 I0.018 J-4.302 K0.000 F120.000
G2 X94.979 Y90.700 Z-10.000 I-4.176 J-1.028 K0.000 F120.000
G1 X65.022 Y90.700 Z-10.000 F120.000
G1 X64.461 Y90.735 Z-10.000 F120.000
G2 X60.727 Y94.535 Z-10.000 I0.540 J4.265 K0.000 F120.000
G0 Z5.000
G0 Z5.000
G0 X60.727 Y94.535
G0 X110.146 Y83.576
G0 X110.146 Y83.576 Z3.000
G1 X110.146 Y83.576 Z-0.500 F60.000
G2 X147.300 Y79.443 Z-0.500 I18.354 J-4.070 K0.000 F120.000
G1 X147.300 Y49.013 Z-0.500 F120.000
G2 X131.491 Y30.537 Z-0.500 I-18.800 J0.085 K0.000 F120.000
G2 X109.700 Y49.013 Z-0.500 I-2.991 J18.561 K0.000 F120.000
G1 X109.700 Y79.483 Z-0.500 F120.000
G2 X110.146 Y83.576 Z-0.500 I18.800 J0.023 K0.000 F120.000
G1 X110.146 Y83.576 Z-1.000 F60.000
G2 X147.300 Y79.443 Z-1.000 I18.354 J-4.070 K0.000 F120.000
G1 X147.300 Y49.013 Z-1.000 F120.000
G2 X131.491 Y30.537 Z-1.000 I-18.800 J0.085 K0.000 F120.000
G2 X109.700 Y49.013 Z-1.000 I-2.991 J18.561 K0.000 F120.000
G1 X109.700 Y79.483 Z-1.000 F120.000
G2 X110.146 Y83.576 Z-1.000 I18.800 J0.023 K0.000 F120.000
G1 X110.146 Y83.576 Z-1.500 F60.000
G2 X147.300 Y79.443 Z-1.500 I18.354 J-4.070 K0.000 F120.000
G1 X147.300 Y49.013 Z-1.500 F120.000
G2 X131.491 Y30.537 Z-1.500 I-18.800 J0.085 K0.000 F120.000
G2 X109.700 Y49.013 Z-1.500 I-2.991 J18.561 K0.000 F120.000
G1 X109.700 Y79.483 Z-1.500 F120.000
G2 X110.146 Y83.576 Z-1.500 I18.800 J0.023 K0.000 F120.000
G1 X110.146 Y83.576 Z-2.000 F60.000
G2 X147.300 Y79.443 Z-2.000 I18.354 J-4.070 K0.000 F120.000
G1 X147.300 Y49.013 Z-2.000 F120.000
G2 X131.491 Y30.537 Z-2.000 I-18.800 J0.085 K0.000 F120.000
G2 X109.700 Y49.013 Z-2.000 I-2.991 J18.561 K0.000 F120.000
G1 X109.700 Y79.483 Z-2.000 F120.000
G2 X110.146 Y83.576 Z-2.000 I18.800 J0.023 K0.000 F120.000
G1 X110.146 Y83.576 Z-2.500 F60.000
G2 X147.300 Y79.443 Z-2.500 I18.354 J-4.070 K0.000 F120.000
G1 X147.300 Y49.013 Z-2.500 F120.000
G2 X131.491 Y30.537 Z-2.500 I-18.800 J0.085 K0.000 F120.000
G2 X109.700 Y49.013 Z-2.500 I-2.991 J18.561 K0.000 F120.000
G1 X109.700 Y79.483 Z-2.500 F120.000
G2 X110.146 Y83.576 Z-2.500 I18.800 J0.023 K0.000 F120.000
G1 X110.146 Y83.576 Z-3.000 F60.000
G2 X147.300 Y79.443 Z-3.000 I18.354 J-4.070 K0.000 F120.000
G1 X147.300 Y49.013 Z-3.000 F120.000
G2 X131.491 Y30.537 Z-3.000 I-18.800 J0.085 K0.000 F120.000
G2 X109.700 Y49.013 Z-3.000 I-2.991 J18.561 K0.000 F120.000
G1 X109.700 Y79.483 Z-3.000 F120.000
G2 X110.146 Y83.576 Z-3.000 I18.800 J0.023 K0.000 F120.000
G1 X110.146 Y83.576 Z-3.500 F60.000
G2 X147.300 Y79.443 Z-3.500 I18.354 J-4.070 K0.000 F120.000
G1 X147.300 Y49.013 Z-3.500 F120.000
G2 X131.491 Y30.537 Z-3.500 I-18.800 J0.085 K0.000 F120.000
G2 X109.700 Y49.013 Z-3.500 I-2.991 J18.561 K0.000 F120.000
G1 X109.700 Y79.483 Z-3.500 F120.000
G2 X110.146 Y83.576 Z-3.500 I18.800 J0.023 K0.000 F120.000
G1 X110.146 Y83.576 Z-4.000 F60.000
G2 X147.300 Y79.443 Z-4.000 I18.354 J-4.070 K0.000 F120.000
G1 X147.300 Y49.013 Z-4.000 F120.000
G2 X131.491 Y30.537 Z-4.000 I-18.800 J0.085 K0.000 F120.000
G2 X109.700 Y49.013 Z-4.000 I-2.991 J18.561 K0.000 F120.000
G1 X109.700 Y79.483 Z-4.000 F120.000
G2 X110.146 Y83.576 Z-4.000 I18.800 J0.023 K0.000 F120.000
G1 X110.146 Y83.576 Z-4.500 F60.000
G2 X147.300 Y79.443 Z-4.500 I18.354 J-4.070 K0.000 F120.000
G1 X147.300 Y49.013 Z-4.500 F120.000
G2 X131.491 Y30.537 Z-4.500 I-18.800 J0.085 K0.000 F120.000
G2 X109.700 Y49.013 Z-4.500 I-2.991 J18.561 K0.000 F120.000
G1 X109.700 Y79.483 Z-4.500 F120.000
G2 X110.146 Y83.576 Z-4.500 I18.800 J0.023 K0.000 F120.000
G1 X110.146 Y83.576 Z-5.000 F60.000
G2 X147.300 Y79.443 Z-5.000 I18.354 J-4.070 K0.000 F120.000
G1 X147.300 Y49.013 Z-5.000 F120.000
G2 X131.491 Y30.537 Z-5.000 I-18.800 J0.085 K0.000 F120.000
G2 X109.700 Y49.013 Z-5.000 I-2.991 J18.561 K0.000 F120.000
G1 X109.700 Y79.483 Z-5.000 F120.000
G2 X110.146 Y83.576 Z-5.000 I18.800 J0.023 K0.000 F120.000
G1 X110.146 Y83.576 Z-5.500 F60.000
G2 X147.300 Y79.443 Z-5.500 I18.354 J-4.070 K0.000 F120.000
G1 X147.300 Y49.013 Z-5.500 F120.000
G2 X131.491 Y30.537 Z-5.500 I-18.800 J0.085 K0.000 F120.000
G2 X109.700 Y49.013 Z-5.500 I-2.991 J18.561 K0.000 F120.000
G1 X109.700 Y79.483 Z-5.500 F120.000
G2 X110.146 Y83.576 Z-5.500 I18.800 J0.023 K0.000 F120.000
G1 X110.146 Y83.576 Z-6.000 F60.000
G2 X147.300 Y79.443 Z-6.000 I18.354 J-4.070 K0.000 F120.000
G1 X147.300 Y49.013 Z-6.000 F120.000
G2 X131.491 Y30.537 Z-6.000 I-18.800 J0.085 K0.000 F120.000
G2 X109.700 Y49.013 Z-6.000 I-2.991 J18.561 K0.000 F120.000
G1 X109.700 Y79.483 Z-6.000 F120.000
G2 X110.146 Y83.576 Z-6.000 I18.800 J0.023 K0.000 F120.000
G1 X110.146 Y83.576 Z-6.500 F60.000
G2 X147.300 Y79.443 Z-6.500 I18.354 J-4.070 K0.000 F120.000
G1 X147.300 Y49.013 Z-6.500 F120.000
G2 X131.491 Y30.537 Z-6.500 I-18.800 J0.085 K0.000 F120.000
G2 X109.700 Y49.013 Z-6.500 I-2.991 J18.561 K0.000 F120.000
G1 X109.700 Y79.483 Z-6.500 F120.000
G2 X110.146 Y83.576 Z-6.500 I18.800 J0.023 K0.000 F120.000
G1 X110.146 Y83.576 Z-7.000 F60.000
G2 X147.300 Y79.443 Z-7.000 I18.354 J-4.070 K0.000 F120.000
G1 X147.300 Y49.013 Z-7.000 F120.000
G2 X131.491 Y30.537 Z-7.000 I-18.800 J0.085 K0.000 F120.000
G2 X109.700 Y49.013 Z-7.000 I-2.991 J18.561 K0.000 F120.000
G1 X109.700 Y79.483 Z-7.000 F120.000
G2 X110.146 Y83.576 Z-7.000 I18.800 J0.023 K0.000 F120.000
G1 X110.146 Y83.576 Z-7.500 F60.000
G2 X147.300 Y79.443 Z-7.500 I18.354 J-4.070 K0.000 F120.000
G1 X147.300 Y49.013 Z-7.500 F120.000
G2 X131.491 Y30.537 Z-7.500 I-18.800 J0.085 K0.000 F120.000
G2 X109.700 Y49.013 Z-7.500 I-2.991 J18.561 K0.000 F120.000
G1 X109.700 Y79.483 Z-7.500 F120.000
G2 X110.146 Y83.576 Z-7.500 I18.800 J0.023 K0.000 F120.000
G1 X110.146 Y83.576 Z-8.000 F60.000
G2 X147.300 Y79.443 Z-8.000 I18.354 J-4.070 K0.000 F120.000
G1 X147.300 Y49.013 Z-8.000 F120.000
G2 X131.491 Y30.537 Z-8.000 I-18.800 J0.085 K0.000 F120.000
G2 X109.700 Y49.013 Z-8.000 I-2.991 J18.561 K0.000 F120.000
G1 X109.700 Y79.483 Z-8.000 F120.000
G2 X110.146 Y83.576 Z-8.000 I18.800 J0.023 K0.000 F120.000
G1 X110.146 Y83.576 Z-8.500 F60.000
G2 X147.300 Y79.443 Z-8.500 I18.354 J-4.070 K0.000 F120.000
G1 X147.300 Y49.013 Z-8.500 F120.000
G2 X131.491 Y30.537 Z-8.500 I-18.800 J0.085 K0.000 F120.000
G2 X109.700 Y49.013 Z-8.500 I-2.991 J18.561 K0.000 F120.000
G1 X109.700 Y79.483 Z-8.500 F120.000
G2 X110.146 Y83.576 Z-8.500 I18.800 J0.023 K0.000 F120.000
G1 X110.146 Y83.576 Z-9.000 F60.000
G2 X147.300 Y79.443 Z-9.000 I18.354 J-4.070 K0.000 F120.000
G1 X147.300 Y49.013 Z-9.000 F120.000
G2 X131.491 Y30.537 Z-9.000 I-18.800 J0.085 K0.000 F120.000
G2 X109.700 Y49.013 Z-9.000 I-2.991 J18.561 K0.000 F120.000
G1 X109.700 Y79.483 Z-9.000 F120.000
G2 X110.146 Y83.576 Z-9.000 I18.800 J0.023 K0.000 F120.000
G1 X110.146 Y83.576 Z-9.500 F60.000
G2 X147.300 Y79.443 Z-9.500 I18.354 J-4.070 K0.000 F120.000
G1 X147.300 Y49.013 Z-9.500 F120.000
G2 X131.491 Y30.537 Z-9.500 I-18.800 J0.085 K0.000 F120.000
G2 X109.700 Y49.013 Z-9.500 I-2.991 J18.561 K0.000 F120.000
G1 X109.700 Y79.483 Z-9.500 F120.000
G2 X110.146 Y83.576 Z-9.500 I18.800 J0.023 K0.000 F120.000
G1 X110.146 Y83.576 Z-10.000 F60.000
G2 X147.300 Y79.443 Z-10.000 I18.354 J-4.070 K0.000 F120.000
G1 X147.300 Y49.013 Z-10.000 F120.000
G2 X131.491 Y30.537 Z-10.000 I-18.800 J0.085 K0.000 F120.000
G2 X109.700 Y49.013 Z-10.000 I-2.991 J18.561 K0.000 F120.000
G1 X109.700 Y79.483 Z-10.000 F120.000
G2 X110.146 Y83.576 Z-10.000 I18.800 J0.023 K0.000 F120.000
G0 Z5.000
G0 Z5.000
(Finish operation: Profile060)
(Begin operation: Profile065)
(Path: Profile065)
(Profile065)
(Compensated Tool Path. Diameter: 1.4)
G0 Z5.000
G0 X80.917 Y80.917
G0 Z3.000
G1 X80.917 Y80.917 Z-1.000 F60.000
G2 X81.198 Y80.496 Z-1.000 I-0.917 J-0.917 K0.000 F120.000
G2 X78.802 Y79.504 Z-1.000 I-1.198 J-0.496 K0.000 F120.000
G2 X80.917 Y80.917 Z-1.000 I1.198 J0.496 K0.000 F120.000
G1 X80.917 Y80.917 Z-2.000 F60.000
G2 X81.198 Y80.496 Z-2.000 I-0.917 J-0.917 K0.000 F120.000
G2 X78.802 Y79.504 Z-2.000 I-1.198 J-0.496 K0.000 F120.000
G2 X80.917 Y80.917 Z-2.000 I1.198 J0.496 K0.000 F120.000
G1 X80.917 Y80.917 Z-3.000 F60.000
G2 X81.198 Y80.496 Z-3.000 I-0.917 J-0.917 K0.000 F120.000
G2 X78.802 Y79.504 Z-3.000 I-1.198 J-0.496 K0.000 F120.000
G2 X80.917 Y80.917 Z-3.000 I1.198 J0.496 K0.000 F120.000
G1 X80.917 Y80.917 Z-4.000 F60.000
G2 X81.198 Y80.496 Z-4.000 I-0.917 J-0.917 K0.000 F120.000
G2 X78.802 Y79.504 Z-4.000 I-1.198 J-0.496 K0.000 F120.000
G2 X80.917 Y80.917 Z-4.000 I1.198 J0.496 K0.000 F120.000
G1 X80.917 Y80.917 Z-5.000 F60.000
G2 X81.198 Y80.496 Z-5.000 I-0.917 J-0.917 K0.000 F120.000
G2 X78.802 Y79.504 Z-5.000 I-1.198 J-0.496 K0.000 F120.000
G2 X80.917 Y80.917 Z-5.000 I1.198 J0.496 K0.000 F120.000
G1 X80.917 Y80.917 Z-6.000 F60.000
G2 X81.198 Y80.496 Z-6.000 I-0.917 J-0.917 K0.000 F120.000
G2 X78.802 Y79.504 Z-6.000 I-1.198 J-0.496 K0.000 F120.000
G2 X80.917 Y80.917 Z-6.000 I1.198 J0.496 K0.000 F120.000
G1 X80.917 Y80.917 Z-7.000 F60.000
G2 X81.198 Y80.496 Z-7.000 I-0.917 J-0.917 K0.000 F120.000
G2 X78.802 Y79.504 Z-7.000 I-1.198 J-0.496 K0.000 F120.000
G2 X80.917 Y80.917 Z-7.000 I1.198 J0.496 K0.000 F120.000
G1 X80.917 Y80.917 Z-8.000 F60.000
G2 X81.198 Y80.496 Z-8.000 I-0.917 J-0.917 K0.000 F120.000
G2 X78.802 Y79.504 Z-8.000 I-1.198 J-0.496 K0.000 F120.000
G2 X80.917 Y80.917 Z-8.000 I1.198 J0.496 K0.000 F120.000
G1 X80.917 Y80.917 Z-9.000 F60.000
G2 X81.198 Y80.496 Z-9.000 I-0.917 J-0.917 K0.000 F120.000
G2 X78.802 Y79.504 Z-9.000 I-1.198 J-0.496 K0.000 F120.000
G2 X80.917 Y80.917 Z-9.000 I1.198 J0.496 K0.000 F120.000
G1 X80.917 Y80.917 Z-10.000 F60.000
G2 X81.198 Y80.496 Z-10.000 I-0.917 J-0.917 K0.000 F120.000
G2 X78.802 Y79.504 Z-10.000 I-1.198 J-0.496 K0.000 F120.000
G2 X80.917 Y80.917 Z-10.000 I1.198 J0.496 K0.000 F120.000
G0 Z5.000
G0 Z5.000
(Finish operation: Profile065)
(Begin operation: Profile061)
(Path: Profile061)
(Profile061)
(Compensated Tool Path. Diameter: 1.4)
G0 Z5.000
G0 X160.199 Y110.200
G0 Z3.000
G1 X160.199 Y110.200 Z-0.500 F60.000
G2 X160.694 Y109.091 Z-0.500 I-1.205 J-1.203 K0.000 F120.000
G1 X160.700 Y1.000 Z-0.500 F120.000
G2 X159.091 Y-0.694 Z-0.500 I-1.703 J0.006 K0.000 F120.000
G1 X155.000 Y-0.700 Z-0.500 F120.000
G2 X154.505 Y-0.495 Z-0.500 I-0.000 J0.700 K0.000 F120.000
G1 X149.505 Y4.505 Z-0.500 F120.000
G2 X149.300 Y5.000 Z-0.500 I0.495 J0.495 K0.000 F120.000
G1 X149.300 Y6.000 Z-0.500 F120.000
G2 X150.000 Y6.700 Z-0.500 I0.700 J0.000 K0.000 F120.000
G1 X152.966 Y6.700 Z-0.500 F120.000
G1 X153.283 Y6.730 Z-0.500 F120.000
G3 X152.939 Y9.800 Z-0.500 I-0.292 J1.521 K0.000 F120.000
G1 X142.000 Y9.800 Z-0.500 F120.000
G2 X141.300 Y10.500 Z-0.500 I0.000 J0.700 K0.000 F120.000
G1 X141.300 Y21.966 Z-0.500 F120.000
G3 X139.966 Y23.300 Z-0.500 I-1.309 J0.026 K0.000 F120.000
G1 X20.025 Y23.221 Z-0.500 F120.000
G3 X18.700 Y21.963 Z-0.500 I-0.064 J-1.259 K0.000 F120.000
G1 X18.802 Y10.506 Z-0.500 F120.000
G2 X18.102 Y9.800 Z-0.500 I-0.700 J-0.006 K0.000 F120.000
G1 X7.033 Y9.800 Z-0.500 F120.000
G1 X6.717 Y9.770 Z-0.500 F120.000
G3 X7.034 Y6.700 Z-0.500 I0.288 J-1.522 K0.000 F120.000
G1 X10.000 Y6.700 Z-0.500 F120.000
G2 X10.700 Y6.000 Z-0.500 I-0.000 J-0.700 K0.000 F120.000
G1 X10.700 Y5.000 Z-0.500 F120.000
G2 X10.495 Y4.505 Z-0.500 I-0.700 J-0.000 K0.000 F120.000
G1 X5.495 Y-0.495 Z-0.500 F120.000
G2 X5.000 Y-0.700 Z-0.500 I-0.495 J0.495 K0.000 F120.000
G1 X1.000 Y-0.700 Z-0.500 F120.000
G2 X-0.694 Y0.909 Z-0.500 I0.006 J1.703 K0.000 F120.000
G1 X-0.700 Y109.000 Z-0.500 F120.000
G2 X0.909 Y110.694 Z-0.500 I1.703 J-0.006 K0.000 F120.000
G1 X159.000 Y110.700 Z-0.500 F120.000
G2 X160.199 Y110.200 Z-0.500 I-0.006 J-1.703 K0.000 F120.000
G1 X160.199 Y110.200 Z-1.000 F60.000
G2 X160.694 Y109.091 Z-1.000 I-1.205 J-1.203 K0.000 F120.000
G1 X160.700 Y1.000 Z-1.000 F120.000
G2 X159.091 Y-0.694 Z-1.000 I-1.703 J0.006 K0.000 F120.000
G1 X155.000 Y-0.700 Z-1.000 F120.000
G2 X154.505 Y-0.495 Z-1.000 I-0.000 J0.700 K0.000 F120.000
G1 X149.505 Y4.505 Z-1.000 F120.000
G2 X149.300 Y5.000 Z-1.000 I0.495 J0.495 K0.000 F120.000
G1 X149.300 Y6.000 Z-1.000 F120.000
G2 X150.000 Y6.700 Z-1.000 I0.700 J0.000 K0.000 F120.000
G1 X152.966 Y6.700 Z-1.000 F120.000
G1 X153.283 Y6.730 Z-1.000 F120.000
G3 X152.939 Y9.800 Z-1.000 I-0.292 J1.521 K0.000 F120.000
G1 X142.000 Y9.800 Z-1.000 F120.000
G2 X141.300 Y10.500 Z-1.000 I0.000 J0.700 K0.000 F120.000
G1 X141.300 Y21.966 Z-1.000 F120.000
G3 X139.966 Y23.300 Z-1.000 I-1.309 J0.026 K0.000 F120.000
G1 X20.025 Y23.221 Z-1.000 F120.000
G3 X18.700 Y21.963 Z-1.000 I-0.064 J-1.259 K0.000 F120.000
G1 X18.802 Y10.506 Z-1.000 F120.000
G2 X18.102 Y9.800 Z-1.000 I-0.700 J-0.006 K0.000 F120.000
G1 X7.033 Y9.800 Z-1.000 F120.000
G1 X6.717 Y9.770 Z-1.000 F120.000
G3 X7.034 Y6.700 Z-1.000 I0.288 J-1.522 K0.000 F120.000
G1 X10.000 Y6.700 Z-1.000 F120.000
G2 X10.700 Y6.000 Z-1.000 I-0.000 J-0.700 K0.000 F120.000
G1 X10.700 Y5.000 Z-1.000 F120.000
G2 X10.495 Y4.505 Z-1.000 I-0.700 J-0.000 K0.000 F120.000
G1 X5.495 Y-0.495 Z-1.000 F120.000
G2 X5.000 Y-0.700 Z-1.000 I-0.495 J0.495 K0.000 F120.000
G1 X1.000 Y-0.700 Z-1.000 F120.000
G2 X-0.694 Y0.909 Z-1.000 I0.006 J1.703 K0.000 F120.000
G1 X-0.700 Y109.000 Z-1.000 F120.000
G2 X0.909 Y110.694 Z-1.000 I1.703 J-0.006 K0.000 F120.000
G1 X159.000 Y110.700 Z-1.000 F120.000
G2 X160.199 Y110.200 Z-1.000 I-0.006 J-1.703 K0.000 F120.000
G1 X160.199 Y110.200 Z-1.500 F60.000
G2 X160.694 Y109.091 Z-1.500 I-1.205 J-1.203 K0.000 F120.000
G1 X160.700 Y1.000 Z-1.500 F120.000
G2 X159.091 Y-0.694 Z-1.500 I-1.703 J0.006 K0.000 F120.000
G1 X155.000 Y-0.700 Z-1.500 F120.000
G2 X154.505 Y-0.495 Z-1.500 I-0.000 J0.700 K0.000 F120.000
G1 X149.505 Y4.505 Z-1.500 F120.000
G2 X149.300 Y5.000 Z-1.500 I0.495 J0.495 K0.000 F120.000
G1 X149.300 Y6.000 Z-1.500 F120.000
G2 X150.000 Y6.700 Z-1.500 I0.700 J0.000 K0.000 F120.000
G1 X152.966 Y6.700 Z-1.500 F120.000
G1 X153.283 Y6.730 Z-1.500 F120.000
G3 X152.939 Y9.800 Z-1.500 I-0.292 J1.521 K0.000 F120.000
G1 X142.000 Y9.800 Z-1.500 F120.000
G2 X141.300 Y10.500 Z-1.500 I0.000 J0.700 K0.000 F120.000
G1 X141.300 Y21.966 Z-1.500 F120.000
G3 X139.966 Y23.300 Z-1.500 I-1.309 J0.026 K0.000 F120.000
G1 X20.025 Y23.221 Z-1.500 F120.000
G3 X18.700 Y21.963 Z-1.500 I-0.064 J-1.259 K0.000 F120.000
G1 X18.802 Y10.506 Z-1.500 F120.000
G2 X18.102 Y9.800 Z-1.500 I-0.700 J-0.006 K0.000 F120.000
G1 X7.033 Y9.800 Z-1.500 F120.000
G1 X6.717 Y9.770 Z-1.500 F120.000
G3 X7.034 Y6.700 Z-1.500 I0.288 J-1.522 K0.000 F120.000
G1 X10.000 Y6.700 Z-1.500 F120.000
G2 X10.700 Y6.000 Z-1.500 I-0.000 J-0.700 K0.000 F120.000
G1 X10.700 Y5.000 Z-1.500 F120.000
G2 X10.495 Y4.505 Z-1.500 I-0.700 J-0.000 K0.000 F120.000
G1 X5.495 Y-0.495 Z-1.500 F120.000
G2 X5.000 Y-0.700 Z-1.500 I-0.495 J0.495 K0.000 F120.000
G1 X1.000 Y-0.700 Z-1.500 F120.000
G2 X-0.694 Y0.909 Z-1.500 I0.006 J1.703 K0.000 F120.000
G1 X-0.700 Y109.000 Z-1.500 F120.000
G2 X0.909 Y110.694 Z-1.500 I1.703 J-0.006 K0.000 F120.000
G1 X159.000 Y110.700 Z-1.500 F120.000
G2 X160.199 Y110.200 Z-1.500 I-0.006 J-1.703 K0.000 F120.000
G1 X160.199 Y110.200 Z-2.000 F60.000
G2 X160.694 Y109.091 Z-2.000 I-1.205 J-1.203 K0.000 F120.000
G1 X160.700 Y1.000 Z-2.000 F120.000
G2 X159.091 Y-0.694 Z-2.000 I-1.703 J0.006 K0.000 F120.000
G1 X155.000 Y-0.700 Z-2.000 F120.000
G2 X154.505 Y-0.495 Z-2.000 I-0.000 J0.700 K0.000 F120.000
G1 X149.505 Y4.505 Z-2.000 F120.000
G2 X149.300 Y5.000 Z-2.000 I0.495 J0.495 K0.000 F120.000
G1 X149.300 Y6.000 Z-2.000 F120.000
G2 X150.000 Y6.700 Z-2.000 I0.700 J0.000 K0.000 F120.000
G1 X152.966 Y6.700 Z-2.000 F120.000
G1 X153.283 Y6.730 Z-2.000 F120.000
G3 X152.939 Y9.800 Z-2.000 I-0.292 J1.521 K0.000 F120.000
G1 X142.000 Y9.800 Z-2.000 F120.000
G2 X141.300 Y10.500 Z-2.000 I0.000 J0.700 K0.000 F120.000
G1 X141.300 Y21.966 Z-2.000 F120.000
G3 X139.966 Y23.300 Z-2.000 I-1.309 J0.026 K0.000 F120.000
G1 X20.025 Y23.221 Z-2.000 F120.000
G3 X18.700 Y21.963 Z-2.000 I-0.064 J-1.259 K0.000 F120.000
G1 X18.802 Y10.506 Z-2.000 F120.000
G2 X18.102 Y9.800 Z-2.000 I-0.700 J-0.006 K0.000 F120.000
G1 X7.033 Y9.800 Z-2.000 F120.000
G1 X6.717 Y9.770 Z-2.000 F120.000
G3 X7.034 Y6.700 Z-2.000 I0.288 J-1.522 K0.000 F120.000
G1 X10.000 Y6.700 Z-2.000 F120.000
G2 X10.700 Y6.000 Z-2.000 I-0.000 J-0.700 K0.000 F120.000
G1 X10.700 Y5.000 Z-2.000 F120.000
G2 X10.495 Y4.505 Z-2.000 I-0.700 J-0.000 K0.000 F120.000
G1 X5.495 Y-0.495 Z-2.000 F120.000
G2 X5.000 Y-0.700 Z-2.000 I-0.495 J0.495 K0.000 F120.000
G1 X1.000 Y-0.700 Z-2.000 F120.000
G2 X-0.694 Y0.909 Z-2.000 I0.006 J1.703 K0.000 F120.000
G1 X-0.700 Y109.000 Z-2.000 F120.000
G2 X0.909 Y110.694 Z-2.000 I1.703 J-0.006 K0.000 F120.000
G1 X159.000 Y110.700 Z-2.000 F120.000
G2 X160.199 Y110.200 Z-2.000 I-0.006 J-1.703 K0.000 F120.000
G1 X160.199 Y110.200 Z-2.500 F60.000
G2 X160.694 Y109.091 Z-2.500 I-1.205 J-1.203 K0.000 F120.000
G1 X160.700 Y1.000 Z-2.500 F120.000
G2 X159.091 Y-0.694 Z-2.500 I-1.703 J0.006 K0.000 F120.000
G1 X155.000 Y-0.700 Z-2.500 F120.000
G2 X154.505 Y-0.495 Z-2.500 I-0.000 J0.700 K0.000 F120.000
G1 X149.505 Y4.505 Z-2.500 F120.000
G2 X149.300 Y5.000 Z-2.500 I0.495 J0.495 K0.000 F120.000
G1 X149.300 Y6.000 Z-2.500 F120.000
G2 X150.000 Y6.700 Z-2.500 I0.700 J0.000 K0.000 F120.000
G1 X152.966 Y6.700 Z-2.500 F120.000
G1 X153.283 Y6.730 Z-2.500 F120.000
G3 X152.939 Y9.800 Z-2.500 I-0.292 J1.521 K0.000 F120.000
G1 X142.000 Y9.800 Z-2.500 F120.000
G2 X141.300 Y10.500 Z-2.500 I0.000 J0.700 K0.000 F120.000
G1 X141.300 Y21.966 Z-2.500 F120.000
G3 X139.966 Y23.300 Z-2.500 I-1.309 J0.026 K0.000 F120.000
G1 X20.025 Y23.221 Z-2.500 F120.000
G3 X18.700 Y21.963 Z-2.500 I-0.064 J-1.259 K0.000 F120.000
G1 X18.802 Y10.506 Z-2.500 F120.000
G2 X18.102 Y9.800 Z-2.500 I-0.700 J-0.006 K0.000 F120.000
G1 X7.033 Y9.800 Z-2.500 F120.000
G1 X6.717 Y9.770 Z-2.500 F120.000
G3 X7.034 Y6.700 Z-2.500 I0.288 J-1.522 K0.000 F120.000
G1 X10.000 Y6.700 Z-2.500 F120.000
G2 X10.700 Y6.000 Z-2.500 I-0.000 J-0.700 K0.000 F120.000
G1 X10.700 Y5.000 Z-2.500 F120.000
G2 X10.495 Y4.505 Z-2.500 I-0.700 J-0.000 K0.000 F120.000
G1 X5.495 Y-0.495 Z-2.500 F120.000
G2 X5.000 Y-0.700 Z-2.500 I-0.495 J0.495 K0.000 F120.000
G1 X1.000 Y-0.700 Z-2.500 F120.000
G2 X-0.694 Y0.909 Z-2.500 I0.006 J1.703 K0.000 F120.000
G1 X-0.700 Y109.000 Z-2.500 F120.000
G2 X0.909 Y110.694 Z-2.500 I1.703 J-0.006 K0.000 F120.000
G1 X159.000 Y110.700 Z-2.500 F120.000
G2 X160.199 Y110.200 Z-2.500 I-0.006 J-1.703 K0.000 F120.000
G1 X160.199 Y110.200 Z-3.000 F60.000
G2 X160.694 Y109.091 Z-3.000 I-1.205 J-1.203 K0.000 F120.000
G1 X160.700 Y1.000 Z-3.000 F120.000
G2 X159.091 Y-0.694 Z-3.000 I-1.703 J0.006 K0.000 F120.000
G1 X155.000 Y-0.700 Z-3.000 F120.000
G2 X154.505 Y-0.495 Z-3.000 I-0.000 J0.700 K0.000 F120.000
G1 X149.505 Y4.505 Z-3.000 F120.000
G2 X149.300 Y5.000 Z-3.000 I0.495 J0.495 K0.000 F120.000
G1 X149.300 Y6.000 Z-3.000 F120.000
G2 X150.000 Y6.700 Z-3.000 I0.700 J0.000 K0.000 F120.000
G1 X152.966 Y6.700 Z-3.000 F120.000
G1 X153.283 Y6.730 Z-3.000 F120.000
G3 X152.939 Y9.800 Z-3.000 I-0.292 J1.521 K0.000 F120.000
G1 X142.000 Y9.800 Z-3.000 F120.000
G2 X141.300 Y10.500 Z-3.000 I0.000 J0.700 K0.000 F120.000
G1 X141.300 Y21.966 Z-3.000 F120.000
G3 X139.966 Y23.300 Z-3.000 I-1.309 J0.026 K0.000 F120.000
G1 X20.025 Y23.221 Z-3.000 F120.000
G3 X18.700 Y21.963 Z-3.000 I-0.064 J-1.259 K0.000 F120.000
G1 X18.802 Y10.506 Z-3.000 F120.000
G2 X18.102 Y9.800 Z-3.000 I-0.700 J-0.006 K0.000 F120.000
G1 X7.033 Y9.800 Z-3.000 F120.000
G1 X6.717 Y9.770 Z-3.000 F120.000
G3 X7.034 Y6.700 Z-3.000 I0.288 J-1.522 K0.000 F120.000
G1 X10.000 Y6.700 Z-3.000 F120.000
G2 X10.700 Y6.000 Z-3.000 I-0.000 J-0.700 K0.000 F120.000
G1 X10.700 Y5.000 Z-3.000 F120.000
G2 X10.495 Y4.505 Z-3.000 I-0.700 J-0.000 K0.000 F120.000
G1 X5.495 Y-0.495 Z-3.000 F120.000
G2 X5.000 Y-0.700 Z-3.000 I-0.495 J0.495 K0.000 F120.000
G1 X1.000 Y-0.700 Z-3.000 F120.000
G2 X-0.694 Y0.909 Z-3.000 I0.006 J1.703 K0.000 F120.000
G1 X-0.700 Y109.000 Z-3.000 F120.000
G2 X0.909 Y110.694 Z-3.000 I1.703 J-0.006 K0.000 F120.000
G1 X159.000 Y110.700 Z-3.000 F120.000
G2 X160.199 Y110.200 Z-3.000 I-0.006 J-1.703 K0.000 F120.000
G1 X160.199 Y110.200 Z-3.500 F60.000
G2 X160.694 Y109.091 Z-3.500 I-1.205 J-1.203 K0.000 F120.000
G1 X160.700 Y1.000 Z-3.500 F120.000
G2 X159.091 Y-0.694 Z-3.500 I-1.703 J0.006 K0.000 F120.000
G1 X155.000 Y-0.700 Z-3.500 F120.000
G2 X154.505 Y-0.495 Z-3.500 I-0.000 J0.700 K0.000 F120.000
G1 X149.505 Y4.505 Z-3.500 F120.000
G2 X149.300 Y5.000 Z-3.500 I0.495 J0.495 K0.000 F120.000
G1 X149.300 Y6.000 Z-3.500 F120.000
G2 X150.000 Y6.700 Z-3.500 I0.700 J0.000 K0.000 F120.000
G1 X152.966 Y6.700 Z-3.500 F120.000
G1 X153.283 Y6.730 Z-3.500 F120.000
G3 X152.939 Y9.800 Z-3.500 I-0.292 J1.521 K0.000 F120.000
G1 X142.000 Y9.800 Z-3.500 F120.000
G2 X141.300 Y10.500 Z-3.500 I0.000 J0.700 K0.000 F120.000
G1 X141.300 Y21.966 Z-3.500 F120.000
G3 X139.966 Y23.300 Z-3.500 I-1.309 J0.026 K0.000 F120.000
G1 X20.025 Y23.221 Z-3.500 F120.000
G3 X18.700 Y21.963 Z-3.500 I-0.064 J-1.259 K0.000 F120.000
G1 X18.802 Y10.506 Z-3.500 F120.000
G2 X18.102 Y9.800 Z-3.500 I-0.700 J-0.006 K0.000 F120.000
G1 X7.033 Y9.800 Z-3.500 F120.000
G1 X6.717 Y9.770 Z-3.500 F120.000
G3 X7.034 Y6.700 Z-3.500 I0.288 J-1.522 K0.000 F120.000
G1 X10.000 Y6.700 Z-3.500 F120.000
G2 X10.700 Y6.000 Z-3.500 I-0.000 J-0.700 K0.000 F120.000
G1 X10.700 Y5.000 Z-3.500 F120.000
G2 X10.495 Y4.505 Z-3.500 I-0.700 J-0.000 K0.000 F120.000
G1 X5.495 Y-0.495 Z-3.500 F120.000
G2 X5.000 Y-0.700 Z-3.500 I-0.495 J0.495 K0.000 F120.000
G1 X1.000 Y-0.700 Z-3.500 F120.000
G2 X-0.694 Y0.909 Z-3.500 I0.006 J1.703 K0.000 F120.000
G1 X-0.700 Y109.000 Z-3.500 F120.000
G2 X0.909 Y110.694 Z-3.500 I1.703 J-0.006 K0.000 F120.000
G1 X159.000 Y110.700 Z-3.500 F120.000
G2 X160.199 Y110.200 Z-3.500 I-0.006 J-1.703 K0.000 F120.000
G1 X160.199 Y110.200 Z-4.000 F60.000
G2 X160.694 Y109.091 Z-4.000 I-1.205 J-1.203 K0.000 F120.000
G1 X160.700 Y1.000 Z-4.000 F120.000
G2 X159.091 Y-0.694 Z-4.000 I-1.703 J0.006 K0.000 F120.000
G1 X155.000 Y-0.700 Z-4.000 F120.000
G2 X154.505 Y-0.495 Z-4.000 I-0.000 J0.700 K0.000 F120.000
G1 X149.505 Y4.505 Z-4.000 F120.000
G2 X149.300 Y5.000 Z-4.000 I0.495 J0.495 K0.000 F120.000
G1 X149.300 Y6.000 Z-4.000 F120.000
G2 X150.000 Y6.700 Z-4.000 I0.700 J0.000 K0.000 F120.000
G1 X152.966 Y6.700 Z-4.000 F120.000
G1 X153.283 Y6.730 Z-4.000 F120.000
G3 X152.939 Y9.800 Z-4.000 I-0.292 J1.521 K0.000 F120.000
G1 X142.000 Y9.800 Z-4.000 F120.000
G2 X141.300 Y10.500 Z-4.000 I0.000 J0.700 K0.000 F120.000
G1 X141.300 Y21.966 Z-4.000 F120.000
G3 X139.966 Y23.300 Z-4.000 I-1.309 J0.026 K0.000 F120.000
G1 X20.025 Y23.221 Z-4.000 F120.000
G3 X18.700 Y21.963 Z-4.000 I-0.064 J-1.259 K0.000 F120.000
G1 X18.802 Y10.506 Z-4.000 F120.000
G2 X18.102 Y9.800 Z-4.000 I-0.700 J-0.006 K0.000 F120.000
G1 X7.033 Y9.800 Z-4.000 F120.000
G1 X6.717 Y9.770 Z-4.000 F120.000
G3 X7.034 Y6.700 Z-4.000 I0.288 J-1.522 K0.000 F120.000
G1 X10.000 Y6.700 Z-4.000 F120.000
G2 X10.700 Y6.000 Z-4.000 I-0.000 J-0.700 K0.000 F120.000
G1 X10.700 Y5.000 Z-4.000 F120.000
G2 X10.495 Y4.505 Z-4.000 I-0.700 J-0.000 K0.000 F120.000
G1 X5.495 Y-0.495 Z-4.000 F120.000
G2 X5.000 Y-0.700 Z-4.000 I-0.495 J0.495 K0.000 F120.000
G1 X1.000 Y-0.700 Z-4.000 F120.000
G2 X-0.694 Y0.909 Z-4.000 I0.006 J1.703 K0.000 F120.000
G1 X-0.700 Y109.000 Z-4.000 F120.000
G2 X0.909 Y110.694 Z-4.000 I1.703 J-0.006 K0.000 F120.000
G1 X159.000 Y110.700 Z-4.000 F120.000
G2 X160.199 Y110.200 Z-4.000 I-0.006 J-1.703 K0.000 F120.000
G1 X160.199 Y110.200 Z-4.500 F60.000
G2 X160.694 Y109.091 Z-4.500 I-1.205 J-1.203 K0.000 F120.000
G1 X160.700 Y1.000 Z-4.500 F120.000
G2 X159.091 Y-0.694 Z-4.500 I-1.703 J0.006 K0.000 F120.000
G1 X155.000 Y-0.700 Z-4.500 F120.000
G2 X154.505 Y-0.495 Z-4.500 I-0.000 J0.700 K0.000 F120.000
G1 X149.505 Y4.505 Z-4.500 F120.000
G2 X149.300 Y5.000 Z-4.500 I0.495 J0.495 K0.000 F120.000
G1 X149.300 Y6.000 Z-4.500 F120.000
G2 X150.000 Y6.700 Z-4.500 I0.700 J0.000 K0.000 F120.000
G1 X152.966 Y6.700 Z-4.500 F120.000
G1 X153.283 Y6.730 Z-4.500 F120.000
G3 X152.939 Y9.800 Z-4.500 I-0.292 J1.521 K0.000 F120.000
G1 X142.000 Y9.800 Z-4.500 F120.000
G2 X141.300 Y10.500 Z-4.500 I0.000 J0.700 K0.000 F120.000
G1 X141.300 Y21.966 Z-4.500 F120.000
G3 X139.966 Y23.300 Z-4.500 I-1.309 J0.026 K0.000 F120.000
G1 X20.025 Y23.221 Z-4.500 F120.000
G3 X18.700 Y21.963 Z-4.500 I-0.064 J-1.259 K0.000 F120.000
G1 X18.802 Y10.506 Z-4.500 F120.000
G2 X18.102 Y9.800 Z-4.500 I-0.700 J-0.006 K0.000 F120.000
G1 X7.033 Y9.800 Z-4.500 F120.000
G1 X6.717 Y9.770 Z-4.500 F120.000
G3 X7.034 Y6.700 Z-4.500 I0.288 J-1.522 K0.000 F120.000
G1 X10.000 Y6.700 Z-4.500 F120.000
G2 X10.700 Y6.000 Z-4.500 I-0.000 J-0.700 K0.000 F120.000
G1 X10.700 Y5.000 Z-4.500 F120.000
G2 X10.495 Y4.505 Z-4.500 I-0.700 J-0.000 K0.000 F120.000
G1 X5.495 Y-0.495 Z-4.500 F120.000
G2 X5.000 Y-0.700 Z-4.500 I-0.495 J0.495 K0.000 F120.000
G1 X1.000 Y-0.700 Z-4.500 F120.000
G2 X-0.694 Y0.909 Z-4.500 I0.006 J1.703 K0.000 F120.000
G1 X-0.700 Y109.000 Z-4.500 F120.000
G2 X0.909 Y110.694 Z-4.500 I1.703 J-0.006 K0.000 F120.000
G1 X159.000 Y110.700 Z-4.500 F120.000
G2 X160.199 Y110.200 Z-4.500 I-0.006 J-1.703 K0.000 F120.000
G1 X160.199 Y110.200 Z-5.000 F60.000
G2 X160.694 Y109.091 Z-5.000 I-1.205 J-1.203 K0.000 F120.000
G1 X160.700 Y1.000 Z-5.000 F120.000
G2 X159.091 Y-0.694 Z-5.000 I-1.703 J0.006 K0.000 F120.000
G1 X155.000 Y-0.700 Z-5.000 F120.000
G2 X154.505 Y-0.495 Z-5.000 I-0.000 J0.700 K0.000 F120.000
G1 X149.505 Y4.505 Z-5.000 F120.000
G2 X149.300 Y5.000 Z-5.000 I0.495 J0.495 K0.000 F120.000
G1 X149.300 Y6.000 Z-5.000 F120.000
G2 X150.000 Y6.700 Z-5.000 I0.700 J0.000 K0.000 F120.000
G1 X152.966 Y6.700 Z-5.000 F120.000
G1 X153.283 Y6.730 Z-5.000 F120.000
G3 X152.939 Y9.800 Z-5.000 I-0.292 J1.521 K0.000 F120.000
G1 X142.000 Y9.800 Z-5.000 F120.000
G2 X141.300 Y10.500 Z-5.000 I0.000 J0.700 K0.000 F120.000
G1 X141.300 Y21.966 Z-5.000 F120.000
G3 X139.966 Y23.300 Z-5.000 I-1.309 J0.026 K0.000 F120.000
G1 X20.025 Y23.221 Z-5.000 F120.000
G3 X18.700 Y21.963 Z-5.000 I-0.064 J-1.259 K0.000 F120.000
G1 X18.802 Y10.506 Z-5.000 F120.000
G2 X18.102 Y9.800 Z-5.000 I-0.700 J-0.006 K0.000 F120.000
G1 X7.033 Y9.800 Z-5.000 F120.000
G1 X6.717 Y9.770 Z-5.000 F120.000
G3 X7.034 Y6.700 Z-5.000 I0.288 J-1.522 K0.000 F120.000
G1 X10.000 Y6.700 Z-5.000 F120.000
G2 X10.700 Y6.000 Z-5.000 I-0.000 J-0.700 K0.000 F120.000
G1 X10.700 Y5.000 Z-5.000 F120.000
G2 X10.495 Y4.505 Z-5.000 I-0.700 J-0.000 K0.000 F120.000
G1 X5.495 Y-0.495 Z-5.000 F120.000
G2 X5.000 Y-0.700 Z-5.000 I-0.495 J0.495 K0.000 F120.000
G1 X1.000 Y-0.700 Z-5.000 F120.000
G2 X-0.694 Y0.909 Z-5.000 I0.006 J1.703 K0.000 F120.000
G1 X-0.700 Y109.000 Z-5.000 F120.000
G2 X0.909 Y110.694 Z-5.000 I1.703 J-0.006 K0.000 F120.000
G1 X159.000 Y110.700 Z-5.000 F120.000
G2 X160.199 Y110.200 Z-5.000 I-0.006 J-1.703 K0.000 F120.000
G1 X160.199 Y110.200 Z-5.500 F60.000
G2 X160.694 Y109.091 Z-5.500 I-1.205 J-1.203 K0.000 F120.000
G1 X160.700 Y1.000 Z-5.500 F120.000
G2 X159.091 Y-0.694 Z-5.500 I-1.703 J0.006 K0.000 F120.000
G1 X155.000 Y-0.700 Z-5.500 F120.000
G2 X154.505 Y-0.495 Z-5.500 I-0.000 J0.700 K0.000 F120.000
G1 X149.505 Y4.505 Z-5.500 F120.000
G2 X149.300 Y5.000 Z-5.500 I0.495 J0.495 K0.000 F120.000
G1 X149.300 Y6.000 Z-5.500 F120.000
G2 X150.000 Y6.700 Z-5.500 I0.700 J0.000 K0.000 F120.000
G1 X152.966 Y6.700 Z-5.500 F120.000
G1 X153.283 Y6.730 Z-5.500 F120.000
G3 X152.939 Y9.800 Z-5.500 I-0.292 J1.521 K0.000 F120.000
G1 X142.000 Y9.800 Z-5.500 F120.000
G2 X141.300 Y10.500 Z-5.500 I0.000 J0.700 K0.000 F120.000
G1 X141.300 Y21.966 Z-5.500 F120.000
G3 X139.966 Y23.300 Z-5.500 I-1.309 J0.026 K0.000 F120.000
G1 X20.025 Y23.221 Z-5.500 F120.000
G3 X18.700 Y21.963 Z-5.500 I-0.064 J-1.259 K0.000 F120.000
G1 X18.802 Y10.506 Z-5.500 F120.000
G2 X18.102 Y9.800 Z-5.500 I-0.700 J-0.006 K0.000 F120.000
G1 X7.033 Y9.800 Z-5.500 F120.000
G1 X6.717 Y9.770 Z-5.500 F120.000
G3 X7.034 Y6.700 Z-5.500 I0.288 J-1.522 K0.000 F120.000
G1 X10.000 Y6.700 Z-5.500 F120.000
G2 X10.700 Y6.000 Z-5.500 I-0.000 J-0.700 K0.000 F120.000
G1 X10.700 Y5.000 Z-5.500 F120.000
G2 X10.495 Y4.505 Z-5.500 I-0.700 J-0.000 K0.000 F120.000
G1 X5.495 Y-0.495 Z-5.500 F120.000
G2 X5.000 Y-0.700 Z-5.500 I-0.495 J0.495 K0.000 F120.000
G1 X1.000 Y-0.700 Z-5.500 F120.000
G2 X-0.694 Y0.909 Z-5.500 I0.006 J1.703 K0.000 F120.000
G1 X-0.700 Y109.000 Z-5.500 F120.000
G2 X0.909 Y110.694 Z-5.500 I1.703 J-0.006 K0.000 F120.000
G1 X159.000 Y110.700 Z-5.500 F120.000
G2 X160.199 Y110.200 Z-5.500 I-0.006 J-1.703 K0.000 F120.000
G1 X160.199 Y110.200 Z-6.000 F60.000
G2 X160.694 Y109.091 Z-6.000 I-1.205 J-1.203 K0.000 F120.000
G1 X160.700 Y1.000 Z-6.000 F120.000
G2 X159.091 Y-0.694 Z-6.000 I-1.703 J0.006 K0.000 F120.000
G1 X155.000 Y-0.700 Z-6.000 F120.000
G2 X154.505 Y-0.495 Z-6.000 I-0.000 J0.700 K0.000 F120.000
G1 X149.505 Y4.505 Z-6.000 F120.000
G2 X149.300 Y5.000 Z-6.000 I0.495 J0.495 K0.000 F120.000
G1 X149.300 Y6.000 Z-6.000 F120.000
G2 X150.000 Y6.700 Z-6.000 I0.700 J0.000 K0.000 F120.000
G1 X152.966 Y6.700 Z-6.000 F120.000
G1 X153.283 Y6.730 Z-6.000 F120.000
G3 X152.939 Y9.800 Z-6.000 I-0.292 J1.521 K0.000 F120.000
G1 X142.000 Y9.800 Z-6.000 F120.000
G2 X141.300 Y10.500 Z-6.000 I0.000 J0.700 K0.000 F120.000
G1 X141.300 Y21.966 Z-6.000 F120.000
G3 X139.966 Y23.300 Z-6.000 I-1.309 J0.026 K0.000 F120.000
G1 X20.025 Y23.221 Z-6.000 F120.000
G3 X18.700 Y21.963 Z-6.000 I-0.064 J-1.259 K0.000 F120.000
G1 X18.802 Y10.506 Z-6.000 F120.000
G2 X18.102 Y9.800 Z-6.000 I-0.700 J-0.006 K0.000 F120.000
G1 X7.033 Y9.800 Z-6.000 F120.000
G1 X6.717 Y9.770 Z-6.000 F120.000
G3 X7.034 Y6.700 Z-6.000 I0.288 J-1.522 K0.000 F120.000
G1 X10.000 Y6.700 Z-6.000 F120.000
G2 X10.700 Y6.000 Z-6.000 I-0.000 J-0.700 K0.000 F120.000
G1 X10.700 Y5.000 Z-6.000 F120.000
G2 X10.495 Y4.505 Z-6.000 I-0.700 J-0.000 K0.000 F120.000
G1 X5.495 Y-0.495 Z-6.000 F120.000
G2 X5.000 Y-0.700 Z-6.000 I-0.495 J0.495 K0.000 F120.000
G1 X1.000 Y-0.700 Z-6.000 F120.000
G2 X-0.694 Y0.909 Z-6.000 I0.006 J1.703 K0.000 F120.000
G1 X-0.700 Y109.000 Z-6.000 F120.000
G2 X0.909 Y110.694 Z-6.000 I1.703 J-0.006 K0.000 F120.000
G1 X159.000 Y110.700 Z-6.000 F120.000
G2 X160.199 Y110.200 Z-6.000 I-0.006 J-1.703 K0.000 F120.000
G1 X160.199 Y110.200 Z-6.500 F60.000
G2 X160.694 Y109.091 Z-6.500 I-1.205 J-1.203 K0.000 F120.000
G1 X160.700 Y1.000 Z-6.500 F120.000
G2 X159.091 Y-0.694 Z-6.500 I-1.703 J0.006 K0.000 F120.000
G1 X155.000 Y-0.700 Z-6.500 F120.000
G2 X154.505 Y-0.495 Z-6.500 I-0.000 J0.700 K0.000 F120.000
G1 X149.505 Y4.505 Z-6.500 F120.000
G2 X149.300 Y5.000 Z-6.500 I0.495 J0.495 K0.000 F120.000
G1 X149.300 Y6.000 Z-6.500 F120.000
G2 X150.000 Y6.700 Z-6.500 I0.700 J0.000 K0.000 F120.000
G1 X152.966 Y6.700 Z-6.500 F120.000
G1 X153.283 Y6.730 Z-6.500 F120.000
G3 X152.939 Y9.800 Z-6.500 I-0.292 J1.521 K0.000 F120.000
G1 X142.000 Y9.800 Z-6.500 F120.000
G2 X141.300 Y10.500 Z-6.500 I0.000 J0.700 K0.000 F120.000
G1 X141.300 Y21.966 Z-6.500 F120.000
G3 X139.966 Y23.300 Z-6.500 I-1.309 J0.026 K0.000 F120.000
G1 X20.025 Y23.221 Z-6.500 F120.000
G3 X18.700 Y21.963 Z-6.500 I-0.064 J-1.259 K0.000 F120.000
G1 X18.802 Y10.506 Z-6.500 F120.000
G2 X18.102 Y9.800 Z-6.500 I-0.700 J-0.006 K0.000 F120.000
G1 X7.033 Y9.800 Z-6.500 F120.000
G1 X6.717 Y9.770 Z-6.500 F120.000
G3 X7.034 Y6.700 Z-6.500 I0.288 J-1.522 K0.000 F120.000
G1 X10.000 Y6.700 Z-6.500 F120.000
G2 X10.700 Y6.000 Z-6.500 I-0.000 J-0.700 K0.000 F120.000
G1 X10.700 Y5.000 Z-6.500 F120.000
G2 X10.495 Y4.505 Z-6.500 I-0.700 J-0.000 K0.000 F120.000
G1 X5.495 Y-0.495 Z-6.500 F120.000
G2 X5.000 Y-0.700 Z-6.500 I-0.495 J0.495 K0.000 F120.000
G1 X1.000 Y-0.700 Z-6.500 F120.000
G2 X-0.694 Y0.909 Z-6.500 I0.006 J1.703 K0.000 F120.000
G1 X-0.700 Y109.000 Z-6.500 F120.000
G2 X0.909 Y110.694 Z-6.500 I1.703 J-0.006 K0.000 F120.000
G1 X159.000 Y110.700 Z-6.500 F120.000
G2 X160.199 Y110.200 Z-6.500 I-0.006 J-1.703 K0.000 F120.000
G1 X160.199 Y110.200 Z-7.000 F60.000
G2 X160.694 Y109.091 Z-7.000 I-1.205 J-1.203 K0.000 F120.000
G1 X160.700 Y1.000 Z-7.000 F120.000
G2 X159.091 Y-0.694 Z-7.000 I-1.703 J0.006 K0.000 F120.000
G1 X155.000 Y-0.700 Z-7.000 F120.000
G2 X154.505 Y-0.495 Z-7.000 I-0.000 J0.700 K0.000 F120.000
G1 X149.505 Y4.505 Z-7.000 F120.000
G2 X149.300 Y5.000 Z-7.000 I0.495 J0.495 K0.000 F120.000
G1 X149.300 Y6.000 Z-7.000 F120.000
G2 X150.000 Y6.700 Z-7.000 I0.700 J0.000 K0.000 F120.000
G1 X152.966 Y6.700 Z-7.000 F120.000
G1 X153.283 Y6.730 Z-7.000 F120.000
G3 X152.939 Y9.800 Z-7.000 I-0.292 J1.521 K0.000 F120.000
G1 X142.000 Y9.800 Z-7.000 F120.000
G2 X141.300 Y10.500 Z-7.000 I0.000 J0.700 K0.000 F120.000
G1 X141.300 Y21.966 Z-7.000 F120.000
G3 X139.966 Y23.300 Z-7.000 I-1.309 J0.026 K0.000 F120.000
G1 X20.025 Y23.221 Z-7.000 F120.000
G3 X18.700 Y21.963 Z-7.000 I-0.064 J-1.259 K0.000 F120.000
G1 X18.802 Y10.506 Z-7.000 F120.000
G2 X18.102 Y9.800 Z-7.000 I-0.700 J-0.006 K0.000 F120.000
G1 X7.033 Y9.800 Z-7.000 F120.000
G1 X6.717 Y9.770 Z-7.000 F120.000
G3 X7.034 Y6.700 Z-7.000 I0.288 J-1.522 K0.000 F120.000
G1 X10.000 Y6.700 Z-7.000 F120.000
G2 X10.700 Y6.000 Z-7.000 I-0.000 J-0.700 K0.000 F120.000
G1 X10.700 Y5.000 Z-7.000 F120.000
G2 X10.495 Y4.505 Z-7.000 I-0.700 J-0.000 K0.000 F120.000
G1 X5.495 Y-0.495 Z-7.000 F120.000
G2 X5.000 Y-0.700 Z-7.000 I-0.495 J0.495 K0.000 F120.000
G1 X1.000 Y-0.700 Z-7.000 F120.000
G2 X-0.694 Y0.909 Z-7.000 I0.006 J1.703 K0.000 F120.000
G1 X-0.700 Y109.000 Z-7.000 F120.000
G2 X0.909 Y110.694 Z-7.000 I1.703 J-0.006 K0.000 F120.000
G1 X159.000 Y110.700 Z-7.000 F120.000
G2 X160.199 Y110.200 Z-7.000 I-0.006 J-1.703 K0.000 F120.000
G1 X160.199 Y110.200 Z-7.500 F60.000
G2 X160.694 Y109.091 Z-7.500 I-1.205 J-1.203 K0.000 F120.000
G1 X160.700 Y1.000 Z-7.500 F120.000
G2 X159.091 Y-0.694 Z-7.500 I-1.703 J0.006 K0.000 F120.000
G1 X155.000 Y-0.700 Z-7.500 F120.000
G2 X154.505 Y-0.495 Z-7.500 I-0.000 J0.700 K0.000 F120.000
G1 X149.505 Y4.505 Z-7.500 F120.000
G2 X149.300 Y5.000 Z-7.500 I0.495 J0.495 K0.000 F120.000
G1 X149.300 Y6.000 Z-7.500 F120.000
G2 X150.000 Y6.700 Z-7.500 I0.700 J0.000 K0.000 F120.000
G1 X152.966 Y6.700 Z-7.500 F120.000
G1 X153.283 Y6.730 Z-7.500 F120.000
G3 X152.939 Y9.800 Z-7.500 I-0.292 J1.521 K0.000 F120.000
G1 X142.000 Y9.800 Z-7.500 F120.000
G2 X141.300 Y10.500 Z-7.500 I0.000 J0.700 K0.000 F120.000
G1 X141.300 Y21.966 Z-7.500 F120.000
G3 X139.966 Y23.300 Z-7.500 I-1.309 J0.026 K0.000 F120.000
G1 X20.025 Y23.221 Z-7.500 F120.000
G3 X18.700 Y21.963 Z-7.500 I-0.064 J-1.259 K0.000 F120.000
G1 X18.802 Y10.506 Z-7.500 F120.000
G2 X18.102 Y9.800 Z-7.500 I-0.700 J-0.006 K0.000 F120.000
G1 X7.033 Y9.800 Z-7.500 F120.000
G1 X6.717 Y9.770 Z-7.500 F120.000
G3 X7.034 Y6.700 Z-7.500 I0.288 J-1.522 K0.000 F120.000
G1 X10.000 Y6.700 Z-7.500 F120.000
G2 X10.700 Y6.000 Z-7.500 I-0.000 J-0.700 K0.000 F120.000
G1 X10.700 Y5.000 Z-7.500 F120.000
G2 X10.495 Y4.505 Z-7.500 I-0.700 J-0.000 K0.000 F120.000
G1 X5.495 Y-0.495 Z-7.500 F120.000
G2 X5.000 Y-0.700 Z-7.500 I-0.495 J0.495 K0.000 F120.000
G1 X1.000 Y-0.700 Z-7.500 F120.000
G2 X-0.694 Y0.909 Z-7.500 I0.006 J1.703 K0.000 F120.000
G1 X-0.700 Y109.000 Z-7.500 F120.000
G2 X0.909 Y110.694 Z-7.500 I1.703 J-0.006 K0.000 F120.000
G1 X159.000 Y110.700 Z-7.500 F120.000
G2 X160.199 Y110.200 Z-7.500 I-0.006 J-1.703 K0.000 F120.000
G1 X160.199 Y110.200 Z-8.000 F60.000
G2 X160.694 Y109.091 Z-8.000 I-1.205 J-1.203 K0.000 F120.000
G1 X160.700 Y1.000 Z-8.000 F120.000
G2 X159.091 Y-0.694 Z-8.000 I-1.703 J0.006 K0.000 F120.000
G1 X155.000 Y-0.700 Z-8.000 F120.000
G2 X154.505 Y-0.495 Z-8.000 I-0.000 J0.700 K0.000 F120.000
G1 X149.505 Y4.505 Z-8.000 F120.000
G2 X149.300 Y5.000 Z-8.000 I0.495 J0.495 K0.000 F120.000
G1 X149.300 Y6.000 Z-8.000 F120.000
G2 X150.000 Y6.700 Z-8.000 I0.700 J0.000 K0.000 F120.000
G1 X152.966 Y6.700 Z-8.000 F120.000
G1 X153.283 Y6.730 Z-8.000 F120.000
G3 X152.939 Y9.800 Z-8.000 I-0.292 J1.521 K0.000 F120.000
G1 X142.000 Y9.800 Z-8.000 F120.000
G2 X141.300 Y10.500 Z-8.000 I0.000 J0.700 K0.000 F120.000
G1 X141.300 Y21.966 Z-8.000 F120.000
G3 X139.966 Y23.300 Z-8.000 I-1.309 J0.026 K0.000 F120.000
G1 X20.025 Y23.221 Z-8.000 F120.000
G3 X18.700 Y21.963 Z-8.000 I-0.064 J-1.259 K0.000 F120.000
G1 X18.802 Y10.506 Z-8.000 F120.000
G2 X18.102 Y9.800 Z-8.000 I-0.700 J-0.006 K0.000 F120.000
G1 X7.033 Y9.800 Z-8.000 F120.000
G1 X6.717 Y9.770 Z-8.000 F120.000
G3 X7.034 Y6.700 Z-8.000 I0.288 J-1.522 K0.000 F120.000
G1 X10.000 Y6.700 Z-8.000 F120.000
G2 X10.700 Y6.000 Z-8.000 I-0.000 J-0.700 K0.000 F120.000
G1 X10.700 Y5.000 Z-8.000 F120.000
G2 X10.495 Y4.505 Z-8.000 I-0.700 J-0.000 K0.000 F120.000
G1 X5.495 Y-0.495 Z-8.000 F120.000
G2 X5.000 Y-0.700 Z-8.000 I-0.495 J0.495 K0.000 F120.000
G1 X1.000 Y-0.700 Z-8.000 F120.000
G2 X-0.694 Y0.909 Z-8.000 I0.006 J1.703 K0.000 F120.000
G1 X-0.700 Y109.000 Z-8.000 F120.000
G2 X0.909 Y110.694 Z-8.000 I1.703 J-0.006 K0.000 F120.000
G1 X159.000 Y110.700 Z-8.000 F120.000
G2 X160.199 Y110.200 Z-8.000 I-0.006 J-1.703 K0.000 F120.000
G1 X160.199 Y110.200 Z-8.500 F60.000
G2 X160.694 Y109.091 Z-8.500 I-1.205 J-1.203 K0.000 F120.000
G1 X160.700 Y1.000 Z-8.500 F120.000
G2 X159.091 Y-0.694 Z-8.500 I-1.703 J0.006 K0.000 F120.000
G1 X155.000 Y-0.700 Z-8.500 F120.000
G2 X154.505 Y-0.495 Z-8.500 I-0.000 J0.700 K0.000 F120.000
G1 X149.505 Y4.505 Z-8.500 F120.000
G2 X149.300 Y5.000 Z-8.500 I0.495 J0.495 K0.000 F120.000
G1 X149.300 Y6.000 Z-8.500 F120.000
G2 X150.000 Y6.700 Z-8.500 I0.700 J0.000 K0.000 F120.000
G1 X152.966 Y6.700 Z-8.500 F120.000
G1 X153.283 Y6.730 Z-8.500 F120.000
G3 X152.939 Y9.800 Z-8.500 I-0.292 J1.521 K0.000 F120.000
G1 X142.000 Y9.800 Z-8.500 F120.000
G2 X141.300 Y10.500 Z-8.500 I0.000 J0.700 K0.000 F120.000
G1 X141.300 Y21.966 Z-8.500 F120.000
G3 X139.966 Y23.300 Z-8.500 I-1.309 J0.026 K0.000 F120.000
G1 X20.025 Y23.221 Z-8.500 F120.000
G3 X18.700 Y21.963 Z-8.500 I-0.064 J-1.259 K0.000 F120.000
G1 X18.802 Y10.506 Z-8.500 F120.000
G2 X18.102 Y9.800 Z-8.500 I-0.700 J-0.006 K0.000 F120.000
G1 X7.033 Y9.800 Z-8.500 F120.000
G1 X6.717 Y9.770 Z-8.500 F120.000
G3 X7.034 Y6.700 Z-8.500 I0.288 J-1.522 K0.000 F120.000
G1 X10.000 Y6.700 Z-8.500 F120.000
G2 X10.700 Y6.000 Z-8.500 I-0.000 J-0.700 K0.000 F120.000
G1 X10.700 Y5.000 Z-8.500 F120.000
G2 X10.495 Y4.505 Z-8.500 I-0.700 J-0.000 K0.000 F120.000
G1 X5.495 Y-0.495 Z-8.500 F120.000
G2 X5.000 Y-0.700 Z-8.500 I-0.495 J0.495 K0.000 F120.000
G1 X1.000 Y-0.700 Z-8.500 F120.000
G2 X-0.694 Y0.909 Z-8.500 I0.006 J1.703 K0.000 F120.000
G1 X-0.700 Y109.000 Z-8.500 F120.000
G2 X0.909 Y110.694 Z-8.500 I1.703 J-0.006 K0.000 F120.000
G1 X159.000 Y110.700 Z-8.500 F120.000
G2 X160.199 Y110.200 Z-8.500 I-0.006 J-1.703 K0.000 F120.000
G1 X160.199 Y110.200 Z-9.000 F60.000
G2 X160.694 Y109.091 Z-9.000 I-1.205 J-1.203 K0.000 F120.000
G1 X160.700 Y1.000 Z-9.000 F120.000
G2 X159.091 Y-0.694 Z-9.000 I-1.703 J0.006 K0.000 F120.000
G1 X155.000 Y-0.700 Z-9.000 F120.000
G2 X154.505 Y-0.495 Z-9.000 I-0.000 J0.700 K0.000 F120.000
G1 X149.505 Y4.505 Z-9.000 F120.000
G2 X149.300 Y5.000 Z-9.000 I0.495 J0.495 K0.000 F120.000
G1 X149.300 Y6.000 Z-9.000 F120.000
G2 X150.000 Y6.700 Z-9.000 I0.700 J0.000 K0.000 F120.000
G1 X152.966 Y6.700 Z-9.000 F120.000
G1 X153.283 Y6.730 Z-9.000 F120.000
G3 X152.939 Y9.800 Z-9.000 I-0.292 J1.521 K0.000 F120.000
G1 X142.000 Y9.800 Z-9.000 F120.000
G2 X141.300 Y10.500 Z-9.000 I0.000 J0.700 K0.000 F120.000
G1 X141.300 Y21.966 Z-9.000 F120.000
G3 X139.966 Y23.300 Z-9.000 I-1.309 J0.026 K0.000 F120.000
G1 X20.025 Y23.221 Z-9.000 F120.000
G3 X18.700 Y21.963 Z-9.000 I-0.064 J-1.259 K0.000 F120.000
G1 X18.802 Y10.506 Z-9.000 F120.000
G2 X18.102 Y9.800 Z-9.000 I-0.700 J-0.006 K0.000 F120.000
G1 X7.033 Y9.800 Z-9.000 F120.000
G1 X6.717 Y9.770 Z-9.000 F120.000
G3 X7.034 Y6.700 Z-9.000 I0.288 J-1.522 K0.000 F120.000
G1 X10.000 Y6.700 Z-9.000 F120.000
G2 X10.700 Y6.000 Z-9.000 I-0.000 J-0.700 K0.000 F120.000
G1 X10.700 Y5.000 Z-9.000 F120.000
G2 X10.495 Y4.505 Z-9.000 I-0.700 J-0.000 K0.000 F120.000
G1 X5.495 Y-0.495 Z-9.000 F120.000
G2 X5.000 Y-0.700 Z-9.000 I-0.495 J0.495 K0.000 F120.000
G1 X1.000 Y-0.700 Z-9.000 F120.000
G2 X-0.694 Y0.909 Z-9.000 I0.006 J1.703 K0.000 F120.000
G1 X-0.700 Y109.000 Z-9.000 F120.000
G2 X0.909 Y110.694 Z-9.000 I1.703 J-0.006 K0.000 F120.000
G1 X159.000 Y110.700 Z-9.000 F120.000
G2 X160.199 Y110.200 Z-9.000 I-0.006 J-1.703 K0.000 F120.000
G1 X160.199 Y110.200 Z-9.500 F60.000
G2 X160.694 Y109.091 Z-9.500 I-1.205 J-1.203 K0.000 F120.000
G1 X160.700 Y1.000 Z-9.500 F120.000
G2 X159.091 Y-0.694 Z-9.500 I-1.703 J0.006 K0.000 F120.000
G1 X155.000 Y-0.700 Z-9.500 F120.000
G2 X154.505 Y-0.495 Z-9.500 I-0.000 J0.700 K0.000 F120.000
G1 X149.505 Y4.505 Z-9.500 F120.000
G2 X149.300 Y5.000 Z-9.500 I0.495 J0.495 K0.000 F120.000
G1 X149.300 Y6.000 Z-9.500 F120.000
G2 X150.000 Y6.700 Z-9.500 I0.700 J0.000 K0.000 F120.000
G1 X152.966 Y6.700 Z-9.500 F120.000
G1 X153.283 Y6.730 Z-9.500 F120.000
G3 X152.939 Y9.800 Z-9.500 I-0.292 J1.521 K0.000 F120.000
G1 X142.000 Y9.800 Z-9.500 F120.000
G2 X141.300 Y10.500 Z-9.500 I0.000 J0.700 K0.000 F120.000
G1 X141.300 Y21.966 Z-9.500 F120.000
G3 X139.966 Y23.300 Z-9.500 I-1.309 J0.026 K0.000 F120.000
G1 X20.025 Y23.221 Z-9.500 F120.000
G3 X18.700 Y21.963 Z-9.500 I-0.064 J-1.259 K0.000 F120.000
G1 X18.802 Y10.506 Z-9.500 F120.000
G2 X18.102 Y9.800 Z-9.500 I-0.700 J-0.006 K0.000 F120.000
G1 X7.033 Y9.800 Z-9.500 F120.000
G1 X6.717 Y9.770 Z-9.500 F120.000
G3 X7.034 Y6.700 Z-9.500 I0.288 J-1.522 K0.000 F120.000
G1 X10.000 Y6.700 Z-9.500 F120.000
G2 X10.700 Y6.000 Z-9.500 I-0.000 J-0.700 K0.000 F120.000
G1 X10.700 Y5.000 Z-9.500 F120.000
G2 X10.495 Y4.505 Z-9.500 I-0.700 J-0.000 K0.000 F120.000
G1 X5.495 Y-0.495 Z-9.500 F120.000
G2 X5.000 Y-0.700 Z-9.500 I-0.495 J0.495 K0.000 F120.000
G1 X1.000 Y-0.700 Z-9.500 F120.000
G2 X-0.694 Y0.909 Z-9.500 I0.006 J1.703 K0.000 F120.000
G1 X-0.700 Y109.000 Z-9.500 F120.000
G2 X0.909 Y110.694 Z-9.500 I1.703 J-0.006 K0.000 F120.000
G1 X159.000 Y110.700 Z-9.500 F120.000
G2 X160.199 Y110.200 Z-9.500 I-0.006 J-1.703 K0.000 F120.000
G1 X160.199 Y110.200 Z-10.000 F60.000
G2 X160.694 Y109.091 Z-10.000 I-1.205 J-1.203 K0.000 F120.000
G1 X160.700 Y1.000 Z-10.000 F120.000
G2 X159.091 Y-0.694 Z-10.000 I-1.703 J0.006 K0.000 F120.000
G1 X155.000 Y-0.700 Z-10.000 F120.000
G2 X154.505 Y-0.495 Z-10.000 I-0.000 J0.700 K0.000 F120.000
G1 X149.505 Y4.505 Z-10.000 F120.000
G2 X149.300 Y5.000 Z-10.000 I0.495 J0.495 K0.000 F120.000
G1 X149.300 Y6.000 Z-10.000 F120.000
G2 X150.000 Y6.700 Z-10.000 I0.700 J0.000 K0.000 F120.000
G1 X152.966 Y6.700 Z-10.000 F120.000
G1 X153.283 Y6.730 Z-10.000 F120.000
G3 X152.939 Y9.800 Z-10.000 I-0.292 J1.521 K0.000 F120.000
G1 X142.000 Y9.800 Z-10.000 F120.000
G2 X141.300 Y10.500 Z-10.000 I0.000 J0.700 K0.000 F120.000
G1 X141.300 Y21.966 Z-10.000 F120.000
G3 X139.966 Y23.300 Z-10.000 I-1.309 J0.026 K0.000 F120.000
G1 X20.025 Y23.221 Z-10.000 F120.000
G3 X18.700 Y21.963 Z-10.000 I-0.064 J-1.259 K0.000 F120.000
G1 X18.802 Y10.506 Z-10.000 F120.000
G2 X18.102 Y9.800 Z-10.000 I-0.700 J-0.006 K0.000 F120.000
G1 X7.033 Y9.800 Z-10.000 F120.000
G1 X6.717 Y9.770 Z-10.000 F120.000
G3 X7.034 Y6.700 Z-10.000 I0.288 J-1.522 K0.000 F120.000
G1 X10.000 Y6.700 Z-10.000 F120.000
G2 X10.700 Y6.000 Z-10.000 I-0.000 J-0.700 K0.000 F120.000
G1 X10.700 Y5.000 Z-10.000 F120.000
G2 X10.495 Y4.505 Z-10.000 I-0.700 J-0.000 K0.000 F120.000
G1 X5.495 Y-0.495 Z-10.000 F120.000
G2 X5.000 Y-0.700 Z-10.000 I-0.495 J0.495 K0.000 F120.000
G1 X1.000 Y-0.700 Z-10.000 F120.000
G2 X-0.694 Y0.909 Z-10.000 I0.006 J1.703 K0.000 F120.000
G1 X-0.700 Y109.000 Z-10.000 F120.000
G2 X0.909 Y110.694 Z-10.000 I1.703 J-0.006 K0.000 F120.000
G1 X159.000 Y110.700 Z-10.000 F120.000
G2 X160.199 Y110.200 Z-10.000 I-0.006 J-1.703 K0.000 F120.000
G0 Z5.000
G0 Z5.000
(Finish operation: Profile061)
G0 X0 Y0
(Begin postamble)
M5
G17 G90
M2
