(Exported by FreeCAD)
(Post Processor: grbl_post)
(Output Time:2024-10-26 09:50:08.939463)
(Begin preamble)
G17 G90
G21
(Begin operation: G54)
(Path: G54)
G54
G0 Z5.000
(Finish operation: G54)
(Begin operation: Bit_1,014)
(Path: Bit_1,014)
(Bit_1,014)
(Begin toolchange)
( M6 T2 )
M3 S10000
(Finish operation: Bit_1,014)
(Begin operation: Profile062)
(Path: Profile062)
(Profile062)
(Compensated Tool Path. Diameter: 1.4)
G0 Z5.000
G0 X10.917 Y20.917
G0 Z3.000
G1 X10.917 Y20.917 Z-0.500 F60.000
G3 X9.504 Y21.198 Z-0.500 I-0.917 J-0.917 K0.000 F120.000
G3 X10.496 Y18.802 Z-0.500 I0.496 J-1.198 K0.000 F120.000
G3 X10.917 Y20.917 Z-0.500 I-0.496 J1.198 K0.000 F120.000
G1 X10.917 Y20.917 Z-1.000 F60.000
G3 X9.504 Y21.198 Z-1.000 I-0.917 J-0.917 K0.000 F120.000
G3 X10.496 Y18.802 Z-1.000 I0.496 J-1.198 K0.000 F120.000
G3 X10.917 Y20.917 Z-1.000 I-0.496 J1.198 K0.000 F120.000
G1 X10.917 Y20.917 Z-1.500 F60.000
G3 X9.504 Y21.198 Z-1.500 I-0.917 J-0.917 K0.000 F120.000
G3 X10.496 Y18.802 Z-1.500 I0.496 J-1.198 K0.000 F120.000
G3 X10.917 Y20.917 Z-1.500 I-0.496 J1.198 K0.000 F120.000
G1 X10.917 Y20.917 Z-2.000 F60.000
G3 X9.504 Y21.198 Z-2.000 I-0.917 J-0.917 K0.000 F120.000
G3 X10.496 Y18.802 Z-2.000 I0.496 J-1.198 K0.000 F120.000
G3 X10.917 Y20.917 Z-2.000 I-0.496 J1.198 K0.000 F120.000
G1 X10.917 Y20.917 Z-2.500 F60.000
G3 X9.504 Y21.198 Z-2.500 I-0.917 J-0.917 K0.000 F120.000
G3 X10.496 Y18.802 Z-2.500 I0.496 J-1.198 K0.000 F120.000
G3 X10.917 Y20.917 Z-2.500 I-0.496 J1.198 K0.000 F120.000
G1 X10.917 Y20.917 Z-3.000 F60.000
G3 X9.504 Y21.198 Z-3.000 I-0.917 J-0.917 K0.000 F120.000
G3 X10.496 Y18.802 Z-3.000 I0.496 J-1.198 K0.000 F120.000
G3 X10.917 Y20.917 Z-3.000 I-0.496 J1.198 K0.000 F120.000
G1 X10.917 Y20.917 Z-3.500 F60.000
G3 X9.504 Y21.198 Z-3.500 I-0.917 J-0.917 K0.000 F120.000
G3 X10.496 Y18.802 Z-3.500 I0.496 J-1.198 K0.000 F120.000
G3 X10.917 Y20.917 Z-3.500 I-0.496 J1.198 K0.000 F120.000
G1 X10.917 Y20.917 Z-4.000 F60.000
G3 X9.504 Y21.198 Z-4.000 I-0.917 J-0.917 K0.000 F120.000
G3 X10.496 Y18.802 Z-4.000 I0.496 J-1.198 K0.000 F120.000
G3 X10.917 Y20.917 Z-4.000 I-0.496 J1.198 K0.000 F120.000
G1 X10.917 Y20.917 Z-4.500 F60.000
G3 X9.504 Y21.198 Z-4.500 I-0.917 J-0.917 K0.000 F120.000
G3 X10.496 Y18.802 Z-4.500 I0.496 J-1.198 K0.000 F120.000
G3 X10.917 Y20.917 Z-4.500 I-0.496 J1.198 K0.000 F120.000
G1 X10.917 Y20.917 Z-5.000 F60.000
G3 X9.504 Y21.198 Z-5.000 I-0.917 J-0.917 K0.000 F120.000
G3 X10.496 Y18.802 Z-5.000 I0.496 J-1.198 K0.000 F120.000
G3 X10.917 Y20.917 Z-5.000 I-0.496 J1.198 K0.000 F120.000
G1 X10.917 Y20.917 Z-5.500 F60.000
G3 X9.504 Y21.198 Z-5.500 I-0.917 J-0.917 K0.000 F120.000
G3 X10.496 Y18.802 Z-5.500 I0.496 J-1.198 K0.000 F120.000
G3 X10.917 Y20.917 Z-5.500 I-0.496 J1.198 K0.000 F120.000
G1 X10.917 Y20.917 Z-6.000 F60.000
G3 X9.504 Y21.198 Z-6.000 I-0.917 J-0.917 K0.000 F120.000
G3 X10.496 Y18.802 Z-6.000 I0.496 J-1.198 K0.000 F120.000
G3 X10.917 Y20.917 Z-6.000 I-0.496 J1.198 K0.000 F120.000
G1 X10.917 Y20.917 Z-6.500 F60.000
G3 X9.504 Y21.198 Z-6.500 I-0.917 J-0.917 K0.000 F120.000
G3 X10.496 Y18.802 Z-6.500 I0.496 J-1.198 K0.000 F120.000
G3 X10.917 Y20.917 Z-6.500 I-0.496 J1.198 K0.000 F120.000
G1 X10.917 Y20.917 Z-7.000 F60.000
G3 X9.504 Y21.198 Z-7.000 I-0.917 J-0.917 K0.000 F120.000
G3 X10.496 Y18.802 Z-7.000 I0.496 J-1.198 K0.000 F120.000
G3 X10.917 Y20.917 Z-7.000 I-0.496 J1.198 K0.000 F120.000
G1 X10.917 Y20.917 Z-7.500 F60.000
G3 X9.504 Y21.198 Z-7.500 I-0.917 J-0.917 K0.000 F120.000
G3 X10.496 Y18.802 Z-7.500 I0.496 J-1.198 K0.000 F120.000
G3 X10.917 Y20.917 Z-7.500 I-0.496 J1.198 K0.000 F120.000
G1 X10.917 Y20.917 Z-8.000 F60.000
G3 X9.504 Y21.198 Z-8.000 I-0.917 J-0.917 K0.000 F120.000
G3 X10.496 Y18.802 Z-8.000 I0.496 J-1.198 K0.000 F120.000
G3 X10.917 Y20.917 Z-8.000 I-0.496 J1.198 K0.000 F120.000
G1 X10.917 Y20.917 Z-8.500 F60.000
G3 X9.504 Y21.198 Z-8.500 I-0.917 J-0.917 K0.000 F120.000
G3 X10.496 Y18.802 Z-8.500 I0.496 J-1.198 K0.000 F120.000
G3 X10.917 Y20.917 Z-8.500 I-0.496 J1.198 K0.000 F120.000
G1 X10.917 Y20.917 Z-9.000 F60.000
G3 X9.504 Y21.198 Z-9.000 I-0.917 J-0.917 K0.000 F120.000
G3 X10.496 Y18.802 Z-9.000 I0.496 J-1.198 K0.000 F120.000
G3 X10.917 Y20.917 Z-9.000 I-0.496 J1.198 K0.000 F120.000
G1 X10.917 Y20.917 Z-9.500 F60.000
G3 X9.504 Y21.198 Z-9.500 I-0.917 J-0.917 K0.000 F120.000
G3 X10.496 Y18.802 Z-9.500 I0.496 J-1.198 K0.000 F120.000
G3 X10.917 Y20.917 Z-9.500 I-0.496 J1.198 K0.000 F120.000
G1 X10.917 Y20.917 Z-10.000 F60.000
G3 X9.504 Y21.198 Z-10.000 I-0.917 J-0.917 K0.000 F120.000
G3 X10.496 Y18.802 Z-10.000 I0.496 J-1.198 K0.000 F120.000
G3 X10.917 Y20.917 Z-10.000 I-0.496 J1.198 K0.000 F120.000
G0 Z5.000
G0 Z5.000
G0 X10.917 Y20.917
G0 X7.062 Y101.705
G0 X7.062 Y101.705 Z3.000
G1 X7.062 Y101.705 Z-0.500 F60.000
G3 X7.496 Y101.802 Z-0.500 I-0.062 J1.295 K0.000 F120.000
G3 X6.504 Y104.198 Z-0.500 I-0.496 J1.198 K0.000 F120.000
G3 X7.062 Y101.705 Z-0.500 I0.496 J-1.198 K0.000 F120.000
G1 X7.062 Y101.705 Z-1.000 F60.000
G3 X7.496 Y101.802 Z-1.000 I-0.062 J1.295 K0.000 F120.000
G3 X6.504 Y104.198 Z-1.000 I-0.496 J1.198 K0.000 F120.000
G3 X7.062 Y101.705 Z-1.000 I0.496 J-1.198 K0.000 F120.000
G1 X7.062 Y101.705 Z-1.500 F60.000
G3 X7.496 Y101.802 Z-1.500 I-0.062 J1.295 K0.000 F120.000
G3 X6.504 Y104.198 Z-1.500 I-0.496 J1.198 K0.000 F120.000
G3 X7.062 Y101.705 Z-1.500 I0.496 J-1.198 K0.000 F120.000
G1 X7.062 Y101.705 Z-2.000 F60.000
G3 X7.496 Y101.802 Z-2.000 I-0.062 J1.295 K0.000 F120.000
G3 X6.504 Y104.198 Z-2.000 I-0.496 J1.198 K0.000 F120.000
G3 X7.062 Y101.705 Z-2.000 I0.496 J-1.198 K0.000 F120.000
G1 X7.062 Y101.705 Z-2.500 F60.000
G3 X7.496 Y101.802 Z-2.500 I-0.062 J1.295 K0.000 F120.000
G3 X6.504 Y104.198 Z-2.500 I-0.496 J1.198 K0.000 F120.000
G3 X7.062 Y101.705 Z-2.500 I0.496 J-1.198 K0.000 F120.000
G1 X7.062 Y101.705 Z-3.000 F60.000
G3 X7.496 Y101.802 Z-3.000 I-0.062 J1.295 K0.000 F120.000
G3 X6.504 Y104.198 Z-3.000 I-0.496 J1.198 K0.000 F120.000
G3 X7.062 Y101.705 Z-3.000 I0.496 J-1.198 K0.000 F120.000
G1 X7.062 Y101.705 Z-3.500 F60.000
G3 X7.496 Y101.802 Z-3.500 I-0.062 J1.295 K0.000 F120.000
G3 X6.504 Y104.198 Z-3.500 I-0.496 J1.198 K0.000 F120.000
G3 X7.062 Y101.705 Z-3.500 I0.496 J-1.198 K0.000 F120.000
G1 X7.062 Y101.705 Z-4.000 F60.000
G3 X7.496 Y101.802 Z-4.000 I-0.062 J1.295 K0.000 F120.000
G3 X6.504 Y104.198 Z-4.000 I-0.496 J1.198 K0.000 F120.000
G3 X7.062 Y101.705 Z-4.000 I0.496 J-1.198 K0.000 F120.000
G1 X7.062 Y101.705 Z-4.500 F60.000
G3 X7.496 Y101.802 Z-4.500 I-0.062 J1.295 K0.000 F120.000
G3 X6.504 Y104.198 Z-4.500 I-0.496 J1.198 K0.000 F120.000
G3 X7.062 Y101.705 Z-4.500 I0.496 J-1.198 K0.000 F120.000
G1 X7.062 Y101.705 Z-5.000 F60.000
G3 X7.496 Y101.802 Z-5.000 I-0.062 J1.295 K0.000 F120.000
G3 X6.504 Y104.198 Z-5.000 I-0.496 J1.198 K0.000 F120.000
G3 X7.062 Y101.705 Z-5.000 I0.496 J-1.198 K0.000 F120.000
G1 X7.062 Y101.705 Z-5.500 F60.000
G3 X7.496 Y101.802 Z-5.500 I-0.062 J1.295 K0.000 F120.000
G3 X6.504 Y104.198 Z-5.500 I-0.496 J1.198 K0.000 F120.000
G3 X7.062 Y101.705 Z-5.500 I0.496 J-1.198 K0.000 F120.000
G1 X7.062 Y101.705 Z-6.000 F60.000
G3 X7.496 Y101.802 Z-6.000 I-0.062 J1.295 K0.000 F120.000
G3 X6.504 Y104.198 Z-6.000 I-0.496 J1.198 K0.000 F120.000
G3 X7.062 Y101.705 Z-6.000 I0.496 J-1.198 K0.000 F120.000
G1 X7.062 Y101.705 Z-6.500 F60.000
G3 X7.496 Y101.802 Z-6.500 I-0.062 J1.295 K0.000 F120.000
G3 X6.504 Y104.198 Z-6.500 I-0.496 J1.198 K0.000 F120.000
G3 X7.062 Y101.705 Z-6.500 I0.496 J-1.198 K0.000 F120.000
G1 X7.062 Y101.705 Z-7.000 F60.000
G3 X7.496 Y101.802 Z-7.000 I-0.062 J1.295 K0.000 F120.000
G3 X6.504 Y104.198 Z-7.000 I-0.496 J1.198 K0.000 F120.000
G3 X7.062 Y101.705 Z-7.000 I0.496 J-1.198 K0.000 F120.000
G1 X7.062 Y101.705 Z-7.500 F60.000
G3 X7.496 Y101.802 Z-7.500 I-0.062 J1.295 K0.000 F120.000
G3 X6.504 Y104.198 Z-7.500 I-0.496 J1.198 K0.000 F120.000
G3 X7.062 Y101.705 Z-7.500 I0.496 J-1.198 K0.000 F120.000
G1 X7.062 Y101.705 Z-8.000 F60.000
G3 X7.496 Y101.802 Z-8.000 I-0.062 J1.295 K0.000 F120.000
G3 X6.504 Y104.198 Z-8.000 I-0.496 J1.198 K0.000 F120.000
G3 X7.062 Y101.705 Z-8.000 I0.496 J-1.198 K0.000 F120.000
G1 X7.062 Y101.705 Z-8.500 F60.000
G3 X7.496 Y101.802 Z-8.500 I-0.062 J1.295 K0.000 F120.000
G3 X6.504 Y104.198 Z-8.500 I-0.496 J1.198 K0.000 F120.000
G3 X7.062 Y101.705 Z-8.500 I0.496 J-1.198 K0.000 F120.000
G1 X7.062 Y101.705 Z-9.000 F60.000
G3 X7.496 Y101.802 Z-9.000 I-0.062 J1.295 K0.000 F120.000
G3 X6.504 Y104.198 Z-9.000 I-0.496 J1.198 K0.000 F120.000
G3 X7.062 Y101.705 Z-9.000 I0.496 J-1.198 K0.000 F120.000
G1 X7.062 Y101.705 Z-9.500 F60.000
G3 X7.496 Y101.802 Z-9.500 I-0.062 J1.295 K0.000 F120.000
G3 X6.504 Y104.198 Z-9.500 I-0.496 J1.198 K0.000 F120.000
G3 X7.062 Y101.705 Z-9.500 I0.496 J-1.198 K0.000 F120.000
G1 X7.062 Y101.705 Z-10.000 F60.000
G3 X7.496 Y101.802 Z-10.000 I-0.062 J1.295 K0.000 F120.000
G3 X6.504 Y104.198 Z-10.000 I-0.496 J1.198 K0.000 F120.000
G3 X7.062 Y101.705 Z-10.000 I0.496 J-1.198 K0.000 F120.000
G0 Z5.000
G0 Z5.000
G0 X7.062 Y101.705
G0 X16.474 Y93.156
G0 X16.474 Y93.156 Z3.000
G1 X16.474 Y93.156 Z-0.500 F60.000
G3 X11.200 Y79.462 Z-0.500 I15.026 J-13.649 K0.000 F120.000
G1 X11.200 Y49.005 Z-0.500 F120.000
G3 X23.473 Y29.950 Z-0.500 I20.622 J-0.198 K0.000 F120.000
G3 X24.256 Y30.086 Z-0.500 I0.339 J0.374 K0.000 F120.000
G2 X24.626 Y30.910 Z-0.500 I5.359 J-1.913 K0.000 F120.000
G2 X25.463 Y31.278 Z-0.500 I0.632 J-0.301 K0.000 F120.000
G3 X31.000 Y30.286 Z-0.500 I6.032 J17.717 K0.000 F120.000
G3 X36.545 Y31.279 Z-0.500 I-0.495 J18.737 K0.000 F120.000
G2 X37.408 Y30.850 Z-0.500 I0.205 J-0.669 K0.000 F120.000
G2 X37.720 Y29.958 Z-0.500 I-8.985 J-3.650 K0.000 F120.000
G3 X38.682 Y29.738 Z-0.500 I0.568 J0.271 K0.000 F120.000
G3 X51.800 Y49.027 Z-0.500 I-7.871 J19.458 K0.000 F120.000
G1 X51.800 Y79.547 Z-0.500 F120.000
G3 X16.474 Y93.156 Z-0.500 I-20.300 J-0.041 K0.000 F120.000
G1 X16.474 Y93.156 Z-1.000 F60.000
G3 X11.200 Y79.462 Z-1.000 I15.026 J-13.649 K0.000 F120.000
G1 X11.200 Y49.005 Z-1.000 F120.000
G3 X23.473 Y29.950 Z-1.000 I20.622 J-0.198 K0.000 F120.000
G3 X24.256 Y30.086 Z-1.000 I0.339 J0.374 K0.000 F120.000
G2 X24.626 Y30.910 Z-1.000 I5.359 J-1.913 K0.000 F120.000
G2 X25.463 Y31.278 Z-1.000 I0.632 J-0.301 K0.000 F120.000
G3 X31.000 Y30.286 Z-1.000 I6.032 J17.717 K0.000 F120.000
G3 X36.545 Y31.279 Z-1.000 I-0.495 J18.737 K0.000 F120.000
G2 X37.408 Y30.850 Z-1.000 I0.205 J-0.669 K0.000 F120.000
G2 X37.720 Y29.958 Z-1.000 I-8.985 J-3.650 K0.000 F120.000
G3 X38.682 Y29.738 Z-1.000 I0.568 J0.271 K0.000 F120.000
G3 X51.800 Y49.027 Z-1.000 I-7.871 J19.458 K0.000 F120.000
G1 X51.800 Y79.547 Z-1.000 F120.000
G3 X16.474 Y93.156 Z-1.000 I-20.300 J-0.041 K0.000 F120.000
G1 X16.474 Y93.156 Z-1.500 F60.000
G3 X11.200 Y79.462 Z-1.500 I15.026 J-13.649 K0.000 F120.000
G1 X11.200 Y49.005 Z-1.500 F120.000
G3 X23.473 Y29.950 Z-1.500 I20.622 J-0.198 K0.000 F120.000
G3 X24.256 Y30.086 Z-1.500 I0.339 J0.374 K0.000 F120.000
G2 X24.626 Y30.910 Z-1.500 I5.359 J-1.913 K0.000 F120.000
G2 X25.463 Y31.278 Z-1.500 I0.632 J-0.301 K0.000 F120.000
G3 X31.000 Y30.286 Z-1.500 I6.032 J17.717 K0.000 F120.000
G3 X36.545 Y31.279 Z-1.500 I-0.495 J18.737 K0.000 F120.000
G2 X37.408 Y30.850 Z-1.500 I0.205 J-0.669 K0.000 F120.000
G2 X37.720 Y29.958 Z-1.500 I-8.985 J-3.650 K0.000 F120.000
G3 X38.682 Y29.738 Z-1.500 I0.568 J0.271 K0.000 F120.000
G3 X51.800 Y49.027 Z-1.500 I-7.871 J19.458 K0.000 F120.000
G1 X51.800 Y79.547 Z-1.500 F120.000
G3 X16.474 Y93.156 Z-1.500 I-20.300 J-0.041 K0.000 F120.000
G1 X16.474 Y93.156 Z-2.000 F60.000
G3 X11.200 Y79.462 Z-2.000 I15.026 J-13.649 K0.000 F120.000
G1 X11.200 Y49.005 Z-2.000 F120.000
G3 X23.473 Y29.950 Z-2.000 I20.622 J-0.198 K0.000 F120.000
G3 X24.256 Y30.086 Z-2.000 I0.339 J0.374 K0.000 F120.000
G2 X24.626 Y30.910 Z-2.000 I5.359 J-1.913 K0.000 F120.000
G2 X25.463 Y31.278 Z-2.000 I0.632 J-0.301 K0.000 F120.000
G3 X31.000 Y30.286 Z-2.000 I6.032 J17.717 K0.000 F120.000
G3 X36.545 Y31.279 Z-2.000 I-0.495 J18.737 K0.000 F120.000
G2 X37.408 Y30.850 Z-2.000 I0.205 J-0.669 K0.000 F120.000
G2 X37.720 Y29.958 Z-2.000 I-8.985 J-3.650 K0.000 F120.000
G3 X38.682 Y29.738 Z-2.000 I0.568 J0.271 K0.000 F120.000
G3 X51.800 Y49.027 Z-2.000 I-7.871 J19.458 K0.000 F120.000
G1 X51.800 Y79.547 Z-2.000 F120.000
G3 X16.474 Y93.156 Z-2.000 I-20.300 J-0.041 K0.000 F120.000
G1 X16.474 Y93.156 Z-2.500 F60.000
G3 X11.200 Y79.462 Z-2.500 I15.026 J-13.649 K0.000 F120.000
G1 X11.200 Y49.005 Z-2.500 F120.000
G3 X23.473 Y29.950 Z-2.500 I20.622 J-0.198 K0.000 F120.000
G3 X24.256 Y30.086 Z-2.500 I0.339 J0.374 K0.000 F120.000
G2 X24.626 Y30.910 Z-2.500 I5.359 J-1.913 K0.000 F120.000
G2 X25.463 Y31.278 Z-2.500 I0.632 J-0.301 K0.000 F120.000
G3 X31.000 Y30.286 Z-2.500 I6.032 J17.717 K0.000 F120.000
G3 X36.545 Y31.279 Z-2.500 I-0.495 J18.737 K0.000 F120.000
G2 X37.408 Y30.850 Z-2.500 I0.205 J-0.669 K0.000 F120.000
G2 X37.720 Y29.958 Z-2.500 I-8.985 J-3.650 K0.000 F120.000
G3 X38.682 Y29.738 Z-2.500 I0.568 J0.271 K0.000 F120.000
G3 X51.800 Y49.027 Z-2.500 I-7.871 J19.458 K0.000 F120.000
G1 X51.800 Y79.547 Z-2.500 F120.000
G3 X16.474 Y93.156 Z-2.500 I-20.300 J-0.041 K0.000 F120.000
G1 X16.474 Y93.156 Z-3.000 F60.000
G3 X11.200 Y79.462 Z-3.000 I15.026 J-13.649 K0.000 F120.000
G1 X11.200 Y49.005 Z-3.000 F120.000
G3 X23.473 Y29.950 Z-3.000 I20.622 J-0.198 K0.000 F120.000
G3 X24.256 Y30.086 Z-3.000 I0.339 J0.374 K0.000 F120.000
G2 X24.626 Y30.910 Z-3.000 I5.359 J-1.913 K0.000 F120.000
G2 X25.463 Y31.278 Z-3.000 I0.632 J-0.301 K0.000 F120.000
G3 X31.000 Y30.286 Z-3.000 I6.032 J17.717 K0.000 F120.000
G3 X36.545 Y31.279 Z-3.000 I-0.495 J18.737 K0.000 F120.000
G2 X37.408 Y30.850 Z-3.000 I0.205 J-0.669 K0.000 F120.000
G2 X37.720 Y29.958 Z-3.000 I-8.985 J-3.650 K0.000 F120.000
G3 X38.682 Y29.738 Z-3.000 I0.568 J0.271 K0.000 F120.000
G3 X51.800 Y49.027 Z-3.000 I-7.871 J19.458 K0.000 F120.000
G1 X51.800 Y79.547 Z-3.000 F120.000
G3 X16.474 Y93.156 Z-3.000 I-20.300 J-0.041 K0.000 F120.000
G1 X16.474 Y93.156 Z-3.500 F60.000
G3 X11.200 Y79.462 Z-3.500 I15.026 J-13.649 K0.000 F120.000
G1 X11.200 Y49.005 Z-3.500 F120.000
G3 X23.473 Y29.950 Z-3.500 I20.622 J-0.198 K0.000 F120.000
G3 X24.256 Y30.086 Z-3.500 I0.339 J0.374 K0.000 F120.000
G2 X24.626 Y30.910 Z-3.500 I5.359 J-1.913 K0.000 F120.000
G2 X25.463 Y31.278 Z-3.500 I0.632 J-0.301 K0.000 F120.000
G3 X31.000 Y30.286 Z-3.500 I6.032 J17.717 K0.000 F120.000
G3 X36.545 Y31.279 Z-3.500 I-0.495 J18.737 K0.000 F120.000
G2 X37.408 Y30.850 Z-3.500 I0.205 J-0.669 K0.000 F120.000
G2 X37.720 Y29.958 Z-3.500 I-8.985 J-3.650 K0.000 F120.000
G3 X38.682 Y29.738 Z-3.500 I0.568 J0.271 K0.000 F120.000
G3 X51.800 Y49.027 Z-3.500 I-7.871 J19.458 K0.000 F120.000
G1 X51.800 Y79.547 Z-3.500 F120.000
G3 X16.474 Y93.156 Z-3.500 I-20.300 J-0.041 K0.000 F120.000
G1 X16.474 Y93.156 Z-4.000 F60.000
G3 X11.200 Y79.462 Z-4.000 I15.026 J-13.649 K0.000 F120.000
G1 X11.200 Y49.005 Z-4.000 F120.000
G3 X23.473 Y29.950 Z-4.000 I20.622 J-0.198 K0.000 F120.000
G3 X24.256 Y30.086 Z-4.000 I0.339 J0.374 K0.000 F120.000
G2 X24.626 Y30.910 Z-4.000 I5.359 J-1.913 K0.000 F120.000
G2 X25.463 Y31.278 Z-4.000 I0.632 J-0.301 K0.000 F120.000
G3 X31.000 Y30.286 Z-4.000 I6.032 J17.717 K0.000 F120.000
G3 X36.545 Y31.279 Z-4.000 I-0.495 J18.737 K0.000 F120.000
G2 X37.408 Y30.850 Z-4.000 I0.205 J-0.669 K0.000 F120.000
G2 X37.720 Y29.958 Z-4.000 I-8.985 J-3.650 K0.000 F120.000
G3 X38.682 Y29.738 Z-4.000 I0.568 J0.271 K0.000 F120.000
G3 X51.800 Y49.027 Z-4.000 I-7.871 J19.458 K0.000 F120.000
G1 X51.800 Y79.547 Z-4.000 F120.000
G3 X16.474 Y93.156 Z-4.000 I-20.300 J-0.041 K0.000 F120.000
G1 X16.474 Y93.156 Z-4.500 F60.000
G3 X11.200 Y79.462 Z-4.500 I15.026 J-13.649 K0.000 F120.000
G1 X11.200 Y49.005 Z-4.500 F120.000
G3 X23.473 Y29.950 Z-4.500 I20.622 J-0.198 K0.000 F120.000
G3 X24.256 Y30.086 Z-4.500 I0.339 J0.374 K0.000 F120.000
G2 X24.626 Y30.910 Z-4.500 I5.359 J-1.913 K0.000 F120.000
G2 X25.463 Y31.278 Z-4.500 I0.632 J-0.301 K0.000 F120.000
G3 X31.000 Y30.286 Z-4.500 I6.032 J17.717 K0.000 F120.000
G3 X36.545 Y31.279 Z-4.500 I-0.495 J18.737 K0.000 F120.000
G2 X37.408 Y30.850 Z-4.500 I0.205 J-0.669 K0.000 F120.000
G2 X37.720 Y29.958 Z-4.500 I-8.985 J-3.650 K0.000 F120.000
G3 X38.682 Y29.738 Z-4.500 I0.568 J0.271 K0.000 F120.000
G3 X51.800 Y49.027 Z-4.500 I-7.871 J19.458 K0.000 F120.000
G1 X51.800 Y79.547 Z-4.500 F120.000
G3 X16.474 Y93.156 Z-4.500 I-20.300 J-0.041 K0.000 F120.000
G1 X16.474 Y93.156 Z-5.000 F60.000
G3 X11.200 Y79.462 Z-5.000 I15.026 J-13.649 K0.000 F120.000
G1 X11.200 Y49.005 Z-5.000 F120.000
G3 X23.473 Y29.950 Z-5.000 I20.622 J-0.198 K0.000 F120.000
G3 X24.256 Y30.086 Z-5.000 I0.339 J0.374 K0.000 F120.000
G2 X24.626 Y30.910 Z-5.000 I5.359 J-1.913 K0.000 F120.000
G2 X25.463 Y31.278 Z-5.000 I0.632 J-0.301 K0.000 F120.000
G3 X31.000 Y30.286 Z-5.000 I6.032 J17.717 K0.000 F120.000
G3 X36.545 Y31.279 Z-5.000 I-0.495 J18.737 K0.000 F120.000
G2 X37.408 Y30.850 Z-5.000 I0.205 J-0.669 K0.000 F120.000
G2 X37.720 Y29.958 Z-5.000 I-8.985 J-3.650 K0.000 F120.000
G3 X38.682 Y29.738 Z-5.000 I0.568 J0.271 K0.000 F120.000
G3 X51.800 Y49.027 Z-5.000 I-7.871 J19.458 K0.000 F120.000
G1 X51.800 Y79.547 Z-5.000 F120.000
G3 X16.474 Y93.156 Z-5.000 I-20.300 J-0.041 K0.000 F120.000
G1 X16.474 Y93.156 Z-5.500 F60.000
G3 X11.200 Y79.462 Z-5.500 I15.026 J-13.649 K0.000 F120.000
G1 X11.200 Y49.005 Z-5.500 F120.000
G3 X23.473 Y29.950 Z-5.500 I20.622 J-0.198 K0.000 F120.000
G3 X24.256 Y30.086 Z-5.500 I0.339 J0.374 K0.000 F120.000
G2 X24.626 Y30.910 Z-5.500 I5.359 J-1.913 K0.000 F120.000
G2 X25.463 Y31.278 Z-5.500 I0.632 J-0.301 K0.000 F120.000
G3 X31.000 Y30.286 Z-5.500 I6.032 J17.717 K0.000 F120.000
G3 X36.545 Y31.279 Z-5.500 I-0.495 J18.737 K0.000 F120.000
G2 X37.408 Y30.850 Z-5.500 I0.205 J-0.669 K0.000 F120.000
G2 X37.720 Y29.958 Z-5.500 I-8.985 J-3.650 K0.000 F120.000
G3 X38.682 Y29.738 Z-5.500 I0.568 J0.271 K0.000 F120.000
G3 X51.800 Y49.027 Z-5.500 I-7.871 J19.458 K0.000 F120.000
G1 X51.800 Y79.547 Z-5.500 F120.000
G3 X16.474 Y93.156 Z-5.500 I-20.300 J-0.041 K0.000 F120.000
G1 X16.474 Y93.156 Z-6.000 F60.000
G3 X11.200 Y79.462 Z-6.000 I15.026 J-13.649 K0.000 F120.000
G1 X11.200 Y49.005 Z-6.000 F120.000
G3 X23.473 Y29.950 Z-6.000 I20.622 J-0.198 K0.000 F120.000
G3 X24.256 Y30.086 Z-6.000 I0.339 J0.374 K0.000 F120.000
G2 X24.626 Y30.910 Z-6.000 I5.359 J-1.913 K0.000 F120.000
G2 X25.463 Y31.278 Z-6.000 I0.632 J-0.301 K0.000 F120.000
G3 X31.000 Y30.286 Z-6.000 I6.032 J17.717 K0.000 F120.000
G3 X36.545 Y31.279 Z-6.000 I-0.495 J18.737 K0.000 F120.000
G2 X37.408 Y30.850 Z-6.000 I0.205 J-0.669 K0.000 F120.000
G2 X37.720 Y29.958 Z-6.000 I-8.985 J-3.650 K0.000 F120.000
G3 X38.682 Y29.738 Z-6.000 I0.568 J0.271 K0.000 F120.000
G3 X51.800 Y49.027 Z-6.000 I-7.871 J19.458 K0.000 F120.000
G1 X51.800 Y79.547 Z-6.000 F120.000
G3 X16.474 Y93.156 Z-6.000 I-20.300 J-0.041 K0.000 F120.000
G1 X16.474 Y93.156 Z-6.500 F60.000
G3 X11.200 Y79.462 Z-6.500 I15.026 J-13.649 K0.000 F120.000
G1 X11.200 Y49.005 Z-6.500 F120.000
G3 X23.473 Y29.950 Z-6.500 I20.622 J-0.198 K0.000 F120.000
G3 X24.256 Y30.086 Z-6.500 I0.339 J0.374 K0.000 F120.000
G2 X24.626 Y30.910 Z-6.500 I5.359 J-1.913 K0.000 F120.000
G2 X25.463 Y31.278 Z-6.500 I0.632 J-0.301 K0.000 F120.000
G3 X31.000 Y30.286 Z-6.500 I6.032 J17.717 K0.000 F120.000
G3 X36.545 Y31.279 Z-6.500 I-0.495 J18.737 K0.000 F120.000
G2 X37.408 Y30.850 Z-6.500 I0.205 J-0.669 K0.000 F120.000
G2 X37.720 Y29.958 Z-6.500 I-8.985 J-3.650 K0.000 F120.000
G3 X38.682 Y29.738 Z-6.500 I0.568 J0.271 K0.000 F120.000
G3 X51.800 Y49.027 Z-6.500 I-7.871 J19.458 K0.000 F120.000
G1 X51.800 Y79.547 Z-6.500 F120.000
G3 X16.474 Y93.156 Z-6.500 I-20.300 J-0.041 K0.000 F120.000
G1 X16.474 Y93.156 Z-7.000 F60.000
G3 X11.200 Y79.462 Z-7.000 I15.026 J-13.649 K0.000 F120.000
G1 X11.200 Y49.005 Z-7.000 F120.000
G3 X23.473 Y29.950 Z-7.000 I20.622 J-0.198 K0.000 F120.000
G3 X24.256 Y30.086 Z-7.000 I0.339 J0.374 K0.000 F120.000
G2 X24.626 Y30.910 Z-7.000 I5.359 J-1.913 K0.000 F120.000
G2 X25.463 Y31.278 Z-7.000 I0.632 J-0.301 K0.000 F120.000
G3 X31.000 Y30.286 Z-7.000 I6.032 J17.717 K0.000 F120.000
G3 X36.545 Y31.279 Z-7.000 I-0.495 J18.737 K0.000 F120.000
G2 X37.408 Y30.850 Z-7.000 I0.205 J-0.669 K0.000 F120.000
G2 X37.720 Y29.958 Z-7.000 I-8.985 J-3.650 K0.000 F120.000
G3 X38.682 Y29.738 Z-7.000 I0.568 J0.271 K0.000 F120.000
G3 X51.800 Y49.027 Z-7.000 I-7.871 J19.458 K0.000 F120.000
G1 X51.800 Y79.547 Z-7.000 F120.000
G3 X16.474 Y93.156 Z-7.000 I-20.300 J-0.041 K0.000 F120.000
G1 X16.474 Y93.156 Z-7.500 F60.000
G3 X11.200 Y79.462 Z-7.500 I15.026 J-13.649 K0.000 F120.000
G1 X11.200 Y49.005 Z-7.500 F120.000
G3 X23.473 Y29.950 Z-7.500 I20.622 J-0.198 K0.000 F120.000
G3 X24.256 Y30.086 Z-7.500 I0.339 J0.374 K0.000 F120.000
G2 X24.626 Y30.910 Z-7.500 I5.359 J-1.913 K0.000 F120.000
G2 X25.463 Y31.278 Z-7.500 I0.632 J-0.301 K0.000 F120.000
G3 X31.000 Y30.286 Z-7.500 I6.032 J17.717 K0.000 F120.000
G3 X36.545 Y31.279 Z-7.500 I-0.495 J18.737 K0.000 F120.000
G2 X37.408 Y30.850 Z-7.500 I0.205 J-0.669 K0.000 F120.000
G2 X37.720 Y29.958 Z-7.500 I-8.985 J-3.650 K0.000 F120.000
G3 X38.682 Y29.738 Z-7.500 I0.568 J0.271 K0.000 F120.000
G3 X51.800 Y49.027 Z-7.500 I-7.871 J19.458 K0.000 F120.000
G1 X51.800 Y79.547 Z-7.500 F120.000
G3 X16.474 Y93.156 Z-7.500 I-20.300 J-0.041 K0.000 F120.000
G1 X16.474 Y93.156 Z-8.000 F60.000
G3 X11.200 Y79.462 Z-8.000 I15.026 J-13.649 K0.000 F120.000
G1 X11.200 Y49.005 Z-8.000 F120.000
G3 X23.473 Y29.950 Z-8.000 I20.622 J-0.198 K0.000 F120.000
G3 X24.256 Y30.086 Z-8.000 I0.339 J0.374 K0.000 F120.000
G2 X24.626 Y30.910 Z-8.000 I5.359 J-1.913 K0.000 F120.000
G2 X25.463 Y31.278 Z-8.000 I0.632 J-0.301 K0.000 F120.000
G3 X31.000 Y30.286 Z-8.000 I6.032 J17.717 K0.000 F120.000
G3 X36.545 Y31.279 Z-8.000 I-0.495 J18.737 K0.000 F120.000
G2 X37.408 Y30.850 Z-8.000 I0.205 J-0.669 K0.000 F120.000
G2 X37.720 Y29.958 Z-8.000 I-8.985 J-3.650 K0.000 F120.000
G3 X38.682 Y29.738 Z-8.000 I0.568 J0.271 K0.000 F120.000
G3 X51.800 Y49.027 Z-8.000 I-7.871 J19.458 K0.000 F120.000
G1 X51.800 Y79.547 Z-8.000 F120.000
G3 X16.474 Y93.156 Z-8.000 I-20.300 J-0.041 K0.000 F120.000
G1 X16.474 Y93.156 Z-8.500 F60.000
G3 X11.200 Y79.462 Z-8.500 I15.026 J-13.649 K0.000 F120.000
G1 X11.200 Y49.005 Z-8.500 F120.000
G3 X23.473 Y29.950 Z-8.500 I20.622 J-0.198 K0.000 F120.000
G3 X24.256 Y30.086 Z-8.500 I0.339 J0.374 K0.000 F120.000
G2 X24.626 Y30.910 Z-8.500 I5.359 J-1.913 K0.000 F120.000
G2 X25.463 Y31.278 Z-8.500 I0.632 J-0.301 K0.000 F120.000
G3 X31.000 Y30.286 Z-8.500 I6.032 J17.717 K0.000 F120.000
G3 X36.545 Y31.279 Z-8.500 I-0.495 J18.737 K0.000 F120.000
G2 X37.408 Y30.850 Z-8.500 I0.205 J-0.669 K0.000 F120.000
G2 X37.720 Y29.958 Z-8.500 I-8.985 J-3.650 K0.000 F120.000
G3 X38.682 Y29.738 Z-8.500 I0.568 J0.271 K0.000 F120.000
G3 X51.800 Y49.027 Z-8.500 I-7.871 J19.458 K0.000 F120.000
G1 X51.800 Y79.547 Z-8.500 F120.000
G3 X16.474 Y93.156 Z-8.500 I-20.300 J-0.041 K0.000 F120.000
G1 X16.474 Y93.156 Z-9.000 F60.000
G3 X11.200 Y79.462 Z-9.000 I15.026 J-13.649 K0.000 F120.000
G1 X11.200 Y49.005 Z-9.000 F120.000
G3 X23.473 Y29.950 Z-9.000 I20.622 J-0.198 K0.000 F120.000
G3 X24.256 Y30.086 Z-9.000 I0.339 J0.374 K0.000 F120.000
G2 X24.626 Y30.910 Z-9.000 I5.359 J-1.913 K0.000 F120.000
G2 X25.463 Y31.278 Z-9.000 I0.632 J-0.301 K0.000 F120.000
G3 X31.000 Y30.286 Z-9.000 I6.032 J17.717 K0.000 F120.000
G3 X36.545 Y31.279 Z-9.000 I-0.495 J18.737 K0.000 F120.000
G2 X37.408 Y30.850 Z-9.000 I0.205 J-0.669 K0.000 F120.000
G2 X37.720 Y29.958 Z-9.000 I-8.985 J-3.650 K0.000 F120.000
G3 X38.682 Y29.738 Z-9.000 I0.568 J0.271 K0.000 F120.000
G3 X51.800 Y49.027 Z-9.000 I-7.871 J19.458 K0.000 F120.000
G1 X51.800 Y79.547 Z-9.000 F120.000
G3 X16.474 Y93.156 Z-9.000 I-20.300 J-0.041 K0.000 F120.000
G1 X16.474 Y93.156 Z-9.500 F60.000
G3 X11.200 Y79.462 Z-9.500 I15.026 J-13.649 K0.000 F120.000
G1 X11.200 Y49.005 Z-9.500 F120.000
G3 X23.473 Y29.950 Z-9.500 I20.622 J-0.198 K0.000 F120.000
G3 X24.256 Y30.086 Z-9.500 I0.339 J0.374 K0.000 F120.000
G2 X24.626 Y30.910 Z-9.500 I5.359 J-1.913 K0.000 F120.000
G2 X25.463 Y31.278 Z-9.500 I0.632 J-0.301 K0.000 F120.000
G3 X31.000 Y30.286 Z-9.500 I6.032 J17.717 K0.000 F120.000
G3 X36.545 Y31.279 Z-9.500 I-0.495 J18.737 K0.000 F120.000
G2 X37.408 Y30.850 Z-9.500 I0.205 J-0.669 K0.000 F120.000
G2 X37.720 Y29.958 Z-9.500 I-8.985 J-3.650 K0.000 F120.000
G3 X38.682 Y29.738 Z-9.500 I0.568 J0.271 K0.000 F120.000
G3 X51.800 Y49.027 Z-9.500 I-7.871 J19.458 K0.000 F120.000
G1 X51.800 Y79.547 Z-9.500 F120.000
G3 X16.474 Y93.156 Z-9.500 I-20.300 J-0.041 K0.000 F120.000
G1 X16.474 Y93.156 Z-10.000 F60.000
G3 X11.200 Y79.462 Z-10.000 I15.026 J-13.649 K0.000 F120.000
G1 X11.200 Y49.005 Z-10.000 F120.000
G3 X23.473 Y29.950 Z-10.000 I20.622 J-0.198 K0.000 F120.000
G3 X24.256 Y30.086 Z-10.000 I0.339 J0.374 K0.000 F120.000
G2 X24.626 Y30.910 Z-10.000 I5.359 J-1.913 K0.000 F120.000
G2 X25.463 Y31.278 Z-10.000 I0.632 J-0.301 K0.000 F120.000
G3 X31.000 Y30.286 Z-10.000 I6.032 J17.717 K0.000 F120.000
G3 X36.545 Y31.279 Z-10.000 I-0.495 J18.737 K0.000 F120.000
G2 X37.408 Y30.850 Z-10.000 I0.205 J-0.669 K0.000 F120.000
G2 X37.720 Y29.958 Z-10.000 I-8.985 J-3.650 K0.000 F120.000
G3 X38.682 Y29.738 Z-10.000 I0.568 J0.271 K0.000 F120.000
G3 X51.800 Y49.027 Z-10.000 I-7.871 J19.458 K0.000 F120.000
G1 X51.800 Y79.547 Z-10.000 F120.000
G3 X16.474 Y93.156 Z-10.000 I-20.300 J-0.041 K0.000 F120.000
G0 Z5.000
G0 Z5.000
G0 X16.474 Y93.156
G0 X60.705 Y94.837
G0 X60.705 Y94.837 Z3.000
G1 X60.705 Y94.837 Z-0.500 F60.000
G3 X64.461 Y90.735 Z-0.500 I4.296 J0.163 K0.000 F120.000
G1 X65.022 Y90.700 Z-0.500 F120.000
G1 X94.979 Y90.700 Z-0.500 F120.000
G3 X99.174 Y96.029 Z-0.500 I0.019 J4.300 K0.000 F120.000
G3 X94.979 Y99.300 Z-0.500 I-4.177 J-1.031 K0.000 F120.000
G1 X65.022 Y99.300 Z-0.500 F120.000
G3 X60.705 Y94.837 Z-0.500 I-0.021 J-4.299 K0.000 F120.000
G1 X60.705 Y94.837 Z-1.000 F60.000
G3 X64.461 Y90.735 Z-1.000 I4.296 J0.163 K0.000 F120.000
G1 X65.022 Y90.700 Z-1.000 F120.000
G1 X94.979 Y90.700 Z-1.000 F120.000
G3 X99.174 Y96.029 Z-1.000 I0.019 J4.300 K0.000 F120.000
G3 X94.979 Y99.300 Z-1.000 I-4.177 J-1.031 K0.000 F120.000
G1 X65.022 Y99.300 Z-1.000 F120.000
G3 X60.705 Y94.837 Z-1.000 I-0.021 J-4.299 K0.000 F120.000
G1 X60.705 Y94.837 Z-1.500 F60.000
G3 X64.461 Y90.735 Z-1.500 I4.296 J0.163 K0.000 F120.000
G1 X65.022 Y90.700 Z-1.500 F120.000
G1 X94.979 Y90.700 Z-1.500 F120.000
G3 X99.174 Y96.029 Z-1.500 I0.019 J4.300 K0.000 F120.000
G3 X94.979 Y99.300 Z-1.500 I-4.177 J-1.031 K0.000 F120.000
G1 X65.022 Y99.300 Z-1.500 F120.000
G3 X60.705 Y94.837 Z-1.500 I-0.021 J-4.299 K0.000 F120.000
G1 X60.705 Y94.837 Z-2.000 F60.000
G3 X64.461 Y90.735 Z-2.000 I4.296 J0.163 K0.000 F120.000
G1 X65.022 Y90.700 Z-2.000 F120.000
G1 X94.979 Y90.700 Z-2.000 F120.000
G3 X99.174 Y96.029 Z-2.000 I0.019 J4.300 K0.000 F120.000
G3 X94.979 Y99.300 Z-2.000 I-4.177 J-1.031 K0.000 F120.000
G1 X65.022 Y99.300 Z-2.000 F120.000
G3 X60.705 Y94.837 Z-2.000 I-0.021 J-4.299 K0.000 F120.000
G1 X60.705 Y94.837 Z-2.500 F60.000
G3 X64.461 Y90.735 Z-2.500 I4.296 J0.163 K0.000 F120.000
G1 X65.022 Y90.700 Z-2.500 F120.000
G1 X94.979 Y90.700 Z-2.500 F120.000
G3 X99.174 Y96.029 Z-2.500 I0.019 J4.300 K0.000 F120.000
G3 X94.979 Y99.300 Z-2.500 I-4.177 J-1.031 K0.000 F120.000
G1 X65.022 Y99.300 Z-2.500 F120.000
G3 X60.705 Y94.837 Z-2.500 I-0.021 J-4.299 K0.000 F120.000
G1 X60.705 Y94.837 Z-3.000 F60.000
G3 X64.461 Y90.735 Z-3.000 I4.296 J0.163 K0.000 F120.000
G1 X65.022 Y90.700 Z-3.000 F120.000
G1 X94.979 Y90.700 Z-3.000 F120.000
G3 X99.174 Y96.029 Z-3.000 I0.019 J4.300 K0.000 F120.000
G3 X94.979 Y99.300 Z-3.000 I-4.177 J-1.031 K0.000 F120.000
G1 X65.022 Y99.300 Z-3.000 F120.000
G3 X60.705 Y94.837 Z-3.000 I-0.021 J-4.299 K0.000 F120.000
G1 X60.705 Y94.837 Z-3.500 F60.000
G3 X64.461 Y90.735 Z-3.500 I4.296 J0.163 K0.000 F120.000
G1 X65.022 Y90.700 Z-3.500 F120.000
G1 X94.979 Y90.700 Z-3.500 F120.000
G3 X99.174 Y96.029 Z-3.500 I0.019 J4.300 K0.000 F120.000
G3 X94.979 Y99.300 Z-3.500 I-4.177 J-1.031 K0.000 F120.000
G1 X65.022 Y99.300 Z-3.500 F120.000
G3 X60.705 Y94.837 Z-3.500 I-0.021 J-4.299 K0.000 F120.000
G1 X60.705 Y94.837 Z-4.000 F60.000
G3 X64.461 Y90.735 Z-4.000 I4.296 J0.163 K0.000 F120.000
G1 X65.022 Y90.700 Z-4.000 F120.000
G1 X94.979 Y90.700 Z-4.000 F120.000
G3 X99.174 Y96.029 Z-4.000 I0.019 J4.300 K0.000 F120.000
G3 X94.979 Y99.300 Z-4.000 I-4.177 J-1.031 K0.000 F120.000
G1 X65.022 Y99.300 Z-4.000 F120.000
G3 X60.705 Y94.837 Z-4.000 I-0.021 J-4.299 K0.000 F120.000
G1 X60.705 Y94.837 Z-4.500 F60.000
G3 X64.461 Y90.735 Z-4.500 I4.296 J0.163 K0.000 F120.000
G1 X65.022 Y90.700 Z-4.500 F120.000
G1 X94.979 Y90.700 Z-4.500 F120.000
G3 X99.174 Y96.029 Z-4.500 I0.019 J4.300 K0.000 F120.000
G3 X94.979 Y99.300 Z-4.500 I-4.177 J-1.031 K0.000 F120.000
G1 X65.022 Y99.300 Z-4.500 F120.000
G3 X60.705 Y94.837 Z-4.500 I-0.021 J-4.299 K0.000 F120.000
G1 X60.705 Y94.837 Z-5.000 F60.000
G3 X64.461 Y90.735 Z-5.000 I4.296 J0.163 K0.000 F120.000
G1 X65.022 Y90.700 Z-5.000 F120.000
G1 X94.979 Y90.700 Z-5.000 F120.000
G3 X99.174 Y96.029 Z-5.000 I0.019 J4.300 K0.000 F120.000
G3 X94.979 Y99.300 Z-5.000 I-4.177 J-1.031 K0.000 F120.000
G1 X65.022 Y99.300 Z-5.000 F120.000
G3 X60.705 Y94.837 Z-5.000 I-0.021 J-4.299 K0.000 F120.000
G1 X60.705 Y94.837 Z-5.500 F60.000
G3 X64.461 Y90.735 Z-5.500 I4.296 J0.163 K0.000 F120.000
G1 X65.022 Y90.700 Z-5.500 F120.000
G1 X94.979 Y90.700 Z-5.500 F120.000
G3 X99.174 Y96.029 Z-5.500 I0.019 J4.300 K0.000 F120.000
G3 X94.979 Y99.300 Z-5.500 I-4.177 J-1.031 K0.000 F120.000
G1 X65.022 Y99.300 Z-5.500 F120.000
G3 X60.705 Y94.837 Z-5.500 I-0.021 J-4.299 K0.000 F120.000
G1 X60.705 Y94.837 Z-6.000 F60.000
G3 X64.461 Y90.735 Z-6.000 I4.296 J0.163 K0.000 F120.000
G1 X65.022 Y90.700 Z-6.000 F120.000
G1 X94.979 Y90.700 Z-6.000 F120.000
G3 X99.174 Y96.029 Z-6.000 I0.019 J4.300 K0.000 F120.000
G3 X94.979 Y99.300 Z-6.000 I-4.177 J-1.031 K0.000 F120.000
G1 X65.022 Y99.300 Z-6.000 F120.000
G3 X60.705 Y94.837 Z-6.000 I-0.021 J-4.299 K0.000 F120.000
G1 X60.705 Y94.837 Z-6.500 F60.000
G3 X64.461 Y90.735 Z-6.500 I4.296 J0.163 K0.000 F120.000
G1 X65.022 Y90.700 Z-6.500 F120.000
G1 X94.979 Y90.700 Z-6.500 F120.000
G3 X99.174 Y96.029 Z-6.500 I0.019 J4.300 K0.000 F120.000
G3 X94.979 Y99.300 Z-6.500 I-4.177 J-1.031 K0.000 F120.000
G1 X65.022 Y99.300 Z-6.500 F120.000
G3 X60.705 Y94.837 Z-6.500 I-0.021 J-4.299 K0.000 F120.000
G1 X60.705 Y94.837 Z-7.000 F60.000
G3 X64.461 Y90.735 Z-7.000 I4.296 J0.163 K0.000 F120.000
G1 X65.022 Y90.700 Z-7.000 F120.000
G1 X94.979 Y90.700 Z-7.000 F120.000
G3 X99.174 Y96.029 Z-7.000 I0.019 J4.300 K0.000 F120.000
G3 X94.979 Y99.300 Z-7.000 I-4.177 J-1.031 K0.000 F120.000
G1 X65.022 Y99.300 Z-7.000 F120.000
G3 X60.705 Y94.837 Z-7.000 I-0.021 J-4.299 K0.000 F120.000
G1 X60.705 Y94.837 Z-7.500 F60.000
G3 X64.461 Y90.735 Z-7.500 I4.296 J0.163 K0.000 F120.000
G1 X65.022 Y90.700 Z-7.500 F120.000
G1 X94.979 Y90.700 Z-7.500 F120.000
G3 X99.174 Y96.029 Z-7.500 I0.019 J4.300 K0.000 F120.000
G3 X94.979 Y99.300 Z-7.500 I-4.177 J-1.031 K0.000 F120.000
G1 X65.022 Y99.300 Z-7.500 F120.000
G3 X60.705 Y94.837 Z-7.500 I-0.021 J-4.299 K0.000 F120.000
G1 X60.705 Y94.837 Z-8.000 F60.000
G3 X64.461 Y90.735 Z-8.000 I4.296 J0.163 K0.000 F120.000
G1 X65.022 Y90.700 Z-8.000 F120.000
G1 X94.979 Y90.700 Z-8.000 F120.000
G3 X99.174 Y96.029 Z-8.000 I0.019 J4.300 K0.000 F120.000
G3 X94.979 Y99.300 Z-8.000 I-4.177 J-1.031 K0.000 F120.000
G1 X65.022 Y99.300 Z-8.000 F120.000
G3 X60.705 Y94.837 Z-8.000 I-0.021 J-4.299 K0.000 F120.000
G1 X60.705 Y94.837 Z-8.500 F60.000
G3 X64.461 Y90.735 Z-8.500 I4.296 J0.163 K0.000 F120.000
G1 X65.022 Y90.700 Z-8.500 F120.000
G1 X94.979 Y90.700 Z-8.500 F120.000
G3 X99.174 Y96.029 Z-8.500 I0.019 J4.300 K0.000 F120.000
G3 X94.979 Y99.300 Z-8.500 I-4.177 J-1.031 K0.000 F120.000
G1 X65.022 Y99.300 Z-8.500 F120.000
G3 X60.705 Y94.837 Z-8.500 I-0.021 J-4.299 K0.000 F120.000
G1 X60.705 Y94.837 Z-9.000 F60.000
G3 X64.461 Y90.735 Z-9.000 I4.296 J0.163 K0.000 F120.000
G1 X65.022 Y90.700 Z-9.000 F120.000
G1 X94.979 Y90.700 Z-9.000 F120.000
G3 X99.174 Y96.029 Z-9.000 I0.019 J4.300 K0.000 F120.000
G3 X94.979 Y99.300 Z-9.000 I-4.177 J-1.031 K0.000 F120.000
G1 X65.022 Y99.300 Z-9.000 F120.000
G3 X60.705 Y94.837 Z-9.000 I-0.021 J-4.299 K0.000 F120.000
G1 X60.705 Y94.837 Z-9.500 F60.000
G3 X64.461 Y90.735 Z-9.500 I4.296 J0.163 K0.000 F120.000
G1 X65.022 Y90.700 Z-9.500 F120.000
G1 X94.979 Y90.700 Z-9.500 F120.000
G3 X99.174 Y96.029 Z-9.500 I0.019 J4.300 K0.000 F120.000
G3 X94.979 Y99.300 Z-9.500 I-4.177 J-1.031 K0.000 F120.000
G1 X65.022 Y99.300 Z-9.500 F120.000
G3 X60.705 Y94.837 Z-9.500 I-0.021 J-4.299 K0.000 F120.000
G1 X60.705 Y94.837 Z-10.000 F60.000
G3 X64.461 Y90.735 Z-10.000 I4.296 J0.163 K0.000 F120.000
G1 X65.022 Y90.700 Z-10.000 F120.000
G1 X94.979 Y90.700 Z-10.000 F120.000
G3 X99.174 Y96.029 Z-10.000 I0.019 J4.300 K0.000 F120.000
G3 X94.979 Y99.300 Z-10.000 I-4.177 J-1.031 K0.000 F120.000
G1 X65.022 Y99.300 Z-10.000 F120.000
G3 X60.705 Y94.837 Z-10.000 I-0.021 J-4.299 K0.000 F120.000
G0 Z5.000
G0 Z5.000
G0 X60.705 Y94.837
G0 X60.984 Y80.300
G0 X60.984 Y80.300 Z3.000
G1 X60.984 Y80.300 Z-0.500 F60.000
G3 X59.700 Y78.966 Z-0.500 I0.025 J-1.309 K0.000 F120.000
G1 X59.700 Y26.000 Z-0.500 F120.000
G2 X59.495 Y25.505 Z-0.500 I-0.700 J-0.000 K0.000 F120.000
G1 X57.495 Y23.505 Z-0.500 F120.000
G2 X57.000 Y23.300 Z-0.500 I-0.495 J0.495 K0.000 F120.000
G1 X22.009 Y23.300 Z-0.500 F120.000
G3 X20.700 Y21.966 Z-0.500 I-0.001 J-1.308 K0.000 F120.000
G1 X20.700 Y16.028 Z-0.500 F120.000
G3 X22.034 Y14.700 Z-0.500 I1.309 J-0.019 K0.000 F120.000
G2 X137.990 Y14.695 Z-0.500 I33.982 J-603782.017 K0.000 F120.000
G3 X139.300 Y16.033 Z-0.500 I0.002 J1.308 K0.000 F120.000
G1 X139.300 Y21.967 Z-0.500 F120.000
G3 X137.990 Y23.304 Z-0.500 I-1.308 J0.029 K0.000 F120.000
G1 X102.998 Y23.304 Z-0.500 F120.000
G2 X102.503 Y23.509 Z-0.500 I-0.000 J0.700 K0.000 F120.000
G1 X100.507 Y25.501 Z-0.500 F120.000
G2 X100.301 Y25.996 Z-0.500 I0.494 J0.496 K0.000 F120.000
G1 X100.300 Y78.966 Z-0.500 F120.000
G3 X98.966 Y80.300 Z-0.500 I-1.309 J0.026 K0.000 F120.000
G1 X61.034 Y80.300 Z-0.500 F120.000
G3 X60.984 Y80.300 Z-0.500 I-0.026 J-1.309 K0.000 F120.000
G1 X60.984 Y80.300 Z-1.000 F60.000
G3 X59.700 Y78.966 Z-1.000 I0.025 J-1.309 K0.000 F120.000
G1 X59.700 Y26.000 Z-1.000 F120.000
G2 X59.495 Y25.505 Z-1.000 I-0.700 J-0.000 K0.000 F120.000
G1 X57.495 Y23.505 Z-1.000 F120.000
G2 X57.000 Y23.300 Z-1.000 I-0.495 J0.495 K0.000 F120.000
G1 X22.009 Y23.300 Z-1.000 F120.000
G3 X20.700 Y21.966 Z-1.000 I-0.001 J-1.308 K0.000 F120.000
G1 X20.700 Y16.028 Z-1.000 F120.000
G3 X22.034 Y14.700 Z-1.000 I1.309 J-0.019 K0.000 F120.000
G2 X137.990 Y14.695 Z-1.000 I33.982 J-603782.017 K0.000 F120.000
G3 X139.300 Y16.033 Z-1.000 I0.002 J1.308 K0.000 F120.000
G1 X139.300 Y21.967 Z-1.000 F120.000
G3 X137.990 Y23.304 Z-1.000 I-1.308 J0.029 K0.000 F120.000
G1 X102.998 Y23.304 Z-1.000 F120.000
G2 X102.503 Y23.509 Z-1.000 I-0.000 J0.700 K0.000 F120.000
G1 X100.507 Y25.501 Z-1.000 F120.000
G2 X100.301 Y25.996 Z-1.000 I0.494 J0.496 K0.000 F120.000
G1 X100.300 Y78.966 Z-1.000 F120.000
G3 X98.966 Y80.300 Z-1.000 I-1.309 J0.026 K0.000 F120.000
G1 X61.034 Y80.300 Z-1.000 F120.000
G3 X60.984 Y80.300 Z-1.000 I-0.026 J-1.309 K0.000 F120.000
G1 X60.984 Y80.300 Z-1.500 F60.000
G3 X59.700 Y78.966 Z-1.500 I0.025 J-1.309 K0.000 F120.000
G1 X59.700 Y26.000 Z-1.500 F120.000
G2 X59.495 Y25.505 Z-1.500 I-0.700 J-0.000 K0.000 F120.000
G1 X57.495 Y23.505 Z-1.500 F120.000
G2 X57.000 Y23.300 Z-1.500 I-0.495 J0.495 K0.000 F120.000
G1 X22.009 Y23.300 Z-1.500 F120.000
G3 X20.700 Y21.966 Z-1.500 I-0.001 J-1.308 K0.000 F120.000
G1 X20.700 Y16.028 Z-1.500 F120.000
G3 X22.034 Y14.700 Z-1.500 I1.309 J-0.019 K0.000 F120.000
G2 X137.990 Y14.695 Z-1.500 I33.982 J-603782.017 K0.000 F120.000
G3 X139.300 Y16.033 Z-1.500 I0.002 J1.308 K0.000 F120.000
G1 X139.300 Y21.967 Z-1.500 F120.000
G3 X137.990 Y23.304 Z-1.500 I-1.308 J0.029 K0.000 F120.000
G1 X102.998 Y23.304 Z-1.500 F120.000
G2 X102.503 Y23.509 Z-1.500 I-0.000 J0.700 K0.000 F120.000
G1 X100.507 Y25.501 Z-1.500 F120.000
G2 X100.301 Y25.996 Z-1.500 I0.494 J0.496 K0.000 F120.000
G1 X100.300 Y78.966 Z-1.500 F120.000
G3 X98.966 Y80.300 Z-1.500 I-1.309 J0.026 K0.000 F120.000
G1 X61.034 Y80.300 Z-1.500 F120.000
G3 X60.984 Y80.300 Z-1.500 I-0.026 J-1.309 K0.000 F120.000
G1 X60.984 Y80.300 Z-2.000 F60.000
G3 X59.700 Y78.966 Z-2.000 I0.025 J-1.309 K0.000 F120.000
G1 X59.700 Y26.000 Z-2.000 F120.000
G2 X59.495 Y25.505 Z-2.000 I-0.700 J-0.000 K0.000 F120.000
G1 X57.495 Y23.505 Z-2.000 F120.000
G2 X57.000 Y23.300 Z-2.000 I-0.495 J0.495 K0.000 F120.000
G1 X22.009 Y23.300 Z-2.000 F120.000
G3 X20.700 Y21.966 Z-2.000 I-0.001 J-1.308 K0.000 F120.000
G1 X20.700 Y16.028 Z-2.000 F120.000
G3 X22.034 Y14.700 Z-2.000 I1.309 J-0.019 K0.000 F120.000
G2 X137.990 Y14.695 Z-2.000 I33.982 J-603782.017 K0.000 F120.000
G3 X139.300 Y16.033 Z-2.000 I0.002 J1.308 K0.000 F120.000
G1 X139.300 Y21.967 Z-2.000 F120.000
G3 X137.990 Y23.304 Z-2.000 I-1.308 J0.029 K0.000 F120.000
G1 X102.998 Y23.304 Z-2.000 F120.000
G2 X102.503 Y23.509 Z-2.000 I-0.000 J0.700 K0.000 F120.000
G1 X100.507 Y25.501 Z-2.000 F120.000
G2 X100.301 Y25.996 Z-2.000 I0.494 J0.496 K0.000 F120.000
G1 X100.300 Y78.966 Z-2.000 F120.000
G3 X98.966 Y80.300 Z-2.000 I-1.309 J0.026 K0.000 F120.000
G1 X61.034 Y80.300 Z-2.000 F120.000
G3 X60.984 Y80.300 Z-2.000 I-0.026 J-1.309 K0.000 F120.000
G1 X60.984 Y80.300 Z-2.500 F60.000
G3 X59.700 Y78.966 Z-2.500 I0.025 J-1.309 K0.000 F120.000
G1 X59.700 Y26.000 Z-2.500 F120.000
G2 X59.495 Y25.505 Z-2.500 I-0.700 J-0.000 K0.000 F120.000
G1 X57.495 Y23.505 Z-2.500 F120.000
G2 X57.000 Y23.300 Z-2.500 I-0.495 J0.495 K0.000 F120.000
G1 X22.009 Y23.300 Z-2.500 F120.000
G3 X20.700 Y21.966 Z-2.500 I-0.001 J-1.308 K0.000 F120.000
G1 X20.700 Y16.028 Z-2.500 F120.000
G3 X22.034 Y14.700 Z-2.500 I1.309 J-0.019 K0.000 F120.000
G2 X137.990 Y14.695 Z-2.500 I33.982 J-603782.017 K0.000 F120.000
G3 X139.300 Y16.033 Z-2.500 I0.002 J1.308 K0.000 F120.000
G1 X139.300 Y21.967 Z-2.500 F120.000
G3 X137.990 Y23.304 Z-2.500 I-1.308 J0.029 K0.000 F120.000
G1 X102.998 Y23.304 Z-2.500 F120.000
G2 X102.503 Y23.509 Z-2.500 I-0.000 J0.700 K0.000 F120.000
G1 X100.507 Y25.501 Z-2.500 F120.000
G2 X100.301 Y25.996 Z-2.500 I0.494 J0.496 K0.000 F120.000
G1 X100.300 Y78.966 Z-2.500 F120.000
G3 X98.966 Y80.300 Z-2.500 I-1.309 J0.026 K0.000 F120.000
G1 X61.034 Y80.300 Z-2.500 F120.000
G3 X60.984 Y80.300 Z-2.500 I-0.026 J-1.309 K0.000 F120.000
G1 X60.984 Y80.300 Z-3.000 F60.000
G3 X59.700 Y78.966 Z-3.000 I0.025 J-1.309 K0.000 F120.000
G1 X59.700 Y26.000 Z-3.000 F120.000
G2 X59.495 Y25.505 Z-3.000 I-0.700 J-0.000 K0.000 F120.000
G1 X57.495 Y23.505 Z-3.000 F120.000
G2 X57.000 Y23.300 Z-3.000 I-0.495 J0.495 K0.000 F120.000
G1 X22.009 Y23.300 Z-3.000 F120.000
G3 X20.700 Y21.966 Z-3.000 I-0.001 J-1.308 K0.000 F120.000
G1 X20.700 Y16.028 Z-3.000 F120.000
G3 X22.034 Y14.700 Z-3.000 I1.309 J-0.019 K0.000 F120.000
G2 X137.990 Y14.695 Z-3.000 I33.982 J-603782.017 K0.000 F120.000
G3 X139.300 Y16.033 Z-3.000 I0.002 J1.308 K0.000 F120.000
G1 X139.300 Y21.967 Z-3.000 F120.000
G3 X137.990 Y23.304 Z-3.000 I-1.308 J0.029 K0.000 F120.000
G1 X102.998 Y23.304 Z-3.000 F120.000
G2 X102.503 Y23.509 Z-3.000 I-0.000 J0.700 K0.000 F120.000
G1 X100.507 Y25.501 Z-3.000 F120.000
G2 X100.301 Y25.996 Z-3.000 I0.494 J0.496 K0.000 F120.000
G1 X100.300 Y78.966 Z-3.000 F120.000
G3 X98.966 Y80.300 Z-3.000 I-1.309 J0.026 K0.000 F120.000
G1 X61.034 Y80.300 Z-3.000 F120.000
G3 X60.984 Y80.300 Z-3.000 I-0.026 J-1.309 K0.000 F120.000
G1 X60.984 Y80.300 Z-3.500 F60.000
G3 X59.700 Y78.966 Z-3.500 I0.025 J-1.309 K0.000 F120.000
G1 X59.700 Y26.000 Z-3.500 F120.000
G2 X59.495 Y25.505 Z-3.500 I-0.700 J-0.000 K0.000 F120.000
G1 X57.495 Y23.505 Z-3.500 F120.000
G2 X57.000 Y23.300 Z-3.500 I-0.495 J0.495 K0.000 F120.000
G1 X22.009 Y23.300 Z-3.500 F120.000
G3 X20.700 Y21.966 Z-3.500 I-0.001 J-1.308 K0.000 F120.000
G1 X20.700 Y16.028 Z-3.500 F120.000
G3 X22.034 Y14.700 Z-3.500 I1.309 J-0.019 K0.000 F120.000
G2 X137.990 Y14.695 Z-3.500 I33.982 J-603782.017 K0.000 F120.000
G3 X139.300 Y16.033 Z-3.500 I0.002 J1.308 K0.000 F120.000
G1 X139.300 Y21.967 Z-3.500 F120.000
G3 X137.990 Y23.304 Z-3.500 I-1.308 J0.029 K0.000 F120.000
G1 X102.998 Y23.304 Z-3.500 F120.000
G2 X102.503 Y23.509 Z-3.500 I-0.000 J0.700 K0.000 F120.000
G1 X100.507 Y25.501 Z-3.500 F120.000
G2 X100.301 Y25.996 Z-3.500 I0.494 J0.496 K0.000 F120.000
G1 X100.300 Y78.966 Z-3.500 F120.000
G3 X98.966 Y80.300 Z-3.500 I-1.309 J0.026 K0.000 F120.000
G1 X61.034 Y80.300 Z-3.500 F120.000
G3 X60.984 Y80.300 Z-3.500 I-0.026 J-1.309 K0.000 F120.000
G1 X60.984 Y80.300 Z-4.000 F60.000
G3 X59.700 Y78.966 Z-4.000 I0.025 J-1.309 K0.000 F120.000
G1 X59.700 Y26.000 Z-4.000 F120.000
G2 X59.495 Y25.505 Z-4.000 I-0.700 J-0.000 K0.000 F120.000
G1 X57.495 Y23.505 Z-4.000 F120.000
G2 X57.000 Y23.300 Z-4.000 I-0.495 J0.495 K0.000 F120.000
G1 X22.009 Y23.300 Z-4.000 F120.000
G3 X20.700 Y21.966 Z-4.000 I-0.001 J-1.308 K0.000 F120.000
G1 X20.700 Y16.028 Z-4.000 F120.000
G3 X22.034 Y14.700 Z-4.000 I1.309 J-0.019 K0.000 F120.000
G2 X137.990 Y14.695 Z-4.000 I33.982 J-603782.017 K0.000 F120.000
G3 X139.300 Y16.033 Z-4.000 I0.002 J1.308 K0.000 F120.000
G1 X139.300 Y21.967 Z-4.000 F120.000
G3 X137.990 Y23.304 Z-4.000 I-1.308 J0.029 K0.000 F120.000
G1 X102.998 Y23.304 Z-4.000 F120.000
G2 X102.503 Y23.509 Z-4.000 I-0.000 J0.700 K0.000 F120.000
G1 X100.507 Y25.501 Z-4.000 F120.000
G2 X100.301 Y25.996 Z-4.000 I0.494 J0.496 K0.000 F120.000
G1 X100.300 Y78.966 Z-4.000 F120.000
G3 X98.966 Y80.300 Z-4.000 I-1.309 J0.026 K0.000 F120.000
G1 X61.034 Y80.300 Z-4.000 F120.000
G3 X60.984 Y80.300 Z-4.000 I-0.026 J-1.309 K0.000 F120.000
G1 X60.984 Y80.300 Z-4.500 F60.000
G3 X59.700 Y78.966 Z-4.500 I0.025 J-1.309 K0.000 F120.000
G1 X59.700 Y26.000 Z-4.500 F120.000
G2 X59.495 Y25.505 Z-4.500 I-0.700 J-0.000 K0.000 F120.000
G1 X57.495 Y23.505 Z-4.500 F120.000
G2 X57.000 Y23.300 Z-4.500 I-0.495 J0.495 K0.000 F120.000
G1 X22.009 Y23.300 Z-4.500 F120.000
G3 X20.700 Y21.966 Z-4.500 I-0.001 J-1.308 K0.000 F120.000
G1 X20.700 Y16.028 Z-4.500 F120.000
G3 X22.034 Y14.700 Z-4.500 I1.309 J-0.019 K0.000 F120.000
G2 X137.990 Y14.695 Z-4.500 I33.982 J-603782.017 K0.000 F120.000
G3 X139.300 Y16.033 Z-4.500 I0.002 J1.308 K0.000 F120.000
G1 X139.300 Y21.967 Z-4.500 F120.000
G3 X137.990 Y23.304 Z-4.500 I-1.308 J0.029 K0.000 F120.000
G1 X102.998 Y23.304 Z-4.500 F120.000
G2 X102.503 Y23.509 Z-4.500 I-0.000 J0.700 K0.000 F120.000
G1 X100.507 Y25.501 Z-4.500 F120.000
G2 X100.301 Y25.996 Z-4.500 I0.494 J0.496 K0.000 F120.000
G1 X100.300 Y78.966 Z-4.500 F120.000
G3 X98.966 Y80.300 Z-4.500 I-1.309 J0.026 K0.000 F120.000
G1 X61.034 Y80.300 Z-4.500 F120.000
G3 X60.984 Y80.300 Z-4.500 I-0.026 J-1.309 K0.000 F120.000
G1 X60.984 Y80.300 Z-5.000 F60.000
G3 X59.700 Y78.966 Z-5.000 I0.025 J-1.309 K0.000 F120.000
G1 X59.700 Y26.000 Z-5.000 F120.000
G2 X59.495 Y25.505 Z-5.000 I-0.700 J-0.000 K0.000 F120.000
G1 X57.495 Y23.505 Z-5.000 F120.000
G2 X57.000 Y23.300 Z-5.000 I-0.495 J0.495 K0.000 F120.000
G1 X22.009 Y23.300 Z-5.000 F120.000
G3 X20.700 Y21.966 Z-5.000 I-0.001 J-1.308 K0.000 F120.000
G1 X20.700 Y16.028 Z-5.000 F120.000
G3 X22.034 Y14.700 Z-5.000 I1.309 J-0.019 K0.000 F120.000
G2 X137.990 Y14.695 Z-5.000 I33.982 J-603782.017 K0.000 F120.000
G3 X139.300 Y16.033 Z-5.000 I0.002 J1.308 K0.000 F120.000
G1 X139.300 Y21.967 Z-5.000 F120.000
G3 X137.990 Y23.304 Z-5.000 I-1.308 J0.029 K0.000 F120.000
G1 X102.998 Y23.304 Z-5.000 F120.000
G2 X102.503 Y23.509 Z-5.000 I-0.000 J0.700 K0.000 F120.000
G1 X100.507 Y25.501 Z-5.000 F120.000
G2 X100.301 Y25.996 Z-5.000 I0.494 J0.496 K0.000 F120.000
G1 X100.300 Y78.966 Z-5.000 F120.000
G3 X98.966 Y80.300 Z-5.000 I-1.309 J0.026 K0.000 F120.000
G1 X61.034 Y80.300 Z-5.000 F120.000
G3 X60.984 Y80.300 Z-5.000 I-0.026 J-1.309 K0.000 F120.000
G1 X60.984 Y80.300 Z-5.500 F60.000
G3 X59.700 Y78.966 Z-5.500 I0.025 J-1.309 K0.000 F120.000
G1 X59.700 Y26.000 Z-5.500 F120.000
G2 X59.495 Y25.505 Z-5.500 I-0.700 J-0.000 K0.000 F120.000
G1 X57.495 Y23.505 Z-5.500 F120.000
G2 X57.000 Y23.300 Z-5.500 I-0.495 J0.495 K0.000 F120.000
G1 X22.009 Y23.300 Z-5.500 F120.000
G3 X20.700 Y21.966 Z-5.500 I-0.001 J-1.308 K0.000 F120.000
G1 X20.700 Y16.028 Z-5.500 F120.000
G3 X22.034 Y14.700 Z-5.500 I1.309 J-0.019 K0.000 F120.000
G2 X137.990 Y14.695 Z-5.500 I33.982 J-603782.017 K0.000 F120.000
G3 X139.300 Y16.033 Z-5.500 I0.002 J1.308 K0.000 F120.000
G1 X139.300 Y21.967 Z-5.500 F120.000
G3 X137.990 Y23.304 Z-5.500 I-1.308 J0.029 K0.000 F120.000
G1 X102.998 Y23.304 Z-5.500 F120.000
G2 X102.503 Y23.509 Z-5.500 I-0.000 J0.700 K0.000 F120.000
G1 X100.507 Y25.501 Z-5.500 F120.000
G2 X100.301 Y25.996 Z-5.500 I0.494 J0.496 K0.000 F120.000
G1 X100.300 Y78.966 Z-5.500 F120.000
G3 X98.966 Y80.300 Z-5.500 I-1.309 J0.026 K0.000 F120.000
G1 X61.034 Y80.300 Z-5.500 F120.000
G3 X60.984 Y80.300 Z-5.500 I-0.026 J-1.309 K0.000 F120.000
G1 X60.984 Y80.300 Z-6.000 F60.000
G3 X59.700 Y78.966 Z-6.000 I0.025 J-1.309 K0.000 F120.000
G1 X59.700 Y26.000 Z-6.000 F120.000
G2 X59.495 Y25.505 Z-6.000 I-0.700 J-0.000 K0.000 F120.000
G1 X57.495 Y23.505 Z-6.000 F120.000
G2 X57.000 Y23.300 Z-6.000 I-0.495 J0.495 K0.000 F120.000
G1 X22.009 Y23.300 Z-6.000 F120.000
G3 X20.700 Y21.966 Z-6.000 I-0.001 J-1.308 K0.000 F120.000
G1 X20.700 Y16.028 Z-6.000 F120.000
G3 X22.034 Y14.700 Z-6.000 I1.309 J-0.019 K0.000 F120.000
G2 X137.990 Y14.695 Z-6.000 I33.982 J-603782.017 K0.000 F120.000
G3 X139.300 Y16.033 Z-6.000 I0.002 J1.308 K0.000 F120.000
G1 X139.300 Y21.967 Z-6.000 F120.000
G3 X137.990 Y23.304 Z-6.000 I-1.308 J0.029 K0.000 F120.000
G1 X102.998 Y23.304 Z-6.000 F120.000
G2 X102.503 Y23.509 Z-6.000 I-0.000 J0.700 K0.000 F120.000
G1 X100.507 Y25.501 Z-6.000 F120.000
G2 X100.301 Y25.996 Z-6.000 I0.494 J0.496 K0.000 F120.000
G1 X100.300 Y78.966 Z-6.000 F120.000
G3 X98.966 Y80.300 Z-6.000 I-1.309 J0.026 K0.000 F120.000
G1 X61.034 Y80.300 Z-6.000 F120.000
G3 X60.984 Y80.300 Z-6.000 I-0.026 J-1.309 K0.000 F120.000
G1 X60.984 Y80.300 Z-6.500 F60.000
G3 X59.700 Y78.966 Z-6.500 I0.025 J-1.309 K0.000 F120.000
G1 X59.700 Y26.000 Z-6.500 F120.000
G2 X59.495 Y25.505 Z-6.500 I-0.700 J-0.000 K0.000 F120.000
G1 X57.495 Y23.505 Z-6.500 F120.000
G2 X57.000 Y23.300 Z-6.500 I-0.495 J0.495 K0.000 F120.000
G1 X22.009 Y23.300 Z-6.500 F120.000
G3 X20.700 Y21.966 Z-6.500 I-0.001 J-1.308 K0.000 F120.000
G1 X20.700 Y16.028 Z-6.500 F120.000
G3 X22.034 Y14.700 Z-6.500 I1.309 J-0.019 K0.000 F120.000
G2 X137.990 Y14.695 Z-6.500 I33.982 J-603782.017 K0.000 F120.000
G3 X139.300 Y16.033 Z-6.500 I0.002 J1.308 K0.000 F120.000
G1 X139.300 Y21.967 Z-6.500 F120.000
G3 X137.990 Y23.304 Z-6.500 I-1.308 J0.029 K0.000 F120.000
G1 X102.998 Y23.304 Z-6.500 F120.000
G2 X102.503 Y23.509 Z-6.500 I-0.000 J0.700 K0.000 F120.000
G1 X100.507 Y25.501 Z-6.500 F120.000
G2 X100.301 Y25.996 Z-6.500 I0.494 J0.496 K0.000 F120.000
G1 X100.300 Y78.966 Z-6.500 F120.000
G3 X98.966 Y80.300 Z-6.500 I-1.309 J0.026 K0.000 F120.000
G1 X61.034 Y80.300 Z-6.500 F120.000
G3 X60.984 Y80.300 Z-6.500 I-0.026 J-1.309 K0.000 F120.000
G1 X60.984 Y80.300 Z-7.000 F60.000
G3 X59.700 Y78.966 Z-7.000 I0.025 J-1.309 K0.000 F120.000
G1 X59.700 Y26.000 Z-7.000 F120.000
G2 X59.495 Y25.505 Z-7.000 I-0.700 J-0.000 K0.000 F120.000
G1 X57.495 Y23.505 Z-7.000 F120.000
G2 X57.000 Y23.300 Z-7.000 I-0.495 J0.495 K0.000 F120.000
G1 X22.009 Y23.300 Z-7.000 F120.000
G3 X20.700 Y21.966 Z-7.000 I-0.001 J-1.308 K0.000 F120.000
G1 X20.700 Y16.028 Z-7.000 F120.000
G3 X22.034 Y14.700 Z-7.000 I1.309 J-0.019 K0.000 F120.000
G2 X137.990 Y14.695 Z-7.000 I33.982 J-603782.017 K0.000 F120.000
G3 X139.300 Y16.033 Z-7.000 I0.002 J1.308 K0.000 F120.000
G1 X139.300 Y21.967 Z-7.000 F120.000
G3 X137.990 Y23.304 Z-7.000 I-1.308 J0.029 K0.000 F120.000
G1 X102.998 Y23.304 Z-7.000 F120.000
G2 X102.503 Y23.509 Z-7.000 I-0.000 J0.700 K0.000 F120.000
G1 X100.507 Y25.501 Z-7.000 F120.000
G2 X100.301 Y25.996 Z-7.000 I0.494 J0.496 K0.000 F120.000
G1 X100.300 Y78.966 Z-7.000 F120.000
G3 X98.966 Y80.300 Z-7.000 I-1.309 J0.026 K0.000 F120.000
G1 X61.034 Y80.300 Z-7.000 F120.000
G3 X60.984 Y80.300 Z-7.000 I-0.026 J-1.309 K0.000 F120.000
G1 X60.984 Y80.300 Z-7.500 F60.000
G3 X59.700 Y78.966 Z-7.500 I0.025 J-1.309 K0.000 F120.000
G1 X59.700 Y26.000 Z-7.500 F120.000
G2 X59.495 Y25.505 Z-7.500 I-0.700 J-0.000 K0.000 F120.000
G1 X57.495 Y23.505 Z-7.500 F120.000
G2 X57.000 Y23.300 Z-7.500 I-0.495 J0.495 K0.000 F120.000
G1 X22.009 Y23.300 Z-7.500 F120.000
G3 X20.700 Y21.966 Z-7.500 I-0.001 J-1.308 K0.000 F120.000
G1 X20.700 Y16.028 Z-7.500 F120.000
G3 X22.034 Y14.700 Z-7.500 I1.309 J-0.019 K0.000 F120.000
G2 X137.990 Y14.695 Z-7.500 I33.982 J-603782.017 K0.000 F120.000
G3 X139.300 Y16.033 Z-7.500 I0.002 J1.308 K0.000 F120.000
G1 X139.300 Y21.967 Z-7.500 F120.000
G3 X137.990 Y23.304 Z-7.500 I-1.308 J0.029 K0.000 F120.000
G1 X102.998 Y23.304 Z-7.500 F120.000
G2 X102.503 Y23.509 Z-7.500 I-0.000 J0.700 K0.000 F120.000
G1 X100.507 Y25.501 Z-7.500 F120.000
G2 X100.301 Y25.996 Z-7.500 I0.494 J0.496 K0.000 F120.000
G1 X100.300 Y78.966 Z-7.500 F120.000
G3 X98.966 Y80.300 Z-7.500 I-1.309 J0.026 K0.000 F120.000
G1 X61.034 Y80.300 Z-7.500 F120.000
G3 X60.984 Y80.300 Z-7.500 I-0.026 J-1.309 K0.000 F120.000
G1 X60.984 Y80.300 Z-8.000 F60.000
G3 X59.700 Y78.966 Z-8.000 I0.025 J-1.309 K0.000 F120.000
G1 X59.700 Y26.000 Z-8.000 F120.000
G2 X59.495 Y25.505 Z-8.000 I-0.700 J-0.000 K0.000 F120.000
G1 X57.495 Y23.505 Z-8.000 F120.000
G2 X57.000 Y23.300 Z-8.000 I-0.495 J0.495 K0.000 F120.000
G1 X22.009 Y23.300 Z-8.000 F120.000
G3 X20.700 Y21.966 Z-8.000 I-0.001 J-1.308 K0.000 F120.000
G1 X20.700 Y16.028 Z-8.000 F120.000
G3 X22.034 Y14.700 Z-8.000 I1.309 J-0.019 K0.000 F120.000
G2 X137.990 Y14.695 Z-8.000 I33.982 J-603782.017 K0.000 F120.000
G3 X139.300 Y16.033 Z-8.000 I0.002 J1.308 K0.000 F120.000
G1 X139.300 Y21.967 Z-8.000 F120.000
G3 X137.990 Y23.304 Z-8.000 I-1.308 J0.029 K0.000 F120.000
G1 X102.998 Y23.304 Z-8.000 F120.000
G2 X102.503 Y23.509 Z-8.000 I-0.000 J0.700 K0.000 F120.000
G1 X100.507 Y25.501 Z-8.000 F120.000
G2 X100.301 Y25.996 Z-8.000 I0.494 J0.496 K0.000 F120.000
G1 X100.300 Y78.966 Z-8.000 F120.000
G3 X98.966 Y80.300 Z-8.000 I-1.309 J0.026 K0.000 F120.000
G1 X61.034 Y80.300 Z-8.000 F120.000
G3 X60.984 Y80.300 Z-8.000 I-0.026 J-1.309 K0.000 F120.000
G1 X60.984 Y80.300 Z-8.500 F60.000
G3 X59.700 Y78.966 Z-8.500 I0.025 J-1.309 K0.000 F120.000
G1 X59.700 Y26.000 Z-8.500 F120.000
G2 X59.495 Y25.505 Z-8.500 I-0.700 J-0.000 K0.000 F120.000
G1 X57.495 Y23.505 Z-8.500 F120.000
G2 X57.000 Y23.300 Z-8.500 I-0.495 J0.495 K0.000 F120.000
G1 X22.009 Y23.300 Z-8.500 F120.000
G3 X20.700 Y21.966 Z-8.500 I-0.001 J-1.308 K0.000 F120.000
G1 X20.700 Y16.028 Z-8.500 F120.000
G3 X22.034 Y14.700 Z-8.500 I1.309 J-0.019 K0.000 F120.000
G2 X137.990 Y14.695 Z-8.500 I33.982 J-603782.017 K0.000 F120.000
G3 X139.300 Y16.033 Z-8.500 I0.002 J1.308 K0.000 F120.000
G1 X139.300 Y21.967 Z-8.500 F120.000
G3 X137.990 Y23.304 Z-8.500 I-1.308 J0.029 K0.000 F120.000
G1 X102.998 Y23.304 Z-8.500 F120.000
G2 X102.503 Y23.509 Z-8.500 I-0.000 J0.700 K0.000 F120.000
G1 X100.507 Y25.501 Z-8.500 F120.000
G2 X100.301 Y25.996 Z-8.500 I0.494 J0.496 K0.000 F120.000
G1 X100.300 Y78.966 Z-8.500 F120.000
G3 X98.966 Y80.300 Z-8.500 I-1.309 J0.026 K0.000 F120.000
G1 X61.034 Y80.300 Z-8.500 F120.000
G3 X60.984 Y80.300 Z-8.500 I-0.026 J-1.309 K0.000 F120.000
G1 X60.984 Y80.300 Z-9.000 F60.000
G3 X59.700 Y78.966 Z-9.000 I0.025 J-1.309 K0.000 F120.000
G1 X59.700 Y26.000 Z-9.000 F120.000
G2 X59.495 Y25.505 Z-9.000 I-0.700 J-0.000 K0.000 F120.000
G1 X57.495 Y23.505 Z-9.000 F120.000
G2 X57.000 Y23.300 Z-9.000 I-0.495 J0.495 K0.000 F120.000
G1 X22.009 Y23.300 Z-9.000 F120.000
G3 X20.700 Y21.966 Z-9.000 I-0.001 J-1.308 K0.000 F120.000
G1 X20.700 Y16.028 Z-9.000 F120.000
G3 X22.034 Y14.700 Z-9.000 I1.309 J-0.019 K0.000 F120.000
G2 X137.990 Y14.695 Z-9.000 I33.982 J-603782.017 K0.000 F120.000
G3 X139.300 Y16.033 Z-9.000 I0.002 J1.308 K0.000 F120.000
G1 X139.300 Y21.967 Z-9.000 F120.000
G3 X137.990 Y23.304 Z-9.000 I-1.308 J0.029 K0.000 F120.000
G1 X102.998 Y23.304 Z-9.000 F120.000
G2 X102.503 Y23.509 Z-9.000 I-0.000 J0.700 K0.000 F120.000
G1 X100.507 Y25.501 Z-9.000 F120.000
G2 X100.301 Y25.996 Z-9.000 I0.494 J0.496 K0.000 F120.000
G1 X100.300 Y78.966 Z-9.000 F120.000
G3 X98.966 Y80.300 Z-9.000 I-1.309 J0.026 K0.000 F120.000
G1 X61.034 Y80.300 Z-9.000 F120.000
G3 X60.984 Y80.300 Z-9.000 I-0.026 J-1.309 K0.000 F120.000
G1 X60.984 Y80.300 Z-9.500 F60.000
G3 X59.700 Y78.966 Z-9.500 I0.025 J-1.309 K0.000 F120.000
G1 X59.700 Y26.000 Z-9.500 F120.000
G2 X59.495 Y25.505 Z-9.500 I-0.700 J-0.000 K0.000 F120.000
G1 X57.495 Y23.505 Z-9.500 F120.000
G2 X57.000 Y23.300 Z-9.500 I-0.495 J0.495 K0.000 F120.000
G1 X22.009 Y23.300 Z-9.500 F120.000
G3 X20.700 Y21.966 Z-9.500 I-0.001 J-1.308 K0.000 F120.000
G1 X20.700 Y16.028 Z-9.500 F120.000
G3 X22.034 Y14.700 Z-9.500 I1.309 J-0.019 K0.000 F120.000
G2 X137.990 Y14.695 Z-9.500 I33.982 J-603782.017 K0.000 F120.000
G3 X139.300 Y16.033 Z-9.500 I0.002 J1.308 K0.000 F120.000
G1 X139.300 Y21.967 Z-9.500 F120.000
G3 X137.990 Y23.304 Z-9.500 I-1.308 J0.029 K0.000 F120.000
G1 X102.998 Y23.304 Z-9.500 F120.000
G2 X102.503 Y23.509 Z-9.500 I-0.000 J0.700 K0.000 F120.000
G1 X100.507 Y25.501 Z-9.500 F120.000
G2 X100.301 Y25.996 Z-9.500 I0.494 J0.496 K0.000 F120.000
G1 X100.300 Y78.966 Z-9.500 F120.000
G3 X98.966 Y80.300 Z-9.500 I-1.309 J0.026 K0.000 F120.000
G1 X61.034 Y80.300 Z-9.500 F120.000
G3 X60.984 Y80.300 Z-9.500 I-0.026 J-1.309 K0.000 F120.000
G1 X60.984 Y80.300 Z-10.000 F60.000
G3 X59.700 Y78.966 Z-10.000 I0.025 J-1.309 K0.000 F120.000
G1 X59.700 Y26.000 Z-10.000 F120.000
G2 X59.495 Y25.505 Z-10.000 I-0.700 J-0.000 K0.000 F120.000
G1 X57.495 Y23.505 Z-10.000 F120.000
G2 X57.000 Y23.300 Z-10.000 I-0.495 J0.495 K0.000 F120.000
G1 X22.009 Y23.300 Z-10.000 F120.000
G3 X20.700 Y21.966 Z-10.000 I-0.001 J-1.308 K0.000 F120.000
G1 X20.700 Y16.028 Z-10.000 F120.000
G3 X22.034 Y14.700 Z-10.000 I1.309 J-0.019 K0.000 F120.000
G2 X137.990 Y14.695 Z-10.000 I33.982 J-603782.017 K0.000 F120.000
G3 X139.300 Y16.033 Z-10.000 I0.002 J1.308 K0.000 F120.000
G1 X139.300 Y21.967 Z-10.000 F120.000
G3 X137.990 Y23.304 Z-10.000 I-1.308 J0.029 K0.000 F120.000
G1 X102.998 Y23.304 Z-10.000 F120.000
G2 X102.503 Y23.509 Z-10.000 I-0.000 J0.700 K0.000 F120.000
G1 X100.507 Y25.501 Z-10.000 F120.000
G2 X100.301 Y25.996 Z-10.000 I0.494 J0.496 K0.000 F120.000
G1 X100.300 Y78.966 Z-10.000 F120.000
G3 X98.966 Y80.300 Z-10.000 I-1.309 J0.026 K0.000 F120.000
G1 X61.034 Y80.300 Z-10.000 F120.000
G3 X60.984 Y80.300 Z-10.000 I-0.026 J-1.309 K0.000 F120.000
G0 Z5.000
G0 Z5.000
G0 X60.984 Y80.300
G0 X108.201 Y79.745
G0 X108.201 Y79.745 Z3.000
G1 X108.201 Y79.745 Z-0.500 F60.000
G3 X108.200 Y79.547 Z-0.500 I20.299 J-0.239 K0.000 F120.000
G1 X108.200 Y49.027 Z-0.500 F120.000
G3 X121.543 Y29.633 Z-0.500 I21.035 J0.185 K0.000 F120.000
G3 X121.974 Y29.654 Z-0.500 I0.187 J0.572 K0.000 F120.000
G3 X122.360 Y30.213 Z-0.500 I-0.293 J0.615 K0.000 F120.000
G2 X122.706 Y31.051 Z-0.500 I2.683 J-0.619 K0.000 F120.000
G2 X123.455 Y31.279 Z-0.500 I0.544 J-0.441 K0.000 F120.000
G3 X129.000 Y30.286 Z-0.500 I6.036 J17.722 K0.000 F120.000
G3 X134.537 Y31.278 Z-0.500 I-0.499 J18.730 K0.000 F120.000
G2 X135.374 Y30.910 Z-0.500 I0.205 J-0.669 K0.000 F120.000
G2 X135.745 Y30.084 Z-0.500 I-4.762 J-2.640 K0.000 F120.000
G3 X136.550 Y29.961 Z-0.500 I0.450 J0.253 K0.000 F120.000
G3 X148.800 Y49.005 Z-0.500 I-8.369 J18.844 K0.000 F120.000
G1 X148.800 Y79.462 Z-0.500 F120.000
G3 X108.201 Y79.745 Z-0.500 I-20.300 J0.045 K0.000 F120.000
G1 X108.201 Y79.745 Z-1.000 F60.000
G3 X108.200 Y79.547 Z-1.000 I20.299 J-0.239 K0.000 F120.000
G1 X108.200 Y49.027 Z-1.000 F120.000
G3 X121.543 Y29.633 Z-1.000 I21.035 J0.185 K0.000 F120.000
G3 X121.974 Y29.654 Z-1.000 I0.187 J0.572 K0.000 F120.000
G3 X122.360 Y30.213 Z-1.000 I-0.293 J0.615 K0.000 F120.000
G2 X122.706 Y31.051 Z-1.000 I2.683 J-0.619 K0.000 F120.000
G2 X123.455 Y31.279 Z-1.000 I0.544 J-0.441 K0.000 F120.000
G3 X129.000 Y30.286 Z-1.000 I6.036 J17.722 K0.000 F120.000
G3 X134.537 Y31.278 Z-1.000 I-0.499 J18.730 K0.000 F120.000
G2 X135.374 Y30.910 Z-1.000 I0.205 J-0.669 K0.000 F120.000
G2 X135.745 Y30.084 Z-1.000 I-4.762 J-2.640 K0.000 F120.000
G3 X136.550 Y29.961 Z-1.000 I0.450 J0.253 K0.000 F120.000
G3 X148.800 Y49.005 Z-1.000 I-8.369 J18.844 K0.000 F120.000
G1 X148.800 Y79.462 Z-1.000 F120.000
G3 X108.201 Y79.745 Z-1.000 I-20.300 J0.045 K0.000 F120.000
G1 X108.201 Y79.745 Z-1.500 F60.000
G3 X108.200 Y79.547 Z-1.500 I20.299 J-0.239 K0.000 F120.000
G1 X108.200 Y49.027 Z-1.500 F120.000
G3 X121.543 Y29.633 Z-1.500 I21.035 J0.185 K0.000 F120.000
G3 X121.974 Y29.654 Z-1.500 I0.187 J0.572 K0.000 F120.000
G3 X122.360 Y30.213 Z-1.500 I-0.293 J0.615 K0.000 F120.000
G2 X122.706 Y31.051 Z-1.500 I2.683 J-0.619 K0.000 F120.000
G2 X123.455 Y31.279 Z-1.500 I0.544 J-0.441 K0.000 F120.000
G3 X129.000 Y30.286 Z-1.500 I6.036 J17.722 K0.000 F120.000
G3 X134.537 Y31.278 Z-1.500 I-0.499 J18.730 K0.000 F120.000
G2 X135.374 Y30.910 Z-1.500 I0.205 J-0.669 K0.000 F120.000
G2 X135.745 Y30.084 Z-1.500 I-4.762 J-2.640 K0.000 F120.000
G3 X136.550 Y29.961 Z-1.500 I0.450 J0.253 K0.000 F120.000
G3 X148.800 Y49.005 Z-1.500 I-8.369 J18.844 K0.000 F120.000
G1 X148.800 Y79.462 Z-1.500 F120.000
G3 X108.201 Y79.745 Z-1.500 I-20.300 J0.045 K0.000 F120.000
G1 X108.201 Y79.745 Z-2.000 F60.000
G3 X108.200 Y79.547 Z-2.000 I20.299 J-0.239 K0.000 F120.000
G1 X108.200 Y49.027 Z-2.000 F120.000
G3 X121.543 Y29.633 Z-2.000 I21.035 J0.185 K0.000 F120.000
G3 X121.974 Y29.654 Z-2.000 I0.187 J0.572 K0.000 F120.000
G3 X122.360 Y30.213 Z-2.000 I-0.293 J0.615 K0.000 F120.000
G2 X122.706 Y31.051 Z-2.000 I2.683 J-0.619 K0.000 F120.000
G2 X123.455 Y31.279 Z-2.000 I0.544 J-0.441 K0.000 F120.000
G3 X129.000 Y30.286 Z-2.000 I6.036 J17.722 K0.000 F120.000
G3 X134.537 Y31.278 Z-2.000 I-0.499 J18.730 K0.000 F120.000
G2 X135.374 Y30.910 Z-2.000 I0.205 J-0.669 K0.000 F120.000
G2 X135.745 Y30.084 Z-2.000 I-4.762 J-2.640 K0.000 F120.000
G3 X136.550 Y29.961 Z-2.000 I0.450 J0.253 K0.000 F120.000
G3 X148.800 Y49.005 Z-2.000 I-8.369 J18.844 K0.000 F120.000
G1 X148.800 Y79.462 Z-2.000 F120.000
G3 X108.201 Y79.745 Z-2.000 I-20.300 J0.045 K0.000 F120.000
G1 X108.201 Y79.745 Z-2.500 F60.000
G3 X108.200 Y79.547 Z-2.500 I20.299 J-0.239 K0.000 F120.000
G1 X108.200 Y49.027 Z-2.500 F120.000
G3 X121.543 Y29.633 Z-2.500 I21.035 J0.185 K0.000 F120.000
G3 X121.974 Y29.654 Z-2.500 I0.187 J0.572 K0.000 F120.000
G3 X122.360 Y30.213 Z-2.500 I-0.293 J0.615 K0.000 F120.000
G2 X122.706 Y31.051 Z-2.500 I2.683 J-0.619 K0.000 F120.000
G2 X123.455 Y31.279 Z-2.500 I0.544 J-0.441 K0.000 F120.000
G3 X129.000 Y30.286 Z-2.500 I6.036 J17.722 K0.000 F120.000
G3 X134.537 Y31.278 Z-2.500 I-0.499 J18.730 K0.000 F120.000
G2 X135.374 Y30.910 Z-2.500 I0.205 J-0.669 K0.000 F120.000
G2 X135.745 Y30.084 Z-2.500 I-4.762 J-2.640 K0.000 F120.000
G3 X136.550 Y29.961 Z-2.500 I0.450 J0.253 K0.000 F120.000
G3 X148.800 Y49.005 Z-2.500 I-8.369 J18.844 K0.000 F120.000
G1 X148.800 Y79.462 Z-2.500 F120.000
G3 X108.201 Y79.745 Z-2.500 I-20.300 J0.045 K0.000 F120.000
G1 X108.201 Y79.745 Z-3.000 F60.000
G3 X108.200 Y79.547 Z-3.000 I20.299 J-0.239 K0.000 F120.000
G1 X108.200 Y49.027 Z-3.000 F120.000
G3 X121.543 Y29.633 Z-3.000 I21.035 J0.185 K0.000 F120.000
G3 X121.974 Y29.654 Z-3.000 I0.187 J0.572 K0.000 F120.000
G3 X122.360 Y30.213 Z-3.000 I-0.293 J0.615 K0.000 F120.000
G2 X122.706 Y31.051 Z-3.000 I2.683 J-0.619 K0.000 F120.000
G2 X123.455 Y31.279 Z-3.000 I0.544 J-0.441 K0.000 F120.000
G3 X129.000 Y30.286 Z-3.000 I6.036 J17.722 K0.000 F120.000
G3 X134.537 Y31.278 Z-3.000 I-0.499 J18.730 K0.000 F120.000
G2 X135.374 Y30.910 Z-3.000 I0.205 J-0.669 K0.000 F120.000
G2 X135.745 Y30.084 Z-3.000 I-4.762 J-2.640 K0.000 F120.000
G3 X136.550 Y29.961 Z-3.000 I0.450 J0.253 K0.000 F120.000
G3 X148.800 Y49.005 Z-3.000 I-8.369 J18.844 K0.000 F120.000
G1 X148.800 Y79.462 Z-3.000 F120.000
G3 X108.201 Y79.745 Z-3.000 I-20.300 J0.045 K0.000 F120.000
G1 X108.201 Y79.745 Z-3.500 F60.000
G3 X108.200 Y79.547 Z-3.500 I20.299 J-0.239 K0.000 F120.000
G1 X108.200 Y49.027 Z-3.500 F120.000
G3 X121.543 Y29.633 Z-3.500 I21.035 J0.185 K0.000 F120.000
G3 X121.974 Y29.654 Z-3.500 I0.187 J0.572 K0.000 F120.000
G3 X122.360 Y30.213 Z-3.500 I-0.293 J0.615 K0.000 F120.000
G2 X122.706 Y31.051 Z-3.500 I2.683 J-0.619 K0.000 F120.000
G2 X123.455 Y31.279 Z-3.500 I0.544 J-0.441 K0.000 F120.000
G3 X129.000 Y30.286 Z-3.500 I6.036 J17.722 K0.000 F120.000
G3 X134.537 Y31.278 Z-3.500 I-0.499 J18.730 K0.000 F120.000
G2 X135.374 Y30.910 Z-3.500 I0.205 J-0.669 K0.000 F120.000
G2 X135.745 Y30.084 Z-3.500 I-4.762 J-2.640 K0.000 F120.000
G3 X136.550 Y29.961 Z-3.500 I0.450 J0.253 K0.000 F120.000
G3 X148.800 Y49.005 Z-3.500 I-8.369 J18.844 K0.000 F120.000
G1 X148.800 Y79.462 Z-3.500 F120.000
G3 X108.201 Y79.745 Z-3.500 I-20.300 J0.045 K0.000 F120.000
G1 X108.201 Y79.745 Z-4.000 F60.000
G3 X108.200 Y79.547 Z-4.000 I20.299 J-0.239 K0.000 F120.000
G1 X108.200 Y49.027 Z-4.000 F120.000
G3 X121.543 Y29.633 Z-4.000 I21.035 J0.185 K0.000 F120.000
G3 X121.974 Y29.654 Z-4.000 I0.187 J0.572 K0.000 F120.000
G3 X122.360 Y30.213 Z-4.000 I-0.293 J0.615 K0.000 F120.000
G2 X122.706 Y31.051 Z-4.000 I2.683 J-0.619 K0.000 F120.000
G2 X123.455 Y31.279 Z-4.000 I0.544 J-0.441 K0.000 F120.000
G3 X129.000 Y30.286 Z-4.000 I6.036 J17.722 K0.000 F120.000
G3 X134.537 Y31.278 Z-4.000 I-0.499 J18.730 K0.000 F120.000
G2 X135.374 Y30.910 Z-4.000 I0.205 J-0.669 K0.000 F120.000
G2 X135.745 Y30.084 Z-4.000 I-4.762 J-2.640 K0.000 F120.000
G3 X136.550 Y29.961 Z-4.000 I0.450 J0.253 K0.000 F120.000
G3 X148.800 Y49.005 Z-4.000 I-8.369 J18.844 K0.000 F120.000
G1 X148.800 Y79.462 Z-4.000 F120.000
G3 X108.201 Y79.745 Z-4.000 I-20.300 J0.045 K0.000 F120.000
G1 X108.201 Y79.745 Z-4.500 F60.000
G3 X108.200 Y79.547 Z-4.500 I20.299 J-0.239 K0.000 F120.000
G1 X108.200 Y49.027 Z-4.500 F120.000
G3 X121.543 Y29.633 Z-4.500 I21.035 J0.185 K0.000 F120.000
G3 X121.974 Y29.654 Z-4.500 I0.187 J0.572 K0.000 F120.000
G3 X122.360 Y30.213 Z-4.500 I-0.293 J0.615 K0.000 F120.000
G2 X122.706 Y31.051 Z-4.500 I2.683 J-0.619 K0.000 F120.000
G2 X123.455 Y31.279 Z-4.500 I0.544 J-0.441 K0.000 F120.000
G3 X129.000 Y30.286 Z-4.500 I6.036 J17.722 K0.000 F120.000
G3 X134.537 Y31.278 Z-4.500 I-0.499 J18.730 K0.000 F120.000
G2 X135.374 Y30.910 Z-4.500 I0.205 J-0.669 K0.000 F120.000
G2 X135.745 Y30.084 Z-4.500 I-4.762 J-2.640 K0.000 F120.000
G3 X136.550 Y29.961 Z-4.500 I0.450 J0.253 K0.000 F120.000
G3 X148.800 Y49.005 Z-4.500 I-8.369 J18.844 K0.000 F120.000
G1 X148.800 Y79.462 Z-4.500 F120.000
G3 X108.201 Y79.745 Z-4.500 I-20.300 J0.045 K0.000 F120.000
G1 X108.201 Y79.745 Z-5.000 F60.000
G3 X108.200 Y79.547 Z-5.000 I20.299 J-0.239 K0.000 F120.000
G1 X108.200 Y49.027 Z-5.000 F120.000
G3 X121.543 Y29.633 Z-5.000 I21.035 J0.185 K0.000 F120.000
G3 X121.974 Y29.654 Z-5.000 I0.187 J0.572 K0.000 F120.000
G3 X122.360 Y30.213 Z-5.000 I-0.293 J0.615 K0.000 F120.000
G2 X122.706 Y31.051 Z-5.000 I2.683 J-0.619 K0.000 F120.000
G2 X123.455 Y31.279 Z-5.000 I0.544 J-0.441 K0.000 F120.000
G3 X129.000 Y30.286 Z-5.000 I6.036 J17.722 K0.000 F120.000
G3 X134.537 Y31.278 Z-5.000 I-0.499 J18.730 K0.000 F120.000
G2 X135.374 Y30.910 Z-5.000 I0.205 J-0.669 K0.000 F120.000
G2 X135.745 Y30.084 Z-5.000 I-4.762 J-2.640 K0.000 F120.000
G3 X136.550 Y29.961 Z-5.000 I0.450 J0.253 K0.000 F120.000
G3 X148.800 Y49.005 Z-5.000 I-8.369 J18.844 K0.000 F120.000
G1 X148.800 Y79.462 Z-5.000 F120.000
G3 X108.201 Y79.745 Z-5.000 I-20.300 J0.045 K0.000 F120.000
G1 X108.201 Y79.745 Z-5.500 F60.000
G3 X108.200 Y79.547 Z-5.500 I20.299 J-0.239 K0.000 F120.000
G1 X108.200 Y49.027 Z-5.500 F120.000
G3 X121.543 Y29.633 Z-5.500 I21.035 J0.185 K0.000 F120.000
G3 X121.974 Y29.654 Z-5.500 I0.187 J0.572 K0.000 F120.000
G3 X122.360 Y30.213 Z-5.500 I-0.293 J0.615 K0.000 F120.000
G2 X122.706 Y31.051 Z-5.500 I2.683 J-0.619 K0.000 F120.000
G2 X123.455 Y31.279 Z-5.500 I0.544 J-0.441 K0.000 F120.000
G3 X129.000 Y30.286 Z-5.500 I6.036 J17.722 K0.000 F120.000
G3 X134.537 Y31.278 Z-5.500 I-0.499 J18.730 K0.000 F120.000
G2 X135.374 Y30.910 Z-5.500 I0.205 J-0.669 K0.000 F120.000
G2 X135.745 Y30.084 Z-5.500 I-4.762 J-2.640 K0.000 F120.000
G3 X136.550 Y29.961 Z-5.500 I0.450 J0.253 K0.000 F120.000
G3 X148.800 Y49.005 Z-5.500 I-8.369 J18.844 K0.000 F120.000
G1 X148.800 Y79.462 Z-5.500 F120.000
G3 X108.201 Y79.745 Z-5.500 I-20.300 J0.045 K0.000 F120.000
G1 X108.201 Y79.745 Z-6.000 F60.000
G3 X108.200 Y79.547 Z-6.000 I20.299 J-0.239 K0.000 F120.000
G1 X108.200 Y49.027 Z-6.000 F120.000
G3 X121.543 Y29.633 Z-6.000 I21.035 J0.185 K0.000 F120.000
G3 X121.974 Y29.654 Z-6.000 I0.187 J0.572 K0.000 F120.000
G3 X122.360 Y30.213 Z-6.000 I-0.293 J0.615 K0.000 F120.000
G2 X122.706 Y31.051 Z-6.000 I2.683 J-0.619 K0.000 F120.000
G2 X123.455 Y31.279 Z-6.000 I0.544 J-0.441 K0.000 F120.000
G3 X129.000 Y30.286 Z-6.000 I6.036 J17.722 K0.000 F120.000
G3 X134.537 Y31.278 Z-6.000 I-0.499 J18.730 K0.000 F120.000
G2 X135.374 Y30.910 Z-6.000 I0.205 J-0.669 K0.000 F120.000
G2 X135.745 Y30.084 Z-6.000 I-4.762 J-2.640 K0.000 F120.000
G3 X136.550 Y29.961 Z-6.000 I0.450 J0.253 K0.000 F120.000
G3 X148.800 Y49.005 Z-6.000 I-8.369 J18.844 K0.000 F120.000
G1 X148.800 Y79.462 Z-6.000 F120.000
G3 X108.201 Y79.745 Z-6.000 I-20.300 J0.045 K0.000 F120.000
G1 X108.201 Y79.745 Z-6.500 F60.000
G3 X108.200 Y79.547 Z-6.500 I20.299 J-0.239 K0.000 F120.000
G1 X108.200 Y49.027 Z-6.500 F120.000
G3 X121.543 Y29.633 Z-6.500 I21.035 J0.185 K0.000 F120.000
G3 X121.974 Y29.654 Z-6.500 I0.187 J0.572 K0.000 F120.000
G3 X122.360 Y30.213 Z-6.500 I-0.293 J0.615 K0.000 F120.000
G2 X122.706 Y31.051 Z-6.500 I2.683 J-0.619 K0.000 F120.000
G2 X123.455 Y31.279 Z-6.500 I0.544 J-0.441 K0.000 F120.000
G3 X129.000 Y30.286 Z-6.500 I6.036 J17.722 K0.000 F120.000
G3 X134.537 Y31.278 Z-6.500 I-0.499 J18.730 K0.000 F120.000
G2 X135.374 Y30.910 Z-6.500 I0.205 J-0.669 K0.000 F120.000
G2 X135.745 Y30.084 Z-6.500 I-4.762 J-2.640 K0.000 F120.000
G3 X136.550 Y29.961 Z-6.500 I0.450 J0.253 K0.000 F120.000
G3 X148.800 Y49.005 Z-6.500 I-8.369 J18.844 K0.000 F120.000
G1 X148.800 Y79.462 Z-6.500 F120.000
G3 X108.201 Y79.745 Z-6.500 I-20.300 J0.045 K0.000 F120.000
G1 X108.201 Y79.745 Z-7.000 F60.000
G3 X108.200 Y79.547 Z-7.000 I20.299 J-0.239 K0.000 F120.000
G1 X108.200 Y49.027 Z-7.000 F120.000
G3 X121.543 Y29.633 Z-7.000 I21.035 J0.185 K0.000 F120.000
G3 X121.974 Y29.654 Z-7.000 I0.187 J0.572 K0.000 F120.000
G3 X122.360 Y30.213 Z-7.000 I-0.293 J0.615 K0.000 F120.000
G2 X122.706 Y31.051 Z-7.000 I2.683 J-0.619 K0.000 F120.000
G2 X123.455 Y31.279 Z-7.000 I0.544 J-0.441 K0.000 F120.000
G3 X129.000 Y30.286 Z-7.000 I6.036 J17.722 K0.000 F120.000
G3 X134.537 Y31.278 Z-7.000 I-0.499 J18.730 K0.000 F120.000
G2 X135.374 Y30.910 Z-7.000 I0.205 J-0.669 K0.000 F120.000
G2 X135.745 Y30.084 Z-7.000 I-4.762 J-2.640 K0.000 F120.000
G3 X136.550 Y29.961 Z-7.000 I0.450 J0.253 K0.000 F120.000
G3 X148.800 Y49.005 Z-7.000 I-8.369 J18.844 K0.000 F120.000
G1 X148.800 Y79.462 Z-7.000 F120.000
G3 X108.201 Y79.745 Z-7.000 I-20.300 J0.045 K0.000 F120.000
G1 X108.201 Y79.745 Z-7.500 F60.000
G3 X108.200 Y79.547 Z-7.500 I20.299 J-0.239 K0.000 F120.000
G1 X108.200 Y49.027 Z-7.500 F120.000
G3 X121.543 Y29.633 Z-7.500 I21.035 J0.185 K0.000 F120.000
G3 X121.974 Y29.654 Z-7.500 I0.187 J0.572 K0.000 F120.000
G3 X122.360 Y30.213 Z-7.500 I-0.293 J0.615 K0.000 F120.000
G2 X122.706 Y31.051 Z-7.500 I2.683 J-0.619 K0.000 F120.000
G2 X123.455 Y31.279 Z-7.500 I0.544 J-0.441 K0.000 F120.000
G3 X129.000 Y30.286 Z-7.500 I6.036 J17.722 K0.000 F120.000
G3 X134.537 Y31.278 Z-7.500 I-0.499 J18.730 K0.000 F120.000
G2 X135.374 Y30.910 Z-7.500 I0.205 J-0.669 K0.000 F120.000
G2 X135.745 Y30.084 Z-7.500 I-4.762 J-2.640 K0.000 F120.000
G3 X136.550 Y29.961 Z-7.500 I0.450 J0.253 K0.000 F120.000
G3 X148.800 Y49.005 Z-7.500 I-8.369 J18.844 K0.000 F120.000
G1 X148.800 Y79.462 Z-7.500 F120.000
G3 X108.201 Y79.745 Z-7.500 I-20.300 J0.045 K0.000 F120.000
G1 X108.201 Y79.745 Z-8.000 F60.000
G3 X108.200 Y79.547 Z-8.000 I20.299 J-0.239 K0.000 F120.000
G1 X108.200 Y49.027 Z-8.000 F120.000
G3 X121.543 Y29.633 Z-8.000 I21.035 J0.185 K0.000 F120.000
G3 X121.974 Y29.654 Z-8.000 I0.187 J0.572 K0.000 F120.000
G3 X122.360 Y30.213 Z-8.000 I-0.293 J0.615 K0.000 F120.000
G2 X122.706 Y31.051 Z-8.000 I2.683 J-0.619 K0.000 F120.000
G2 X123.455 Y31.279 Z-8.000 I0.544 J-0.441 K0.000 F120.000
G3 X129.000 Y30.286 Z-8.000 I6.036 J17.722 K0.000 F120.000
G3 X134.537 Y31.278 Z-8.000 I-0.499 J18.730 K0.000 F120.000
G2 X135.374 Y30.910 Z-8.000 I0.205 J-0.669 K0.000 F120.000
G2 X135.745 Y30.084 Z-8.000 I-4.762 J-2.640 K0.000 F120.000
G3 X136.550 Y29.961 Z-8.000 I0.450 J0.253 K0.000 F120.000
G3 X148.800 Y49.005 Z-8.000 I-8.369 J18.844 K0.000 F120.000
G1 X148.800 Y79.462 Z-8.000 F120.000
G3 X108.201 Y79.745 Z-8.000 I-20.300 J0.045 K0.000 F120.000
G1 X108.201 Y79.745 Z-8.500 F60.000
G3 X108.200 Y79.547 Z-8.500 I20.299 J-0.239 K0.000 F120.000
G1 X108.200 Y49.027 Z-8.500 F120.000
G3 X121.543 Y29.633 Z-8.500 I21.035 J0.185 K0.000 F120.000
G3 X121.974 Y29.654 Z-8.500 I0.187 J0.572 K0.000 F120.000
G3 X122.360 Y30.213 Z-8.500 I-0.293 J0.615 K0.000 F120.000
G2 X122.706 Y31.051 Z-8.500 I2.683 J-0.619 K0.000 F120.000
G2 X123.455 Y31.279 Z-8.500 I0.544 J-0.441 K0.000 F120.000
G3 X129.000 Y30.286 Z-8.500 I6.036 J17.722 K0.000 F120.000
G3 X134.537 Y31.278 Z-8.500 I-0.499 J18.730 K0.000 F120.000
G2 X135.374 Y30.910 Z-8.500 I0.205 J-0.669 K0.000 F120.000
G2 X135.745 Y30.084 Z-8.500 I-4.762 J-2.640 K0.000 F120.000
G3 X136.550 Y29.961 Z-8.500 I0.450 J0.253 K0.000 F120.000
G3 X148.800 Y49.005 Z-8.500 I-8.369 J18.844 K0.000 F120.000
G1 X148.800 Y79.462 Z-8.500 F120.000
G3 X108.201 Y79.745 Z-8.500 I-20.300 J0.045 K0.000 F120.000
G1 X108.201 Y79.745 Z-9.000 F60.000
G3 X108.200 Y79.547 Z-9.000 I20.299 J-0.239 K0.000 F120.000
G1 X108.200 Y49.027 Z-9.000 F120.000
G3 X121.543 Y29.633 Z-9.000 I21.035 J0.185 K0.000 F120.000
G3 X121.974 Y29.654 Z-9.000 I0.187 J0.572 K0.000 F120.000
G3 X122.360 Y30.213 Z-9.000 I-0.293 J0.615 K0.000 F120.000
G2 X122.706 Y31.051 Z-9.000 I2.683 J-0.619 K0.000 F120.000
G2 X123.455 Y31.279 Z-9.000 I0.544 J-0.441 K0.000 F120.000
G3 X129.000 Y30.286 Z-9.000 I6.036 J17.722 K0.000 F120.000
G3 X134.537 Y31.278 Z-9.000 I-0.499 J18.730 K0.000 F120.000
G2 X135.374 Y30.910 Z-9.000 I0.205 J-0.669 K0.000 F120.000
G2 X135.745 Y30.084 Z-9.000 I-4.762 J-2.640 K0.000 F120.000
G3 X136.550 Y29.961 Z-9.000 I0.450 J0.253 K0.000 F120.000
G3 X148.800 Y49.005 Z-9.000 I-8.369 J18.844 K0.000 F120.000
G1 X148.800 Y79.462 Z-9.000 F120.000
G3 X108.201 Y79.745 Z-9.000 I-20.300 J0.045 K0.000 F120.000
G1 X108.201 Y79.745 Z-9.500 F60.000
G3 X108.200 Y79.547 Z-9.500 I20.299 J-0.239 K0.000 F120.000
G1 X108.200 Y49.027 Z-9.500 F120.000
G3 X121.543 Y29.633 Z-9.500 I21.035 J0.185 K0.000 F120.000
G3 X121.974 Y29.654 Z-9.500 I0.187 J0.572 K0.000 F120.000
G3 X122.360 Y30.213 Z-9.500 I-0.293 J0.615 K0.000 F120.000
G2 X122.706 Y31.051 Z-9.500 I2.683 J-0.619 K0.000 F120.000
G2 X123.455 Y31.279 Z-9.500 I0.544 J-0.441 K0.000 F120.000
G3 X129.000 Y30.286 Z-9.500 I6.036 J17.722 K0.000 F120.000
G3 X134.537 Y31.278 Z-9.500 I-0.499 J18.730 K0.000 F120.000
G2 X135.374 Y30.910 Z-9.500 I0.205 J-0.669 K0.000 F120.000
G2 X135.745 Y30.084 Z-9.500 I-4.762 J-2.640 K0.000 F120.000
G3 X136.550 Y29.961 Z-9.500 I0.450 J0.253 K0.000 F120.000
G3 X148.800 Y49.005 Z-9.500 I-8.369 J18.844 K0.000 F120.000
G1 X148.800 Y79.462 Z-9.500 F120.000
G3 X108.201 Y79.745 Z-9.500 I-20.300 J0.045 K0.000 F120.000
G1 X108.201 Y79.745 Z-10.000 F60.000
G3 X108.200 Y79.547 Z-10.000 I20.299 J-0.239 K0.000 F120.000
G1 X108.200 Y49.027 Z-10.000 F120.000
G3 X121.543 Y29.633 Z-10.000 I21.035 J0.185 K0.000 F120.000
G3 X121.974 Y29.654 Z-10.000 I0.187 J0.572 K0.000 F120.000
G3 X122.360 Y30.213 Z-10.000 I-0.293 J0.615 K0.000 F120.000
G2 X122.706 Y31.051 Z-10.000 I2.683 J-0.619 K0.000 F120.000
G2 X123.455 Y31.279 Z-10.000 I0.544 J-0.441 K0.000 F120.000
G3 X129.000 Y30.286 Z-10.000 I6.036 J17.722 K0.000 F120.000
G3 X134.537 Y31.278 Z-10.000 I-0.499 J18.730 K0.000 F120.000
G2 X135.374 Y30.910 Z-10.000 I0.205 J-0.669 K0.000 F120.000
G2 X135.745 Y30.084 Z-10.000 I-4.762 J-2.640 K0.000 F120.000
G3 X136.550 Y29.961 Z-10.000 I0.450 J0.253 K0.000 F120.000
G3 X148.800 Y49.005 Z-10.000 I-8.369 J18.844 K0.000 F120.000
G1 X148.800 Y79.462 Z-10.000 F120.000
G3 X108.201 Y79.745 Z-10.000 I-20.300 J0.045 K0.000 F120.000
G0 Z5.000
G0 Z5.000
G0 X108.201 Y79.745
G0 X151.849 Y102.403
G0 X151.849 Y102.403 Z3.000
G1 X151.849 Y102.403 Z-0.500 F60.000
G3 X153.496 Y101.802 Z-0.500 I1.151 J0.597 K0.000 F120.000
G3 X152.504 Y104.198 Z-0.500 I-0.496 J1.198 K0.000 F120.000
G3 X151.849 Y102.403 Z-0.500 I0.496 J-1.198 K0.000 F120.000
G1 X151.849 Y102.403 Z-1.000 F60.000
G3 X153.496 Y101.802 Z-1.000 I1.151 J0.597 K0.000 F120.000
G3 X152.504 Y104.198 Z-1.000 I-0.496 J1.198 K0.000 F120.000
G3 X151.849 Y102.403 Z-1.000 I0.496 J-1.198 K0.000 F120.000
G1 X151.849 Y102.403 Z-1.500 F60.000
G3 X153.496 Y101.802 Z-1.500 I1.151 J0.597 K0.000 F120.000
G3 X152.504 Y104.198 Z-1.500 I-0.496 J1.198 K0.000 F120.000
G3 X151.849 Y102.403 Z-1.500 I0.496 J-1.198 K0.000 F120.000
G1 X151.849 Y102.403 Z-2.000 F60.000
G3 X153.496 Y101.802 Z-2.000 I1.151 J0.597 K0.000 F120.000
G3 X152.504 Y104.198 Z-2.000 I-0.496 J1.198 K0.000 F120.000
G3 X151.849 Y102.403 Z-2.000 I0.496 J-1.198 K0.000 F120.000
G1 X151.849 Y102.403 Z-2.500 F60.000
G3 X153.496 Y101.802 Z-2.500 I1.151 J0.597 K0.000 F120.000
G3 X152.504 Y104.198 Z-2.500 I-0.496 J1.198 K0.000 F120.000
G3 X151.849 Y102.403 Z-2.500 I0.496 J-1.198 K0.000 F120.000
G1 X151.849 Y102.403 Z-3.000 F60.000
G3 X153.496 Y101.802 Z-3.000 I1.151 J0.597 K0.000 F120.000
G3 X152.504 Y104.198 Z-3.000 I-0.496 J1.198 K0.000 F120.000
G3 X151.849 Y102.403 Z-3.000 I0.496 J-1.198 K0.000 F120.000
G1 X151.849 Y102.403 Z-3.500 F60.000
G3 X153.496 Y101.802 Z-3.500 I1.151 J0.597 K0.000 F120.000
G3 X152.504 Y104.198 Z-3.500 I-0.496 J1.198 K0.000 F120.000
G3 X151.849 Y102.403 Z-3.500 I0.496 J-1.198 K0.000 F120.000
G1 X151.849 Y102.403 Z-4.000 F60.000
G3 X153.496 Y101.802 Z-4.000 I1.151 J0.597 K0.000 F120.000
G3 X152.504 Y104.198 Z-4.000 I-0.496 J1.198 K0.000 F120.000
G3 X151.849 Y102.403 Z-4.000 I0.496 J-1.198 K0.000 F120.000
G1 X151.849 Y102.403 Z-4.500 F60.000
G3 X153.496 Y101.802 Z-4.500 I1.151 J0.597 K0.000 F120.000
G3 X152.504 Y104.198 Z-4.500 I-0.496 J1.198 K0.000 F120.000
G3 X151.849 Y102.403 Z-4.500 I0.496 J-1.198 K0.000 F120.000
G1 X151.849 Y102.403 Z-5.000 F60.000
G3 X153.496 Y101.802 Z-5.000 I1.151 J0.597 K0.000 F120.000
G3 X152.504 Y104.198 Z-5.000 I-0.496 J1.198 K0.000 F120.000
G3 X151.849 Y102.403 Z-5.000 I0.496 J-1.198 K0.000 F120.000
G1 X151.849 Y102.403 Z-5.500 F60.000
G3 X153.496 Y101.802 Z-5.500 I1.151 J0.597 K0.000 F120.000
G3 X152.504 Y104.198 Z-5.500 I-0.496 J1.198 K0.000 F120.000
G3 X151.849 Y102.403 Z-5.500 I0.496 J-1.198 K0.000 F120.000
G1 X151.849 Y102.403 Z-6.000 F60.000
G3 X153.496 Y101.802 Z-6.000 I1.151 J0.597 K0.000 F120.000
G3 X152.504 Y104.198 Z-6.000 I-0.496 J1.198 K0.000 F120.000
G3 X151.849 Y102.403 Z-6.000 I0.496 J-1.198 K0.000 F120.000
G1 X151.849 Y102.403 Z-6.500 F60.000
G3 X153.496 Y101.802 Z-6.500 I1.151 J0.597 K0.000 F120.000
G3 X152.504 Y104.198 Z-6.500 I-0.496 J1.198 K0.000 F120.000
G3 X151.849 Y102.403 Z-6.500 I0.496 J-1.198 K0.000 F120.000
G1 X151.849 Y102.403 Z-7.000 F60.000
G3 X153.496 Y101.802 Z-7.000 I1.151 J0.597 K0.000 F120.000
G3 X152.504 Y104.198 Z-7.000 I-0.496 J1.198 K0.000 F120.000
G3 X151.849 Y102.403 Z-7.000 I0.496 J-1.198 K0.000 F120.000
G1 X151.849 Y102.403 Z-7.500 F60.000
G3 X153.496 Y101.802 Z-7.500 I1.151 J0.597 K0.000 F120.000
G3 X152.504 Y104.198 Z-7.500 I-0.496 J1.198 K0.000 F120.000
G3 X151.849 Y102.403 Z-7.500 I0.496 J-1.198 K0.000 F120.000
G1 X151.849 Y102.403 Z-8.000 F60.000
G3 X153.496 Y101.802 Z-8.000 I1.151 J0.597 K0.000 F120.000
G3 X152.504 Y104.198 Z-8.000 I-0.496 J1.198 K0.000 F120.000
G3 X151.849 Y102.403 Z-8.000 I0.496 J-1.198 K0.000 F120.000
G1 X151.849 Y102.403 Z-8.500 F60.000
G3 X153.496 Y101.802 Z-8.500 I1.151 J0.597 K0.000 F120.000
G3 X152.504 Y104.198 Z-8.500 I-0.496 J1.198 K0.000 F120.000
G3 X151.849 Y102.403 Z-8.500 I0.496 J-1.198 K0.000 F120.000
G1 X151.849 Y102.403 Z-9.000 F60.000
G3 X153.496 Y101.802 Z-9.000 I1.151 J0.597 K0.000 F120.000
G3 X152.504 Y104.198 Z-9.000 I-0.496 J1.198 K0.000 F120.000
G3 X151.849 Y102.403 Z-9.000 I0.496 J-1.198 K0.000 F120.000
G1 X151.849 Y102.403 Z-9.500 F60.000
G3 X153.496 Y101.802 Z-9.500 I1.151 J0.597 K0.000 F120.000
G3 X152.504 Y104.198 Z-9.500 I-0.496 J1.198 K0.000 F120.000
G3 X151.849 Y102.403 Z-9.500 I0.496 J-1.198 K0.000 F120.000
G1 X151.849 Y102.403 Z-10.000 F60.000
G3 X153.496 Y101.802 Z-10.000 I1.151 J0.597 K0.000 F120.000
G3 X152.504 Y104.198 Z-10.000 I-0.496 J1.198 K0.000 F120.000
G3 X151.849 Y102.403 Z-10.000 I0.496 J-1.198 K0.000 F120.000
G0 Z5.000
G0 Z5.000
G0 X151.849 Y102.403
G0 X150.029 Y21.296
G0 X150.029 Y21.296 Z3.000
G1 X150.029 Y21.296 Z-0.500 F60.000
G3 X149.504 Y21.198 Z-0.500 I-0.029 J-1.296 K0.000 F120.000
G3 X150.496 Y18.802 Z-0.500 I0.496 J-1.198 K0.000 F120.000
G3 X150.029 Y21.296 Z-0.500 I-0.496 J1.198 K0.000 F120.000
G1 X150.029 Y21.296 Z-1.000 F60.000
G3 X149.504 Y21.198 Z-1.000 I-0.029 J-1.296 K0.000 F120.000
G3 X150.496 Y18.802 Z-1.000 I0.496 J-1.198 K0.000 F120.000
G3 X150.029 Y21.296 Z-1.000 I-0.496 J1.198 K0.000 F120.000
G1 X150.029 Y21.296 Z-1.500 F60.000
G3 X149.504 Y21.198 Z-1.500 I-0.029 J-1.296 K0.000 F120.000
G3 X150.496 Y18.802 Z-1.500 I0.496 J-1.198 K0.000 F120.000
G3 X150.029 Y21.296 Z-1.500 I-0.496 J1.198 K0.000 F120.000
G1 X150.029 Y21.296 Z-2.000 F60.000
G3 X149.504 Y21.198 Z-2.000 I-0.029 J-1.296 K0.000 F120.000
G3 X150.496 Y18.802 Z-2.000 I0.496 J-1.198 K0.000 F120.000
G3 X150.029 Y21.296 Z-2.000 I-0.496 J1.198 K0.000 F120.000
G1 X150.029 Y21.296 Z-2.500 F60.000
G3 X149.504 Y21.198 Z-2.500 I-0.029 J-1.296 K0.000 F120.000
G3 X150.496 Y18.802 Z-2.500 I0.496 J-1.198 K0.000 F120.000
G3 X150.029 Y21.296 Z-2.500 I-0.496 J1.198 K0.000 F120.000
G1 X150.029 Y21.296 Z-3.000 F60.000
G3 X149.504 Y21.198 Z-3.000 I-0.029 J-1.296 K0.000 F120.000
G3 X150.496 Y18.802 Z-3.000 I0.496 J-1.198 K0.000 F120.000
G3 X150.029 Y21.296 Z-3.000 I-0.496 J1.198 K0.000 F120.000
G1 X150.029 Y21.296 Z-3.500 F60.000
G3 X149.504 Y21.198 Z-3.500 I-0.029 J-1.296 K0.000 F120.000
G3 X150.496 Y18.802 Z-3.500 I0.496 J-1.198 K0.000 F120.000
G3 X150.029 Y21.296 Z-3.500 I-0.496 J1.198 K0.000 F120.000
G1 X150.029 Y21.296 Z-4.000 F60.000
G3 X149.504 Y21.198 Z-4.000 I-0.029 J-1.296 K0.000 F120.000
G3 X150.496 Y18.802 Z-4.000 I0.496 J-1.198 K0.000 F120.000
G3 X150.029 Y21.296 Z-4.000 I-0.496 J1.198 K0.000 F120.000
G1 X150.029 Y21.296 Z-4.500 F60.000
G3 X149.504 Y21.198 Z-4.500 I-0.029 J-1.296 K0.000 F120.000
G3 X150.496 Y18.802 Z-4.500 I0.496 J-1.198 K0.000 F120.000
G3 X150.029 Y21.296 Z-4.500 I-0.496 J1.198 K0.000 F120.000
G1 X150.029 Y21.296 Z-5.000 F60.000
G3 X149.504 Y21.198 Z-5.000 I-0.029 J-1.296 K0.000 F120.000
G3 X150.496 Y18.802 Z-5.000 I0.496 J-1.198 K0.000 F120.000
G3 X150.029 Y21.296 Z-5.000 I-0.496 J1.198 K0.000 F120.000
G1 X150.029 Y21.296 Z-5.500 F60.000
G3 X149.504 Y21.198 Z-5.500 I-0.029 J-1.296 K0.000 F120.000
G3 X150.496 Y18.802 Z-5.500 I0.496 J-1.198 K0.000 F120.000
G3 X150.029 Y21.296 Z-5.500 I-0.496 J1.198 K0.000 F120.000
G1 X150.029 Y21.296 Z-6.000 F60.000
G3 X149.504 Y21.198 Z-6.000 I-0.029 J-1.296 K0.000 F120.000
G3 X150.496 Y18.802 Z-6.000 I0.496 J-1.198 K0.000 F120.000
G3 X150.029 Y21.296 Z-6.000 I-0.496 J1.198 K0.000 F120.000
G1 X150.029 Y21.296 Z-6.500 F60.000
G3 X149.504 Y21.198 Z-6.500 I-0.029 J-1.296 K0.000 F120.000
G3 X150.496 Y18.802 Z-6.500 I0.496 J-1.198 K0.000 F120.000
G3 X150.029 Y21.296 Z-6.500 I-0.496 J1.198 K0.000 F120.000
G1 X150.029 Y21.296 Z-7.000 F60.000
G3 X149.504 Y21.198 Z-7.000 I-0.029 J-1.296 K0.000 F120.000
G3 X150.496 Y18.802 Z-7.000 I0.496 J-1.198 K0.000 F120.000
G3 X150.029 Y21.296 Z-7.000 I-0.496 J1.198 K0.000 F120.000
G1 X150.029 Y21.296 Z-7.500 F60.000
G3 X149.504 Y21.198 Z-7.500 I-0.029 J-1.296 K0.000 F120.000
G3 X150.496 Y18.802 Z-7.500 I0.496 J-1.198 K0.000 F120.000
G3 X150.029 Y21.296 Z-7.500 I-0.496 J1.198 K0.000 F120.000
G1 X150.029 Y21.296 Z-8.000 F60.000
G3 X149.504 Y21.198 Z-8.000 I-0.029 J-1.296 K0.000 F120.000
G3 X150.496 Y18.802 Z-8.000 I0.496 J-1.198 K0.000 F120.000
G3 X150.029 Y21.296 Z-8.000 I-0.496 J1.198 K0.000 F120.000
G1 X150.029 Y21.296 Z-8.500 F60.000
G3 X149.504 Y21.198 Z-8.500 I-0.029 J-1.296 K0.000 F120.000
G3 X150.496 Y18.802 Z-8.500 I0.496 J-1.198 K0.000 F120.000
G3 X150.029 Y21.296 Z-8.500 I-0.496 J1.198 K0.000 F120.000
G1 X150.029 Y21.296 Z-9.000 F60.000
G3 X149.504 Y21.198 Z-9.000 I-0.029 J-1.296 K0.000 F120.000
G3 X150.496 Y18.802 Z-9.000 I0.496 J-1.198 K0.000 F120.000
G3 X150.029 Y21.296 Z-9.000 I-0.496 J1.198 K0.000 F120.000
G1 X150.029 Y21.296 Z-9.500 F60.000
G3 X149.504 Y21.198 Z-9.500 I-0.029 J-1.296 K0.000 F120.000
G3 X150.496 Y18.802 Z-9.500 I0.496 J-1.198 K0.000 F120.000
G3 X150.029 Y21.296 Z-9.500 I-0.496 J1.198 K0.000 F120.000
G1 X150.029 Y21.296 Z-10.000 F60.000
G3 X149.504 Y21.198 Z-10.000 I-0.029 J-1.296 K0.000 F120.000
G3 X150.496 Y18.802 Z-10.000 I0.496 J-1.198 K0.000 F120.000
G3 X150.029 Y21.296 Z-10.000 I-0.496 J1.198 K0.000 F120.000
G0 Z5.000
G0 Z5.000
(Finish operation: Profile062)
(Begin operation: Pocket3D006)
(Path: Pocket3D006)
(Pocket3D006)
G0 Z5.000
G0 X154.093 Y9.345
G0 Z3.000
G1 X154.093 Y9.345 Z-0.500 F60.000
G3 X153.289 Y9.770 Z-0.500 I-1.094 J-1.096 K0.000 F120.000
G1 X152.973 Y9.800 Z-0.500 F120.000
G1 X7.036 Y9.800 Z-0.500 F120.000
G3 X6.732 Y6.726 Z-0.500 I-0.033 J-1.549 K0.000 F120.000
G1 X7.031 Y6.700 Z-0.500 F120.000
G1 X10.000 Y6.700 Z-0.500 F120.000
G2 X10.700 Y6.000 Z-0.500 I-0.000 J-0.700 K0.000 F120.000
G1 X10.700 Y5.000 Z-0.500 F120.000
G2 X10.495 Y4.505 Z-0.500 I-0.700 J0.000 K0.000 F120.000
G1 X6.690 Y0.700 Z-0.500 F120.000
G1 X153.310 Y0.700 Z-0.500 F120.000
G1 X149.505 Y4.505 Z-0.500 F120.000
G2 X149.300 Y5.000 Z-0.500 I0.495 J0.495 K0.000 F120.000
G1 X149.300 Y6.000 Z-0.500 F120.000
G2 X150.000 Y6.700 Z-0.500 I0.700 J-0.000 K0.000 F120.000
G1 X152.968 Y6.700 Z-0.500 F120.000
G3 X154.093 Y9.345 Z-0.500 I0.031 J1.549 K0.000 F120.000
G0 Z5.000
G0 X153.106 Y8.342 Z5.000
G0 X153.106 Y8.342 Z3.000
G1 X153.106 Y8.342 Z-0.500 F60.000
G3 X152.907 Y8.400 Z-0.500 I-0.153 J-0.155 K0.000 F120.000
G1 X7.096 Y8.400 Z-0.500 F120.000
G3 X6.930 Y8.127 Z-0.500 I-0.075 J-0.141 K0.000 F120.000
G3 X7.092 Y8.100 Z-0.500 I0.132 J0.289 K0.000 F120.000
G1 X10.000 Y8.100 Z-0.500 F120.000
G2 X12.100 Y6.000 Z-0.500 I-0.000 J-2.100 K0.000 F120.000
G2 X12.062 Y4.603 Z-0.500 I-7.336 J-0.500 K0.000 F120.000
G2 X11.485 Y3.515 Z-0.500 I-2.062 J0.397 K0.000 F120.000
G1 X10.070 Y2.100 Z-0.500 F120.000
G1 X149.930 Y2.100 Z-0.500 F120.000
G1 X148.515 Y3.515 Z-0.500 F120.000
G2 X147.900 Y5.000 Z-0.500 I1.485 J1.485 K0.000 F120.000
G2 X147.938 Y6.397 Z-0.500 I7.336 J0.500 K0.000 F120.000
G2 X150.000 Y8.100 Z-0.500 I2.062 J-0.397 K0.000 F120.000
G1 X152.904 Y8.100 Z-0.500 F120.000
G3 X153.114 Y8.335 Z-0.500 I0.071 J0.148 K0.000 F120.000
G3 X153.106 Y8.342 Z-0.500 I-0.160 J-0.148 K0.000 F120.000
G0 Z5.000
G0 X146.648 Y7.000 Z5.000
G0 X146.648 Y7.000 Z3.000
G1 X146.648 Y7.000 Z-0.500 F60.000
G1 X13.344 Y7.000 Z-0.500 F120.000
G2 X13.500 Y6.000 Z-0.500 I-3.059 J-0.989 K0.000 F120.000
G2 X13.461 Y4.478 Z-0.500 I-10.172 J-0.500 K0.000 F120.000
G2 X13.161 Y3.500 Z-0.500 I-3.396 J0.507 K0.000 F120.000
G1 X146.847 Y3.500 Z-0.500 F120.000
G2 X146.500 Y5.000 Z-0.500 I3.019 J1.487 K0.000 F120.000
G2 X146.539 Y6.522 Z-0.500 I10.172 J0.500 K0.000 F120.000
G1 X146.648 Y7.000 Z-0.500 F120.000
G0 Z5.000
G0 X145.100 Y5.600 Z5.000
G0 X145.100 Y5.600 Z3.000
G1 X145.100 Y5.600 Z-0.500 F60.000
G1 X14.900 Y5.600 Z-0.500 F120.000
G2 X14.894 Y4.900 Z-0.500 I-5.566 J-0.300 K0.000 F120.000
G1 X145.108 Y4.900 Z-0.500 F120.000
G2 X145.100 Y5.600 Z-0.500 I4.443 J0.400 K0.000 F120.000
G0 Z5.000
G0 X144.750 Y5.250 Z5.000
G0 X144.750 Y5.250 Z3.000
G1 X144.750 Y5.250 Z-0.500 F60.000
G1 X15.250 Y5.250 Z-0.500 F120.000
G1 X15.250 Y5.250 Z-0.500 F120.000
G1 X144.750 Y5.250 Z-0.500 F120.000
G1 X144.750 Y5.250 Z-0.500 F120.000
G1 X144.750 Y5.250 Z-1.000 F60.000
G1 X15.250 Y5.250 Z-1.000 F120.000
G1 X15.250 Y5.250 Z-1.000 F120.000
G1 X144.750 Y5.250 Z-1.000 F120.000
G1 X144.750 Y5.250 Z-1.000 F120.000
G0 Z5.000
G0 X145.090 Y5.254 Z5.000
G0 X145.090 Y5.254 Z3.000
G1 X145.090 Y5.254 Z-1.000 F60.000
G2 X145.100 Y5.600 Z-1.000 I4.461 J0.046 K0.000 F120.000
G1 X14.900 Y5.600 Z-1.000 F120.000
G2 X14.894 Y4.900 Z-1.000 I-5.566 J-0.300 K0.000 F120.000
G1 X145.108 Y4.900 Z-1.000 F120.000
G2 X145.090 Y5.254 Z-1.000 I4.443 J0.400 K0.000 F120.000
G0 Z5.000
G0 X146.490 Y5.283 Z5.000
G0 X146.490 Y5.283 Z3.000
G1 X146.490 Y5.283 Z-1.000 F60.000
G2 X146.539 Y6.522 Z-1.000 I10.182 J0.217 K0.000 F120.000
G1 X146.648 Y7.000 Z-1.000 F120.000
G1 X13.344 Y7.000 Z-1.000 F120.000
G2 X13.500 Y6.000 Z-1.000 I-3.059 J-0.989 K0.000 F120.000
G2 X13.461 Y4.478 Z-1.000 I-10.172 J-0.500 K0.000 F120.000
G2 X13.161 Y3.500 Z-1.000 I-3.396 J0.507 K0.000 F120.000
G1 X146.847 Y3.500 Z-1.000 F120.000
G2 X146.500 Y5.000 Z-1.000 I3.019 J1.487 K0.000 F120.000
G2 X146.490 Y5.283 Z-1.000 I10.172 J0.500 K0.000 F120.000
G0 Z5.000
G0 X147.885 Y5.318 Z5.000
G0 X147.885 Y5.318 Z3.000
G1 X147.885 Y5.318 Z-1.000 F60.000
G2 X147.938 Y6.397 Z-1.000 I7.351 J0.182 K0.000 F120.000
G2 X150.000 Y8.100 Z-1.000 I2.062 J-0.397 K0.000 F120.000
G1 X152.904 Y8.100 Z-1.000 F120.000
G3 X153.114 Y8.335 Z-1.000 I0.071 J0.148 K0.000 F120.000
G3 X152.907 Y8.400 Z-1.000 I-0.160 J-0.148 K0.000 F120.000
G1 X7.096 Y8.400 Z-1.000 F120.000
G3 X6.930 Y8.127 Z-1.000 I-0.075 J-0.141 K0.000 F120.000
G3 X7.092 Y8.100 Z-1.000 I0.132 J0.289 K0.000 F120.000
G1 X10.000 Y8.100 Z-1.000 F120.000
G2 X12.100 Y6.000 Z-1.000 I-0.000 J-2.100 K0.000 F120.000
G2 X12.062 Y4.603 Z-1.000 I-7.336 J-0.500 K0.000 F120.000
G2 X11.485 Y3.515 Z-1.000 I-2.062 J0.397 K0.000 F120.000
G1 X10.070 Y2.100 Z-1.000 F120.000
G1 X149.930 Y2.100 Z-1.000 F120.000
G1 X148.515 Y3.515 Z-1.000 F120.000
G2 X147.900 Y5.000 Z-1.000 I1.485 J1.485 K0.000 F120.000
G2 X147.885 Y5.318 Z-1.000 I7.336 J0.500 K0.000 F120.000
G0 Z5.000
G0 X149.300 Z5.000
G0 X149.300 Z3.000
G1 X149.300 Y5.318 Z-1.000 F60.000
G1 X149.300 Y6.000 Z-1.000 F120.000
G2 X150.000 Y6.700 Z-1.000 I0.700 J-0.000 K0.000 F120.000
G1 X152.968 Y6.700 Z-1.000 F120.000
G3 X153.289 Y9.770 Z-1.000 I0.031 J1.549 K0.000 F120.000
G1 X152.973 Y9.800 Z-1.000 F120.000
G1 X7.036 Y9.800 Z-1.000 F120.000
G3 X6.732 Y6.726 Z-1.000 I-0.033 J-1.549 K0.000 F120.000
G1 X7.031 Y6.700 Z-1.000 F120.000
G1 X10.000 Y6.700 Z-1.000 F120.000
G2 X10.700 Y6.000 Z-1.000 I-0.000 J-0.700 K0.000 F120.000
G1 X10.700 Y5.000 Z-1.000 F120.000
G2 X10.495 Y4.505 Z-1.000 I-0.700 J0.000 K0.000 F120.000
G1 X6.690 Y0.700 Z-1.000 F120.000
G1 X153.310 Y0.700 Z-1.000 F120.000
G1 X149.505 Y4.505 Z-1.000 F120.000
G2 X149.300 Y5.000 Z-1.000 I0.495 J0.495 K0.000 F120.000
G1 X149.300 Y5.318 Z-1.000 F120.000
G1 X149.300 Y5.318 Z-1.500 F60.000
G1 X149.300 Y6.000 Z-1.500 F120.000
G2 X150.000 Y6.700 Z-1.500 I0.700 J-0.000 K0.000 F120.000
G1 X152.968 Y6.700 Z-1.500 F120.000
G3 X153.289 Y9.770 Z-1.500 I0.031 J1.549 K0.000 F120.000
G1 X152.973 Y9.800 Z-1.500 F120.000
G1 X7.036 Y9.800 Z-1.500 F120.000
G3 X6.732 Y6.726 Z-1.500 I-0.033 J-1.549 K0.000 F120.000
G1 X7.031 Y6.700 Z-1.500 F120.000
G1 X10.000 Y6.700 Z-1.500 F120.000
G2 X10.700 Y6.000 Z-1.500 I-0.000 J-0.700 K0.000 F120.000
G1 X10.700 Y5.000 Z-1.500 F120.000
G2 X10.495 Y4.505 Z-1.500 I-0.700 J0.000 K0.000 F120.000
G1 X6.690 Y0.700 Z-1.500 F120.000
G1 X153.310 Y0.700 Z-1.500 F120.000
G1 X149.505 Y4.505 Z-1.500 F120.000
G2 X149.300 Y5.000 Z-1.500 I0.495 J0.495 K0.000 F120.000
G1 X149.300 Y5.318 Z-1.500 F120.000
G0 Z5.000
G0 X147.886 Y5.275 Z5.000
G0 X147.886 Y5.275 Z3.000
G1 X147.886 Y5.275 Z-1.500 F60.000
G2 X147.938 Y6.397 Z-1.500 I7.350 J0.225 K0.000 F120.000
G2 X150.000 Y8.100 Z-1.500 I2.062 J-0.397 K0.000 F120.000
G1 X152.904 Y8.100 Z-1.500 F120.000
G3 X153.114 Y8.335 Z-1.500 I0.071 J0.148 K0.000 F120.000
G3 X152.907 Y8.400 Z-1.500 I-0.160 J-0.148 K0.000 F120.000
G1 X7.096 Y8.400 Z-1.500 F120.000
G3 X6.930 Y8.127 Z-1.500 I-0.075 J-0.141 K0.000 F120.000
G3 X7.092 Y8.100 Z-1.500 I0.132 J0.289 K0.000 F120.000
G1 X10.000 Y8.100 Z-1.500 F120.000
G2 X12.100 Y6.000 Z-1.500 I-0.000 J-2.100 K0.000 F120.000
G2 X12.062 Y4.603 Z-1.500 I-7.336 J-0.500 K0.000 F120.000
G2 X11.485 Y3.515 Z-1.500 I-2.062 J0.397 K0.000 F120.000
G1 X10.070 Y2.100 Z-1.500 F120.000
G1 X149.930 Y2.100 Z-1.500 F120.000
G1 X148.515 Y3.515 Z-1.500 F120.000
G2 X147.900 Y5.000 Z-1.500 I1.485 J1.485 K0.000 F120.000
G2 X147.886 Y5.275 Z-1.500 I7.336 J0.500 K0.000 F120.000
G0 Z5.000
G0 X146.491 Y5.239 Z5.000
G0 X146.491 Y5.239 Z3.000
G1 X146.491 Y5.239 Z-1.500 F60.000
G2 X146.539 Y6.522 Z-1.500 I10.181 J0.261 K0.000 F120.000
G1 X146.648 Y7.000 Z-1.500 F120.000
G1 X13.344 Y7.000 Z-1.500 F120.000
G2 X13.500 Y6.000 Z-1.500 I-3.059 J-0.989 K0.000 F120.000
G2 X13.461 Y4.478 Z-1.500 I-10.172 J-0.500 K0.000 F120.000
G2 X13.161 Y3.500 Z-1.500 I-3.396 J0.507 K0.000 F120.000
G1 X146.847 Y3.500 Z-1.500 F120.000
G2 X146.500 Y5.000 Z-1.500 I3.019 J1.487 K0.000 F120.000
G2 X146.491 Y5.239 Z-1.500 I10.172 J0.500 K0.000 F120.000
G0 Z5.000
G0 X145.091 Y5.211 Z5.000
G0 X145.091 Y5.211 Z3.000
G1 X145.091 Y5.211 Z-1.500 F60.000
G2 X145.100 Y5.600 Z-1.500 I4.460 J0.089 K0.000 F120.000
G1 X14.900 Y5.600 Z-1.500 F120.000
G2 X14.894 Y4.900 Z-1.500 I-5.566 J-0.300 K0.000 F120.000
G1 X145.108 Y4.900 Z-1.500 F120.000
G2 X145.091 Y5.211 Z-1.500 I4.443 J0.400 K0.000 F120.000
G0 Z5.000
G0 X144.750 Y5.250 Z5.000
G0 X144.750 Y5.250 Z3.000
G1 X144.750 Y5.250 Z-1.500 F60.000
G1 X15.250 Y5.250 Z-1.500 F120.000
G1 X15.250 Y5.250 Z-1.500 F120.000
G1 X144.750 Y5.250 Z-1.500 F120.000
G1 X144.750 Y5.250 Z-1.500 F120.000
G1 X144.750 Y5.250 Z-2.000 F60.000
G1 X15.250 Y5.250 Z-2.000 F120.000
G1 X15.250 Y5.250 Z-2.000 F120.000
G1 X144.750 Y5.250 Z-2.000 F120.000
G1 X144.750 Y5.250 Z-2.000 F120.000
G0 Z5.000
G0 X145.090 Y5.254 Z5.000
G0 X145.090 Y5.254 Z3.000
G1 X145.090 Y5.254 Z-2.000 F60.000
G2 X145.100 Y5.600 Z-2.000 I4.461 J0.046 K0.000 F120.000
G1 X14.900 Y5.600 Z-2.000 F120.000
G2 X14.894 Y4.900 Z-2.000 I-5.566 J-0.300 K0.000 F120.000
G1 X145.108 Y4.900 Z-2.000 F120.000
G2 X145.090 Y5.254 Z-2.000 I4.443 J0.400 K0.000 F120.000
G0 Z5.000
G0 X146.490 Y5.283 Z5.000
G0 X146.490 Y5.283 Z3.000
G1 X146.490 Y5.283 Z-2.000 F60.000
G2 X146.539 Y6.522 Z-2.000 I10.182 J0.217 K0.000 F120.000
G1 X146.648 Y7.000 Z-2.000 F120.000
G1 X13.344 Y7.000 Z-2.000 F120.000
G2 X13.500 Y6.000 Z-2.000 I-3.059 J-0.989 K0.000 F120.000
G2 X13.461 Y4.478 Z-2.000 I-10.172 J-0.500 K0.000 F120.000
G2 X13.161 Y3.500 Z-2.000 I-3.396 J0.507 K0.000 F120.000
G1 X146.847 Y3.500 Z-2.000 F120.000
G2 X146.500 Y5.000 Z-2.000 I3.019 J1.487 K0.000 F120.000
G2 X146.490 Y5.283 Z-2.000 I10.172 J0.500 K0.000 F120.000
G0 Z5.000
G0 X147.885 Y5.318 Z5.000
G0 X147.885 Y5.318 Z3.000
G1 X147.885 Y5.318 Z-2.000 F60.000
G2 X147.938 Y6.397 Z-2.000 I7.351 J0.182 K0.000 F120.000
G2 X150.000 Y8.100 Z-2.000 I2.062 J-0.397 K0.000 F120.000
G1 X152.904 Y8.100 Z-2.000 F120.000
G3 X153.114 Y8.335 Z-2.000 I0.071 J0.148 K0.000 F120.000
G3 X152.907 Y8.400 Z-2.000 I-0.160 J-0.148 K0.000 F120.000
G1 X7.096 Y8.400 Z-2.000 F120.000
G3 X6.930 Y8.127 Z-2.000 I-0.075 J-0.141 K0.000 F120.000
G3 X7.092 Y8.100 Z-2.000 I0.132 J0.289 K0.000 F120.000
G1 X10.000 Y8.100 Z-2.000 F120.000
G2 X12.100 Y6.000 Z-2.000 I-0.000 J-2.100 K0.000 F120.000
G2 X12.062 Y4.603 Z-2.000 I-7.336 J-0.500 K0.000 F120.000
G2 X11.485 Y3.515 Z-2.000 I-2.062 J0.397 K0.000 F120.000
G1 X10.070 Y2.100 Z-2.000 F120.000
G1 X149.930 Y2.100 Z-2.000 F120.000
G1 X148.515 Y3.515 Z-2.000 F120.000
G2 X147.900 Y5.000 Z-2.000 I1.485 J1.485 K0.000 F120.000
G2 X147.885 Y5.318 Z-2.000 I7.336 J0.500 K0.000 F120.000
G0 Z5.000
G0 X149.300 Z5.000
G0 X149.300 Z3.000
G1 X149.300 Y5.318 Z-2.000 F60.000
G1 X149.300 Y6.000 Z-2.000 F120.000
G2 X150.000 Y6.700 Z-2.000 I0.700 J-0.000 K0.000 F120.000
G1 X152.968 Y6.700 Z-2.000 F120.000
G3 X153.289 Y9.770 Z-2.000 I0.031 J1.549 K0.000 F120.000
G1 X152.973 Y9.800 Z-2.000 F120.000
G1 X7.036 Y9.800 Z-2.000 F120.000
G3 X6.732 Y6.726 Z-2.000 I-0.033 J-1.549 K0.000 F120.000
G1 X7.031 Y6.700 Z-2.000 F120.000
G1 X10.000 Y6.700 Z-2.000 F120.000
G2 X10.700 Y6.000 Z-2.000 I-0.000 J-0.700 K0.000 F120.000
G1 X10.700 Y5.000 Z-2.000 F120.000
G2 X10.495 Y4.505 Z-2.000 I-0.700 J0.000 K0.000 F120.000
G1 X6.690 Y0.700 Z-2.000 F120.000
G1 X153.310 Y0.700 Z-2.000 F120.000
G1 X149.505 Y4.505 Z-2.000 F120.000
G2 X149.300 Y5.000 Z-2.000 I0.495 J0.495 K0.000 F120.000
G1 X149.300 Y5.318 Z-2.000 F120.000
G1 X149.300 Y5.318 Z-2.500 F60.000
G1 X149.300 Y6.000 Z-2.500 F120.000
G2 X150.000 Y6.700 Z-2.500 I0.700 J-0.000 K0.000 F120.000
G1 X152.968 Y6.700 Z-2.500 F120.000
G3 X153.289 Y9.770 Z-2.500 I0.031 J1.549 K0.000 F120.000
G1 X152.973 Y9.800 Z-2.500 F120.000
G1 X7.036 Y9.800 Z-2.500 F120.000
G3 X6.732 Y6.726 Z-2.500 I-0.033 J-1.549 K0.000 F120.000
G1 X7.031 Y6.700 Z-2.500 F120.000
G1 X10.000 Y6.700 Z-2.500 F120.000
G2 X10.700 Y6.000 Z-2.500 I-0.000 J-0.700 K0.000 F120.000
G1 X10.700 Y5.000 Z-2.500 F120.000
G2 X10.495 Y4.505 Z-2.500 I-0.700 J0.000 K0.000 F120.000
G1 X6.690 Y0.700 Z-2.500 F120.000
G1 X153.310 Y0.700 Z-2.500 F120.000
G1 X149.505 Y4.505 Z-2.500 F120.000
G2 X149.300 Y5.000 Z-2.500 I0.495 J0.495 K0.000 F120.000
G1 X149.300 Y5.318 Z-2.500 F120.000
G0 Z5.000
G0 X147.886 Y5.275 Z5.000
G0 X147.886 Y5.275 Z3.000
G1 X147.886 Y5.275 Z-2.500 F60.000
G2 X147.938 Y6.397 Z-2.500 I7.350 J0.225 K0.000 F120.000
G2 X150.000 Y8.100 Z-2.500 I2.062 J-0.397 K0.000 F120.000
G1 X152.904 Y8.100 Z-2.500 F120.000
G3 X153.114 Y8.335 Z-2.500 I0.071 J0.148 K0.000 F120.000
G3 X152.907 Y8.400 Z-2.500 I-0.160 J-0.148 K0.000 F120.000
G1 X7.096 Y8.400 Z-2.500 F120.000
G3 X6.930 Y8.127 Z-2.500 I-0.075 J-0.141 K0.000 F120.000
G3 X7.092 Y8.100 Z-2.500 I0.132 J0.289 K0.000 F120.000
G1 X10.000 Y8.100 Z-2.500 F120.000
G2 X12.100 Y6.000 Z-2.500 I-0.000 J-2.100 K0.000 F120.000
G2 X12.062 Y4.603 Z-2.500 I-7.336 J-0.500 K0.000 F120.000
G2 X11.485 Y3.515 Z-2.500 I-2.062 J0.397 K0.000 F120.000
G1 X10.070 Y2.100 Z-2.500 F120.000
G1 X149.930 Y2.100 Z-2.500 F120.000
G1 X148.515 Y3.515 Z-2.500 F120.000
G2 X147.900 Y5.000 Z-2.500 I1.485 J1.485 K0.000 F120.000
G2 X147.886 Y5.275 Z-2.500 I7.336 J0.500 K0.000 F120.000
G0 Z5.000
G0 X146.491 Y5.239 Z5.000
G0 X146.491 Y5.239 Z3.000
G1 X146.491 Y5.239 Z-2.500 F60.000
G2 X146.539 Y6.522 Z-2.500 I10.181 J0.261 K0.000 F120.000
G1 X146.648 Y7.000 Z-2.500 F120.000
G1 X13.344 Y7.000 Z-2.500 F120.000
G2 X13.500 Y6.000 Z-2.500 I-3.059 J-0.989 K0.000 F120.000
G2 X13.461 Y4.478 Z-2.500 I-10.172 J-0.500 K0.000 F120.000
G2 X13.161 Y3.500 Z-2.500 I-3.396 J0.507 K0.000 F120.000
G1 X146.847 Y3.500 Z-2.500 F120.000
G2 X146.500 Y5.000 Z-2.500 I3.019 J1.487 K0.000 F120.000
G2 X146.491 Y5.239 Z-2.500 I10.172 J0.500 K0.000 F120.000
G0 Z5.000
G0 X145.091 Y5.211 Z5.000
G0 X145.091 Y5.211 Z3.000
G1 X145.091 Y5.211 Z-2.500 F60.000
G2 X145.100 Y5.600 Z-2.500 I4.460 J0.089 K0.000 F120.000
G1 X14.900 Y5.600 Z-2.500 F120.000
G2 X14.894 Y4.900 Z-2.500 I-5.566 J-0.300 K0.000 F120.000
G1 X145.108 Y4.900 Z-2.500 F120.000
G2 X145.091 Y5.211 Z-2.500 I4.443 J0.400 K0.000 F120.000
G0 Z5.000
G0 X144.750 Y5.250 Z5.000
G0 X144.750 Y5.250 Z3.000
G1 X144.750 Y5.250 Z-2.500 F60.000
G1 X15.250 Y5.250 Z-2.500 F120.000
G1 X15.250 Y5.250 Z-2.500 F120.000
G1 X144.750 Y5.250 Z-2.500 F120.000
G1 X144.750 Y5.250 Z-2.500 F120.000
G0 Z5.000
G0 Y4.300 Z5.000
G0 Y4.300 Z3.000
G1 X144.750 Y4.300 Z-3.000 F60.000
G1 X10.290 Y4.300 Z-3.000 F120.000
G1 X6.690 Y0.700 Z-3.000 F120.000
G1 X153.310 Y0.700 Z-3.000 F120.000
G1 X149.710 Y4.300 Z-3.000 F120.000
G1 X144.750 Y4.300 Z-3.000 F120.000
G0 Z5.000
G0 Y2.900 Z5.000
G0 Y2.900 Z3.000
G1 X144.750 Y2.900 Z-3.000 F60.000
G1 X10.870 Y2.900 Z-3.000 F120.000
G1 X10.070 Y2.100 Z-3.000 F120.000
G1 X149.930 Y2.100 Z-3.000 F120.000
G1 X149.130 Y2.900 Z-3.000 F120.000
G1 X144.750 Y2.900 Z-3.000 F120.000
G0 Z5.000
G0 Y2.550 Z5.000
G0 Y2.550 Z3.000
G1 X144.750 Y2.550 Z-3.000 F60.000
G1 X11.015 Y2.550 Z-3.000 F120.000
G1 X10.915 Y2.450 Z-3.000 F120.000
G1 X149.085 Y2.450 Z-3.000 F120.000
G1 X148.985 Y2.550 Z-3.000 F120.000
G1 X144.750 Y2.550 Z-3.000 F120.000
G0 Z5.000
G0 Y6.700 Z5.000
G0 Y6.700 Z3.000
G1 X144.750 Y6.700 Z-3.000 F60.000
G1 X152.968 Y6.700 Z-3.000 F120.000
G3 X153.289 Y9.770 Z-3.000 I0.031 J1.549 K0.000 F120.000
G1 X152.973 Y9.800 Z-3.000 F120.000
G1 X7.036 Y9.800 Z-3.000 F120.000
G3 X6.732 Y6.726 Z-3.000 I-0.033 J-1.549 K0.000 F120.000
G1 X7.031 Y6.700 Z-3.000 F120.000
G1 X144.750 Y6.700 Z-3.000 F120.000
G0 Z5.000
G0 Y8.100 Z5.000
G0 Y8.100 Z3.000
G1 X144.750 Y8.100 Z-3.000 F60.000
G1 X152.904 Y8.100 Z-3.000 F120.000
G3 X153.114 Y8.335 Z-3.000 I0.071 J0.148 K0.000 F120.000
G3 X152.907 Y8.400 Z-3.000 I-0.160 J-0.148 K0.000 F120.000
G1 X7.096 Y8.400 Z-3.000 F120.000
G3 X6.930 Y8.127 Z-3.000 I-0.075 J-0.141 K0.000 F120.000
G3 X7.092 Y8.100 Z-3.000 I0.132 J0.289 K0.000 F120.000
G1 X144.750 Y8.100 Z-3.000 F120.000
G1 X144.750 Y8.100 Z-3.500 F60.000
G1 X152.904 Y8.100 Z-3.500 F120.000
G3 X153.114 Y8.335 Z-3.500 I0.071 J0.148 K0.000 F120.000
G3 X152.907 Y8.400 Z-3.500 I-0.160 J-0.148 K0.000 F120.000
G1 X7.096 Y8.400 Z-3.500 F120.000
G3 X6.930 Y8.127 Z-3.500 I-0.075 J-0.141 K0.000 F120.000
G3 X7.092 Y8.100 Z-3.500 I0.132 J0.289 K0.000 F120.000
G1 X144.750 Y8.100 Z-3.500 F120.000
G0 Z5.000
G0 Y6.700 Z5.000
G0 Y6.700 Z3.000
G1 X144.750 Y6.700 Z-3.500 F60.000
G1 X152.968 Y6.700 Z-3.500 F120.000
G3 X153.289 Y9.770 Z-3.500 I0.031 J1.549 K0.000 F120.000
G1 X152.973 Y9.800 Z-3.500 F120.000
G1 X7.036 Y9.800 Z-3.500 F120.000
G3 X6.732 Y6.726 Z-3.500 I-0.033 J-1.549 K0.000 F120.000
G1 X7.031 Y6.700 Z-3.500 F120.000
G1 X144.750 Y6.700 Z-3.500 F120.000
G0 Z5.000
G0 Y3.800 Z5.000
G0 Y3.800 Z3.000
G1 X144.750 Y3.800 Z-3.500 F60.000
G1 X9.790 Y3.800 Z-3.500 F120.000
G1 X6.690 Y0.700 Z-3.500 F120.000
G1 X153.310 Y0.700 Z-3.500 F120.000
G1 X150.210 Y3.800 Z-3.500 F120.000
G1 X144.750 Y3.800 Z-3.500 F120.000
G0 Z5.000
G0 Y2.400 Z5.000
G0 Y2.400 Z3.000
G1 X144.750 Y2.400 Z-3.500 F60.000
G1 X10.370 Y2.400 Z-3.500 F120.000
G1 X10.070 Y2.100 Z-3.500 F120.000
G1 X149.930 Y2.100 Z-3.500 F120.000
G1 X149.630 Y2.400 Z-3.500 F120.000
G1 X144.750 Y2.400 Z-3.500 F120.000
G0 Z5.000
G0 Y3.300 Z5.000
G0 Y3.300 Z3.000
G1 X144.750 Y3.300 Z-4.000 F60.000
G1 X9.290 Y3.300 Z-4.000 F120.000
G1 X6.690 Y0.700 Z-4.000 F120.000
G1 X153.310 Y0.700 Z-4.000 F120.000
G1 X150.710 Y3.300 Z-4.000 F120.000
G1 X144.750 Y3.300 Z-4.000 F120.000
G0 Z5.000
G0 Y6.700 Z5.000
G0 Y6.700 Z3.000
G1 X144.750 Y6.700 Z-4.000 F60.000
G1 X152.968 Y6.700 Z-4.000 F120.000
G3 X153.289 Y9.770 Z-4.000 I0.031 J1.549 K0.000 F120.000
G1 X152.973 Y9.800 Z-4.000 F120.000
G1 X7.036 Y9.800 Z-4.000 F120.000
G3 X6.732 Y6.726 Z-4.000 I-0.033 J-1.549 K0.000 F120.000
G1 X7.031 Y6.700 Z-4.000 F120.000
G1 X144.750 Y6.700 Z-4.000 F120.000
G0 Z5.000
G0 Y8.100 Z5.000
G0 Y8.100 Z3.000
G1 X144.750 Y8.100 Z-4.000 F60.000
G1 X152.904 Y8.100 Z-4.000 F120.000
G3 X153.114 Y8.335 Z-4.000 I0.071 J0.148 K0.000 F120.000
G3 X152.907 Y8.400 Z-4.000 I-0.160 J-0.148 K0.000 F120.000
G1 X7.096 Y8.400 Z-4.000 F120.000
G3 X6.930 Y8.127 Z-4.000 I-0.075 J-0.141 K0.000 F120.000
G3 X7.092 Y8.100 Z-4.000 I0.132 J0.289 K0.000 F120.000
G1 X144.750 Y8.100 Z-4.000 F120.000
G1 X144.750 Y8.100 Z-4.500 F60.000
G1 X152.904 Y8.100 Z-4.500 F120.000
G3 X153.114 Y8.335 Z-4.500 I0.071 J0.148 K0.000 F120.000
G3 X152.907 Y8.400 Z-4.500 I-0.160 J-0.148 K0.000 F120.000
G1 X7.096 Y8.400 Z-4.500 F120.000
G3 X6.930 Y8.127 Z-4.500 I-0.075 J-0.141 K0.000 F120.000
G3 X7.092 Y8.100 Z-4.500 I0.132 J0.289 K0.000 F120.000
G1 X144.750 Y8.100 Z-4.500 F120.000
G0 Z5.000
G0 Y6.700 Z5.000
G0 Y6.700 Z3.000
G1 X144.750 Y6.700 Z-4.500 F60.000
G1 X152.968 Y6.700 Z-4.500 F120.000
G3 X153.289 Y9.770 Z-4.500 I0.031 J1.549 K0.000 F120.000
G1 X152.973 Y9.800 Z-4.500 F120.000
G1 X7.036 Y9.800 Z-4.500 F120.000
G3 X6.732 Y6.726 Z-4.500 I-0.033 J-1.549 K0.000 F120.000
G1 X7.031 Y6.700 Z-4.500 F120.000
G1 X144.750 Y6.700 Z-4.500 F120.000
G0 Z5.000
G0 Y2.800 Z5.000
G0 Y2.800 Z3.000
G1 X144.750 Y2.800 Z-4.500 F60.000
G1 X8.790 Y2.800 Z-4.500 F120.000
G1 X6.690 Y0.700 Z-4.500 F120.000
G1 X153.310 Y0.700 Z-4.500 F120.000
G1 X151.210 Y2.800 Z-4.500 F120.000
G1 X144.750 Y2.800 Z-4.500 F120.000
G0 Z5.000
G0 Y2.300 Z5.000
G0 Y2.300 Z3.000
G1 X144.750 Y2.300 Z-5.000 F60.000
G1 X8.290 Y2.300 Z-5.000 F120.000
G1 X6.690 Y0.700 Z-5.000 F120.000
